( Flat )
( File created: Thursday May 27 2021 - 06:41 PM)
( USBCNC Postprocessor )
( Material Size)
( X= 260.000, Y= 280.000, Z= 2.000)
()
(Toolpaths used in this file:)
(Pocket 1)
(Tools used in this file: )
(1 = End Mill {3 mm})
N100G00G21G17G90G40G49
N110G80
N120 (End Mill {3 mm})
N130G00G43Z20.320H1
N140S12000M03
N150(Toolpath:- Pocket 1)
N160()
N170G94
N180X0.000Y0.000F300.0
N190G00X129.900Y129.900Z5.080
N200G1Z-0.300F1200.0
N210G1Y150.100F300.0
N220G1X130.100
N230G1Y129.900
N240G1X129.900
N250G1X128.700Y128.700
N260G1Y151.300
N270G1X131.300
N280G1Y128.700
N290G1X128.700
N300G1X127.500Y127.500
N310G1Y152.500
N320G1X132.500
N330G1Y127.500
N340G1X127.500
N350G1X126.300Y126.300
N360G1Y153.700
N370G1X133.700
N380G1Y126.300
N390G1X126.300
N400G1X125.100Y125.100
N410G1Y154.900
N420G1X134.900
N430G1Y125.100
N440G1X125.100
N450G1X123.900Y123.900
N460G1Y156.100
N470G1X136.100
N480G1Y123.900
N490G1X123.900
N500G1X122.700Y122.700
N510G1Y157.300
N520G1X137.300
N530G1Y122.700
N540G1X122.700
N550G1X121.500Y121.500
N560G1Y158.500
N570G1X138.500
N580G1Y121.500
N590G1X121.500
N600G1X120.300Y120.300
N610G1Y159.700
N620G1X139.700
N630G1Y120.300
N640G1X120.300
N650G1X119.100Y119.100
N660G1Y160.900
N670G1X140.900
N680G1Y119.100
N690G1X119.100
N700G1X117.900Y117.900
N710G1Y162.100
N720G1X142.100
N730G1Y117.900
N740G1X117.900
N750G1X116.700Y116.700
N760G1Y163.300
N770G1X143.300
N780G1Y116.700
N790G1X116.700
N800G1X115.500Y115.500
N810G1Y164.500
N820G1X144.500
N830G1Y115.500
N840G1X115.500
N850G1X114.300Y114.300
N860G1Y165.700
N870G1X145.700
N880G1Y114.300
N890G1X114.300
N900G1X113.100Y113.100
N910G1Y166.900
N920G1X146.900
N930G1Y113.100
N940G1X113.100
N950G1X111.900Y111.900
N960G1Y168.100
N970G1X148.100
N980G1Y111.900
N990G1X111.900
N1000G1X110.700Y110.700
N1010G1Y169.300
N1020G1X149.300
N1030G1Y110.700
N1040G1X110.700
N1050G1X109.500Y109.500
N1060G1Y170.500
N1070G1X150.500
N1080G1Y109.500
N1090G1X109.500
N1100G1X108.300Y108.300
N1110G1Y171.700
N1120G1X151.700
N1130G1Y108.300
N1140G1X108.300
N1150G1X107.100Y107.100
N1160G1Y172.900
N1170G1X152.900
N1180G1Y107.100
N1190G1X107.100
N1200G1X105.900Y105.900
N1210G1Y174.100
N1220G1X154.100
N1230G1Y105.900
N1240G1X105.900
N1250G1X104.700Y104.700
N1260G1Y175.300
N1270G1X155.300
N1280G1Y104.700
N1290G1X104.700
N1300G1X103.500Y103.500
N1310G1Y176.500
N1320G1X156.500
N1330G1Y103.500
N1340G1X103.500
N1350G1X102.300Y102.300
N1360G1Y177.700
N1370G1X157.700
N1380G1Y102.300
N1390G1X102.300
N1400G1X101.100Y101.100
N1410G1Y178.900
N1420G1X158.900
N1430G1Y101.100
N1440G1X101.100
N1450G1X99.900Y99.900
N1460G1Y180.100
N1470G1X160.100
N1480G1Y99.900
N1490G1X99.900
N1500G1X98.700Y98.700
N1510G1Y181.300
N1520G1X161.300
N1530G1Y98.700
N1540G1X98.700
N1550G1X97.500Y97.500
N1560G1Y182.500
N1570G1X162.500
N1580G1Y97.500
N1590G1X97.500
N1600G1X96.300Y96.300
N1610G1Y183.700
N1620G1X163.700
N1630G1Y96.300
N1640G1X96.300
N1650G1X95.100Y95.100
N1660G1Y184.900
N1670G1X164.900
N1680G1Y95.100
N1690G1X95.100
N1700G1X93.900Y93.900
N1710G1Y186.100
N1720G1X166.100
N1730G1Y93.900
N1740G1X93.900
N1750G1X92.700Y92.700
N1760G1Y187.300
N1770G1X167.300
N1780G1Y92.700
N1790G1X92.700
N1800G1X91.500Y91.500
N1810G1Y188.500
N1820G1X168.500
N1830G1Y91.500
N1840G1X91.500
N1850G1X90.300Y90.300
N1860G1Y189.700
N1870G1X169.700
N1880G1Y90.300
N1890G1X90.300
N1900G1X89.100Y89.100
N1910G1Y190.900
N1920G1X170.900
N1930G1Y89.100
N1940G1X89.100
N1950G1X87.900Y87.900
N1960G1Y192.100
N1970G1X172.100
N1980G1Y87.900
N1990G1X87.900
N2000G1X86.700Y86.700
N2010G1Y193.300
N2020G1X173.300
N2030G1Y86.700
N2040G1X86.700
N2050G1X85.500Y85.500
N2060G1Y194.500
N2070G1X174.500
N2080G1Y85.500
N2090G1X85.500
N2100G1X84.300Y84.300
N2110G1Y195.700
N2120G1X175.700
N2130G1Y84.300
N2140G1X84.300
N2150G1X83.100Y83.100
N2160G1Y196.900
N2170G1X176.900
N2180G1Y83.100
N2190G1X83.100
N2200G1X81.900Y81.900
N2210G1Y198.100
N2220G1X178.100
N2230G1Y81.900
N2240G1X81.900
N2250G1X80.700Y80.700
N2260G1Y199.300
N2270G1X179.300
N2280G1Y80.700
N2290G1X80.700
N2300G1X79.500Y79.500
N2310G1Y200.500
N2320G1X180.500
N2330G1Y79.500
N2340G1X79.500
N2350G1X78.300Y78.300
N2360G1Y201.700
N2370G1X181.700
N2380G1Y78.300
N2390G1X78.300
N2400G1X77.100Y77.100
N2410G1Y202.900
N2420G1X182.900
N2430G1Y77.100
N2440G1X77.100
N2450G1X75.900Y75.900
N2460G1Y204.100
N2470G1X184.100
N2480G1Y75.900
N2490G1X75.900
N2500G1X74.700Y74.700
N2510G1Y205.300
N2520G1X185.300
N2530G1Y74.700
N2540G1X74.700
N2550G1X73.500Y73.500
N2560G1Y206.500
N2570G1X186.500
N2580G1Y73.500
N2590G1X73.500
N2600G1X72.300Y72.300
N2610G1Y207.700
N2620G1X187.700
N2630G1Y72.300
N2640G1X72.300
N2650G1X71.100Y71.100
N2660G1Y208.900
N2670G1X188.900
N2680G1Y71.100
N2690G1X71.100
N2700G1X69.900Y69.900
N2710G1Y210.100
N2720G1X190.100
N2730G1Y69.900
N2740G1X69.900
N2750G1X68.700Y68.700
N2760G1Y211.300
N2770G1X191.300
N2780G1Y68.700
N2790G1X68.700
N2800G1X67.500Y67.500
N2810G1Y212.500
N2820G1X192.500
N2830G1Y67.500
N2840G1X67.500
N2850G1X66.300Y66.300
N2860G1Y213.700
N2870G1X193.700
N2880G1Y66.300
N2890G1X66.300
N2900G1X65.100Y65.100
N2910G1Y214.900
N2920G1X194.900
N2930G1Y65.100
N2940G1X65.100
N2950G1X63.900Y63.900
N2960G1Y216.100
N2970G1X196.100
N2980G1Y63.900
N2990G1X63.900
N3000G1X62.700Y62.700
N3010G1Y217.300
N3020G1X197.300
N3030G1Y62.700
N3040G1X62.700
N3050G1X61.500Y61.500
N3060G1Y218.500
N3070G1X198.500
N3080G1Y61.500
N3090G1X61.500
N3100G1X60.300Y60.300
N3110G1Y219.700
N3120G1X199.700
N3130G1Y60.300
N3140G1X60.300
N3150G1X59.100Y59.100
N3160G1Y220.900
N3170G1X200.900
N3180G1Y59.100
N3190G1X59.100
N3200G1X57.900Y57.900
N3210G1Y222.100
N3220G1X202.100
N3230G1Y57.900
N3240G1X57.900
N3250G1X56.700Y56.700
N3260G1Y223.300
N3270G1X203.300
N3280G1Y56.700
N3290G1X56.700
N3300G1X55.500Y55.500
N3310G1Y224.500
N3320G1X204.500
N3330G1Y55.500
N3340G1X55.500
N3350G1X54.300Y54.300
N3360G1Y225.700
N3370G1X205.700
N3380G1Y54.300
N3390G1X54.300
N3400G1X53.100Y53.100
N3410G1Y226.900
N3420G1X206.900
N3430G1Y53.100
N3440G1X53.100
N3450G1X51.900Y51.900
N3460G1Y228.100
N3470G1X208.100
N3480G1Y51.900
N3490G1X51.900
N3500G1X50.700Y50.700
N3510G1Y229.300
N3520G1X209.300
N3530G1Y50.700
N3540G1X50.700
N3550G1X49.500Y49.500
N3560G1Y230.500
N3570G1X210.500
N3580G1Y49.500
N3590G1X49.500
N3600G1X48.300Y48.300
N3610G1Y231.700
N3620G1X211.700
N3630G1Y48.300
N3640G1X48.300
N3650G1X47.100Y47.100
N3660G1Y232.900
N3670G1X212.900
N3680G1Y47.100
N3690G1X47.100
N3700G1X45.900Y45.900
N3710G1Y234.100
N3720G1X214.100
N3730G1Y45.900
N3740G1X45.900
N3750G1X44.700Y44.700
N3760G1Y235.300
N3770G1X215.300
N3780G1Y44.700
N3790G1X44.700
N3800G1X43.500Y43.500
N3810G1Y236.500
N3820G1X216.500
N3830G1Y43.500
N3840G1X43.500
N3850G1X42.300Y42.300
N3860G1Y237.700
N3870G1X217.700
N3880G1Y42.300
N3890G1X42.300
N3900G1X41.100Y41.100
N3910G1Y238.900
N3920G1X218.900
N3930G1Y41.100
N3940G1X41.100
N3950G1X39.900Y39.900
N3960G1Y240.100
N3970G1X220.100
N3980G1Y39.900
N3990G1X39.900
N4000G1X38.700Y38.700
N4010G1Y241.300
N4020G1X221.300
N4030G1Y38.700
N4040G1X38.700
N4050G1X37.500Y37.500
N4060G1Y242.500
N4070G1X222.500
N4080G1Y37.500
N4090G1X37.500
N4100G1X36.300Y36.300
N4110G1Y243.700
N4120G1X223.700
N4130G1Y36.300
N4140G1X36.300
N4150G1X35.100Y35.100
N4160G1Y244.900
N4170G1X224.900
N4180G1Y35.100
N4190G1X35.100
N4200G1X33.900Y33.900
N4210G1Y246.100
N4220G1X226.100
N4230G1Y33.900
N4240G1X33.900
N4250G1X32.700Y32.700
N4260G1Y247.300
N4270G1X227.300
N4280G1Y32.700
N4290G1X32.700
N4300G1X31.500Y31.500
N4310G1Y248.500
N4320G1X228.500
N4330G1Y31.500
N4340G1X31.500
N4350G1X30.300Y30.300
N4360G1Y249.700
N4370G1X229.700
N4380G1Y30.300
N4390G1X30.300
N4400G1X29.100Y29.100
N4410G1Y250.900
N4420G1X230.900
N4430G1Y29.100
N4440G1X29.100
N4450G1X27.900Y27.900
N4460G1Y252.100
N4470G1X232.100
N4480G1Y27.900
N4490G1X27.900
N4500G1X26.700Y26.700
N4510G1Y253.300
N4520G1X233.300
N4530G1Y26.700
N4540G1X26.700
N4550G1X25.500Y25.500
N4560G1Y254.500
N4570G1X234.500
N4580G1Y25.500
N4590G1X25.500
N4600G1X24.300Y24.300
N4610G1Y255.700
N4620G1X235.700
N4630G1Y24.300
N4640G1X24.300
N4650G1X23.100Y23.100
N4660G1Y256.900
N4670G1X236.900
N4680G1Y23.100
N4690G1X23.100
N4700G1X21.900Y21.900
N4710G1Y258.100
N4720G1X238.100
N4730G1Y21.900
N4740G1X21.900
N4750G1X20.700Y20.700
N4760G1Y259.300
N4770G1X239.300
N4780G1Y20.700
N4790G1X20.700
N4800G1X19.500Y19.500
N4810G1Y260.500
N4820G1X240.500
N4830G1Y19.500
N4840G1X19.500
N4850G1X18.300Y18.300
N4860G1Y261.700
N4870G1X241.700
N4880G1Y18.300
N4890G1X18.300
N4900G1X17.100Y17.100
N4910G1Y262.900
N4920G1X242.900
N4930G1Y17.100
N4940G1X17.100
N4950G1X15.900Y15.900
N4960G1Y264.100
N4970G1X244.100
N4980G1Y15.900
N4990G1X15.900
N5000G1X14.700Y14.700
N5010G1Y265.300
N5020G1X245.300
N5030G1Y14.700
N5040G1X14.700
N5050G1X13.500Y13.500
N5060G1Y266.500
N5070G1X246.500
N5080G1Y13.500
N5090G1X13.500
N5100G1X12.300Y12.300
N5110G1Y267.700
N5120G1X247.700
N5130G1Y12.300
N5140G1X12.300
N5150G1X11.100Y11.100
N5160G1Y268.900
N5170G1X248.900
N5180G1Y11.100
N5190G1X11.100
N5200G1X9.900Y9.900
N5210G1Y270.100
N5220G1X250.100
N5230G1Y9.900
N5240G1X9.900
N5250G1X8.700Y8.700
N5260G1Y271.300
N5270G1X251.300
N5280G1Y8.700
N5290G1X8.700
N5300G1X7.500Y7.500
N5310G1Y272.500
N5320G1X252.500
N5330G1Y7.500
N5340G1X7.500
N5350G1X6.300Y6.300
N5360G1Y273.700
N5370G1X253.700
N5380G1Y6.300
N5390G1X6.300
N5400G1X5.100Y5.100
N5410G1Y274.900
N5420G1X254.900
N5430G1Y5.100
N5440G1X5.100
N5450G1X3.900Y3.900
N5460G1Y276.100
N5470G1X256.100
N5480G1Y3.900
N5490G1X3.900
N5500G1X2.700Y2.700
N5510G1Y277.300
N5520G1X257.300
N5530G1Y2.700
N5540G1X2.700
N5550G1X1.500Y1.500
N5560G1Y278.500
N5570G1X258.500
N5580G1Y1.500
N5590G1X1.500
N5600G00Z5.080
N5610G00X129.900Y129.900
N5620G1Z-0.600F1200.0
N5630G1Y150.100F300.0
N5640G1X130.100
N5650G1Y129.900
N5660G1X129.900
N5670G1X128.700Y128.700
N5680G1Y151.300
N5690G1X131.300
N5700G1Y128.700
N5710G1X128.700
N5720G1X127.500Y127.500
N5730G1Y152.500
N5740G1X132.500
N5750G1Y127.500
N5760G1X127.500
N5770G1X126.300Y126.300
N5780G1Y153.700
N5790G1X133.700
N5800G1Y126.300
N5810G1X126.300
N5820G1X125.100Y125.100
N5830G1Y154.900
N5840G1X134.900
N5850G1Y125.100
N5860G1X125.100
N5870G1X123.900Y123.900
N5880G1Y156.100
N5890G1X136.100
N5900G1Y123.900
N5910G1X123.900
N5920G1X122.700Y122.700
N5930G1Y157.300
N5940G1X137.300
N5950G1Y122.700
N5960G1X122.700
N5970G1X121.500Y121.500
N5980G1Y158.500
N5990G1X138.500
N6000G1Y121.500
N6010G1X121.500
N6020G1X120.300Y120.300
N6030G1Y159.700
N6040G1X139.700
N6050G1Y120.300
N6060G1X120.300
N6070G1X119.100Y119.100
N6080G1Y160.900
N6090G1X140.900
N6100G1Y119.100
N6110G1X119.100
N6120G1X117.900Y117.900
N6130G1Y162.100
N6140G1X142.100
N6150G1Y117.900
N6160G1X117.900
N6170G1X116.700Y116.700
N6180G1Y163.300
N6190G1X143.300
N6200G1Y116.700
N6210G1X116.700
N6220G1X115.500Y115.500
N6230G1Y164.500
N6240G1X144.500
N6250G1Y115.500
N6260G1X115.500
N6270G1X114.300Y114.300
N6280G1Y165.700
N6290G1X145.700
N6300G1Y114.300
N6310G1X114.300
N6320G1X113.100Y113.100
N6330G1Y166.900
N6340G1X146.900
N6350G1Y113.100
N6360G1X113.100
N6370G1X111.900Y111.900
N6380G1Y168.100
N6390G1X148.100
N6400G1Y111.900
N6410G1X111.900
N6420G1X110.700Y110.700
N6430G1Y169.300
N6440G1X149.300
N6450G1Y110.700
N6460G1X110.700
N6470G1X109.500Y109.500
N6480G1Y170.500
N6490G1X150.500
N6500G1Y109.500
N6510G1X109.500
N6520G1X108.300Y108.300
N6530G1Y171.700
N6540G1X151.700
N6550G1Y108.300
N6560G1X108.300
N6570G1X107.100Y107.100
N6580G1Y172.900
N6590G1X152.900
N6600G1Y107.100
N6610G1X107.100
N6620G1X105.900Y105.900
N6630G1Y174.100
N6640G1X154.100
N6650G1Y105.900
N6660G1X105.900
N6670G1X104.700Y104.700
N6680G1Y175.300
N6690G1X155.300
N6700G1Y104.700
N6710G1X104.700
N6720G1X103.500Y103.500
N6730G1Y176.500
N6740G1X156.500
N6750G1Y103.500
N6760G1X103.500
N6770G1X102.300Y102.300
N6780G1Y177.700
N6790G1X157.700
N6800G1Y102.300
N6810G1X102.300
N6820G1X101.100Y101.100
N6830G1Y178.900
N6840G1X158.900
N6850G1Y101.100
N6860G1X101.100
N6870G1X99.900Y99.900
N6880G1Y180.100
N6890G1X160.100
N6900G1Y99.900
N6910G1X99.900
N6920G1X98.700Y98.700
N6930G1Y181.300
N6940G1X161.300
N6950G1Y98.700
N6960G1X98.700
N6970G1X97.500Y97.500
N6980G1Y182.500
N6990G1X162.500
N7000G1Y97.500
N7010G1X97.500
N7020G1X96.300Y96.300
N7030G1Y183.700
N7040G1X163.700
N7050G1Y96.300
N7060G1X96.300
N7070G1X95.100Y95.100
N7080G1Y184.900
N7090G1X164.900
N7100G1Y95.100
N7110G1X95.100
N7120G1X93.900Y93.900
N7130G1Y186.100
N7140G1X166.100
N7150G1Y93.900
N7160G1X93.900
N7170G1X92.700Y92.700
N7180G1Y187.300
N7190G1X167.300
N7200G1Y92.700
N7210G1X92.700
N7220G1X91.500Y91.500
N7230G1Y188.500
N7240G1X168.500
N7250G1Y91.500
N7260G1X91.500
N7270G1X90.300Y90.300
N7280G1Y189.700
N7290G1X169.700
N7300G1Y90.300
N7310G1X90.300
N7320G1X89.100Y89.100
N7330G1Y190.900
N7340G1X170.900
N7350G1Y89.100
N7360G1X89.100
N7370G1X87.900Y87.900
N7380G1Y192.100
N7390G1X172.100
N7400G1Y87.900
N7410G1X87.900
N7420G1X86.700Y86.700
N7430G1Y193.300
N7440G1X173.300
N7450G1Y86.700
N7460G1X86.700
N7470G1X85.500Y85.500
N7480G1Y194.500
N7490G1X174.500
N7500G1Y85.500
N7510G1X85.500
N7520G1X84.300Y84.300
N7530G1Y195.700
N7540G1X175.700
N7550G1Y84.300
N7560G1X84.300
N7570G1X83.100Y83.100
N7580G1Y196.900
N7590G1X176.900
N7600G1Y83.100
N7610G1X83.100
N7620G1X81.900Y81.900
N7630G1Y198.100
N7640G1X178.100
N7650G1Y81.900
N7660G1X81.900
N7670G1X80.700Y80.700
N7680G1Y199.300
N7690G1X179.300
N7700G1Y80.700
N7710G1X80.700
N7720G1X79.500Y79.500
N7730G1Y200.500
N7740G1X180.500
N7750G1Y79.500
N7760G1X79.500
N7770G1X78.300Y78.300
N7780G1Y201.700
N7790G1X181.700
N7800G1Y78.300
N7810G1X78.300
N7820G1X77.100Y77.100
N7830G1Y202.900
N7840G1X182.900
N7850G1Y77.100
N7860G1X77.100
N7870G1X75.900Y75.900
N7880G1Y204.100
N7890G1X184.100
N7900G1Y75.900
N7910G1X75.900
N7920G1X74.700Y74.700
N7930G1Y205.300
N7940G1X185.300
N7950G1Y74.700
N7960G1X74.700
N7970G1X73.500Y73.500
N7980G1Y206.500
N7990G1X186.500
N8000G1Y73.500
N8010G1X73.500
N8020G1X72.300Y72.300
N8030G1Y207.700
N8040G1X187.700
N8050G1Y72.300
N8060G1X72.300
N8070G1X71.100Y71.100
N8080G1Y208.900
N8090G1X188.900
N8100G1Y71.100
N8110G1X71.100
N8120G1X69.900Y69.900
N8130G1Y210.100
N8140G1X190.100
N8150G1Y69.900
N8160G1X69.900
N8170G1X68.700Y68.700
N8180G1Y211.300
N8190G1X191.300
N8200G1Y68.700
N8210G1X68.700
N8220G1X67.500Y67.500
N8230G1Y212.500
N8240G1X192.500
N8250G1Y67.500
N8260G1X67.500
N8270G1X66.300Y66.300
N8280G1Y213.700
N8290G1X193.700
N8300G1Y66.300
N8310G1X66.300
N8320G1X65.100Y65.100
N8330G1Y214.900
N8340G1X194.900
N8350G1Y65.100
N8360G1X65.100
N8370G1X63.900Y63.900
N8380G1Y216.100
N8390G1X196.100
N8400G1Y63.900
N8410G1X63.900
N8420G1X62.700Y62.700
N8430G1Y217.300
N8440G1X197.300
N8450G1Y62.700
N8460G1X62.700
N8470G1X61.500Y61.500
N8480G1Y218.500
N8490G1X198.500
N8500G1Y61.500
N8510G1X61.500
N8520G1X60.300Y60.300
N8530G1Y219.700
N8540G1X199.700
N8550G1Y60.300
N8560G1X60.300
N8570G1X59.100Y59.100
N8580G1Y220.900
N8590G1X200.900
N8600G1Y59.100
N8610G1X59.100
N8620G1X57.900Y57.900
N8630G1Y222.100
N8640G1X202.100
N8650G1Y57.900
N8660G1X57.900
N8670G1X56.700Y56.700
N8680G1Y223.300
N8690G1X203.300
N8700G1Y56.700
N8710G1X56.700
N8720G1X55.500Y55.500
N8730G1Y224.500
N8740G1X204.500
N8750G1Y55.500
N8760G1X55.500
N8770G1X54.300Y54.300
N8780G1Y225.700
N8790G1X205.700
N8800G1Y54.300
N8810G1X54.300
N8820G1X53.100Y53.100
N8830G1Y226.900
N8840G1X206.900
N8850G1Y53.100
N8860G1X53.100
N8870G1X51.900Y51.900
N8880G1Y228.100
N8890G1X208.100
N8900G1Y51.900
N8910G1X51.900
N8920G1X50.700Y50.700
N8930G1Y229.300
N8940G1X209.300
N8950G1Y50.700
N8960G1X50.700
N8970G1X49.500Y49.500
N8980G1Y230.500
N8990G1X210.500
N9000G1Y49.500
N9010G1X49.500
N9020G1X48.300Y48.300
N9030G1Y231.700
N9040G1X211.700
N9050G1Y48.300
N9060G1X48.300
N9070G1X47.100Y47.100
N9080G1Y232.900
N9090G1X212.900
N9100G1Y47.100
N9110G1X47.100
N9120G1X45.900Y45.900
N9130G1Y234.100
N9140G1X214.100
N9150G1Y45.900
N9160G1X45.900
N9170G1X44.700Y44.700
N9180G1Y235.300
N9190G1X215.300
N9200G1Y44.700
N9210G1X44.700
N9220G1X43.500Y43.500
N9230G1Y236.500
N9240G1X216.500
N9250G1Y43.500
N9260G1X43.500
N9270G1X42.300Y42.300
N9280G1Y237.700
N9290G1X217.700
N9300G1Y42.300
N9310G1X42.300
N9320G1X41.100Y41.100
N9330G1Y238.900
N9340G1X218.900
N9350G1Y41.100
N9360G1X41.100
N9370G1X39.900Y39.900
N9380G1Y240.100
N9390G1X220.100
N9400G1Y39.900
N9410G1X39.900
N9420G1X38.700Y38.700
N9430G1Y241.300
N9440G1X221.300
N9450G1Y38.700
N9460G1X38.700
N9470G1X37.500Y37.500
N9480G1Y242.500
N9490G1X222.500
N9500G1Y37.500
N9510G1X37.500
N9520G1X36.300Y36.300
N9530G1Y243.700
N9540G1X223.700
N9550G1Y36.300
N9560G1X36.300
N9570G1X35.100Y35.100
N9580G1Y244.900
N9590G1X224.900
N9600G1Y35.100
N9610G1X35.100
N9620G1X33.900Y33.900
N9630G1Y246.100
N9640G1X226.100
N9650G1Y33.900
N9660G1X33.900
N9670G1X32.700Y32.700
N9680G1Y247.300
N9690G1X227.300
N9700G1Y32.700
N9710G1X32.700
N9720G1X31.500Y31.500
N9730G1Y248.500
N9740G1X228.500
N9750G1Y31.500
N9760G1X31.500
N9770G1X30.300Y30.300
N9780G1Y249.700
N9790G1X229.700
N9800G1Y30.300
N9810G1X30.300
N9820G1X29.100Y29.100
N9830G1Y250.900
N9840G1X230.900
N9850G1Y29.100
N9860G1X29.100
N9870G1X27.900Y27.900
N9880G1Y252.100
N9890G1X232.100
N9900G1Y27.900
N9910G1X27.900
N9920G1X26.700Y26.700
N9930G1Y253.300
N9940G1X233.300
N9950G1Y26.700
N9960G1X26.700
N9970G1X25.500Y25.500
N9980G1Y254.500
N9990G1X234.500
N10000G1Y25.500
N10010G1X25.500
N10020G1X24.300Y24.300
N10030G1Y255.700
N10040G1X235.700
N10050G1Y24.300
N10060G1X24.300
N10070G1X23.100Y23.100
N10080G1Y256.900
N10090G1X236.900
N10100G1Y23.100
N10110G1X23.100
N10120G1X21.900Y21.900
N10130G1Y258.100
N10140G1X238.100
N10150G1Y21.900
N10160G1X21.900
N10170G1X20.700Y20.700
N10180G1Y259.300
N10190G1X239.300
N10200G1Y20.700
N10210G1X20.700
N10220G1X19.500Y19.500
N10230G1Y260.500
N10240G1X240.500
N10250G1Y19.500
N10260G1X19.500
N10270G1X18.300Y18.300
N10280G1Y261.700
N10290G1X241.700
N10300G1Y18.300
N10310G1X18.300
N10320G1X17.100Y17.100
N10330G1Y262.900
N10340G1X242.900
N10350G1Y17.100
N10360G1X17.100
N10370G1X15.900Y15.900
N10380G1Y264.100
N10390G1X244.100
N10400G1Y15.900
N10410G1X15.900
N10420G1X14.700Y14.700
N10430G1Y265.300
N10440G1X245.300
N10450G1Y14.700
N10460G1X14.700
N10470G1X13.500Y13.500
N10480G1Y266.500
N10490G1X246.500
N10500G1Y13.500
N10510G1X13.500
N10520G1X12.300Y12.300
N10530G1Y267.700
N10540G1X247.700
N10550G1Y12.300
N10560G1X12.300
N10570G1X11.100Y11.100
N10580G1Y268.900
N10590G1X248.900
N10600G1Y11.100
N10610G1X11.100
N10620G1X9.900Y9.900
N10630G1Y270.100
N10640G1X250.100
N10650G1Y9.900
N10660G1X9.900
N10670G1X8.700Y8.700
N10680G1Y271.300
N10690G1X251.300
N10700G1Y8.700
N10710G1X8.700
N10720G1X7.500Y7.500
N10730G1Y272.500
N10740G1X252.500
N10750G1Y7.500
N10760G1X7.500
N10770G1X6.300Y6.300
N10780G1Y273.700
N10790G1X253.700
N10800G1Y6.300
N10810G1X6.300
N10820G1X5.100Y5.100
N10830G1Y274.900
N10840G1X254.900
N10850G1Y5.100
N10860G1X5.100
N10870G1X3.900Y3.900
N10880G1Y276.100
N10890G1X256.100
N10900G1Y3.900
N10910G1X3.900
N10920G1X2.700Y2.700
N10930G1Y277.300
N10940G1X257.300
N10950G1Y2.700
N10960G1X2.700
N10970G1X1.500Y1.500
N10980G1Y278.500
N10990G1X258.500
N11000G1Y1.500
N11010G1X1.500
N11020G00Z5.080
N11030G00Z20.320
N11040G00X0.000Y0.000
N11050M09
N11060M30
%
