( Pocket 1 )
( File created: Friday July 02 2021 - 02:33 PM)
( USBCNC Postprocessor )
( Material Size)
( X= 140.000, Y= 46.000, Z= 6.000)
()
(Toolpaths used in this file:)
(Pocket 1)
(Tools used in this file: )
(1 = End Mill {3 mm})
N100G00G21G17G90G40G49
N110G80
N120 (End Mill {3 mm})
N130G00G43Z20.320H1
N140S16868M03
N150(Toolpath:- Pocket 1)
N160()
N170G94
N180X0.000Y0.000F200.0
N190G00X10.000Y15.953Z5.080
N200G1Z-0.517F172.0
N210G1X9.956Y15.982F200.0
N220G1X9.971Y16.037
N230G1X10.029Y16.037
N240G1X10.045Y15.987
N250G1X10.000Y15.953
N260G1Y14.752
N270G1X9.746Y14.777
N280G1X9.514Y14.849
N290G1X9.303Y14.964
N300G1X9.117Y15.117
N310G1X8.964Y15.303
N320G1X8.849Y15.514
N330G1X8.777Y15.746
N340G1X8.752Y16.000
N350G1X8.777Y16.254
N360G1X8.849Y16.486
N370G1X8.964Y16.697
N380G1X9.117Y16.883
N390G1X9.303Y17.036
N400G1X9.514Y17.151
N410G1X9.746Y17.223
N420G1X10.000Y17.248
N430G1X10.254Y17.223
N440G1X10.486Y17.151
N450G1X10.697Y17.036
N460G1X10.883Y16.883
N470G1X11.036Y16.697
N480G1X11.151Y16.486
N490G1X11.223Y16.254
N500G1X11.248Y16.000
N510G1X11.223Y15.746
N520G1X11.151Y15.514
N530G1X11.036Y15.303
N540G1X10.883Y15.117
N550G1X10.697Y14.964
N560G1X10.486Y14.849
N570G1X10.254Y14.777
N580G1X10.000Y14.752
N590G00Z5.080
N600G00Y15.953
N610G1Z-1.033F172.0
N620G1X9.956Y15.982F200.0
N630G1X9.971Y16.037
N640G1X10.029Y16.037
N650G1X10.045Y15.987
N660G1X10.000Y15.953
N670G1Y14.752
N680G1X9.746Y14.777
N690G1X9.514Y14.849
N700G1X9.303Y14.964
N710G1X9.117Y15.117
N720G1X8.964Y15.303
N730G1X8.849Y15.514
N740G1X8.777Y15.746
N750G1X8.752Y16.000
N760G1X8.777Y16.254
N770G1X8.849Y16.486
N780G1X8.964Y16.697
N790G1X9.117Y16.883
N800G1X9.303Y17.036
N810G1X9.514Y17.151
N820G1X9.746Y17.223
N830G1X10.000Y17.248
N840G1X10.254Y17.223
N850G1X10.486Y17.151
N860G1X10.697Y17.036
N870G1X10.883Y16.883
N880G1X11.036Y16.697
N890G1X11.151Y16.486
N900G1X11.223Y16.254
N910G1X11.248Y16.000
N920G1X11.223Y15.746
N930G1X11.151Y15.514
N940G1X11.036Y15.303
N950G1X10.883Y15.117
N960G1X10.697Y14.964
N970G1X10.486Y14.849
N980G1X10.254Y14.777
N990G1X10.000Y14.752
N1000G00Z5.080
N1010G00Y15.953
N1020G1Z-1.550F172.0
N1030G1X9.956Y15.982F200.0
N1040G1X9.971Y16.037
N1050G1X10.029Y16.037
N1060G1X10.045Y15.987
N1070G1X10.000Y15.953
N1080G1Y14.752
N1090G1X9.746Y14.777
N1100G1X9.514Y14.849
N1110G1X9.303Y14.964
N1120G1X9.117Y15.117
N1130G1X8.964Y15.303
N1140G1X8.849Y15.514
N1150G1X8.777Y15.746
N1160G1X8.752Y16.000
N1170G1X8.777Y16.254
N1180G1X8.849Y16.486
N1190G1X8.964Y16.697
N1200G1X9.117Y16.883
N1210G1X9.303Y17.036
N1220G1X9.514Y17.151
N1230G1X9.746Y17.223
N1240G1X10.000Y17.248
N1250G1X10.254Y17.223
N1260G1X10.486Y17.151
N1270G1X10.697Y17.036
N1280G1X10.883Y16.883
N1290G1X11.036Y16.697
N1300G1X11.151Y16.486
N1310G1X11.223Y16.254
N1320G1X11.248Y16.000
N1330G1X11.223Y15.746
N1340G1X11.151Y15.514
N1350G1X11.036Y15.303
N1360G1X10.883Y15.117
N1370G1X10.697Y14.964
N1380G1X10.486Y14.849
N1390G1X10.254Y14.777
N1400G1X10.000Y14.752
N1410G00Z5.080
N1420G00Y15.953
N1430G1Z-2.067F172.0
N1440G1X9.956Y15.982F200.0
N1450G1X9.971Y16.037
N1460G1X10.029Y16.037
N1470G1X10.045Y15.987
N1480G1X10.000Y15.953
N1490G1Y14.752
N1500G1X9.746Y14.777
N1510G1X9.514Y14.849
N1520G1X9.303Y14.964
N1530G1X9.117Y15.117
N1540G1X8.964Y15.303
N1550G1X8.849Y15.514
N1560G1X8.777Y15.746
N1570G1X8.752Y16.000
N1580G1X8.777Y16.254
N1590G1X8.849Y16.486
N1600G1X8.964Y16.697
N1610G1X9.117Y16.883
N1620G1X9.303Y17.036
N1630G1X9.514Y17.151
N1640G1X9.746Y17.223
N1650G1X10.000Y17.248
N1660G1X10.254Y17.223
N1670G1X10.486Y17.151
N1680G1X10.697Y17.036
N1690G1X10.883Y16.883
N1700G1X11.036Y16.697
N1710G1X11.151Y16.486
N1720G1X11.223Y16.254
N1730G1X11.248Y16.000
N1740G1X11.223Y15.746
N1750G1X11.151Y15.514
N1760G1X11.036Y15.303
N1770G1X10.883Y15.117
N1780G1X10.697Y14.964
N1790G1X10.486Y14.849
N1800G1X10.254Y14.777
N1810G1X10.000Y14.752
N1820G00Z5.080
N1830G00Y15.953
N1840G1Z-2.583F172.0
N1850G1X9.956Y15.982F200.0
N1860G1X9.971Y16.037
N1870G1X10.029Y16.037
N1880G1X10.045Y15.987
N1890G1X10.000Y15.953
N1900G1Y14.752
N1910G1X9.746Y14.777
N1920G1X9.514Y14.849
N1930G1X9.303Y14.964
N1940G1X9.117Y15.117
N1950G1X8.964Y15.303
N1960G1X8.849Y15.514
N1970G1X8.777Y15.746
N1980G1X8.752Y16.000
N1990G1X8.777Y16.254
N2000G1X8.849Y16.486
N2010G1X8.964Y16.697
N2020G1X9.117Y16.883
N2030G1X9.303Y17.036
N2040G1X9.514Y17.151
N2050G1X9.746Y17.223
N2060G1X10.000Y17.248
N2070G1X10.254Y17.223
N2080G1X10.486Y17.151
N2090G1X10.697Y17.036
N2100G1X10.883Y16.883
N2110G1X11.036Y16.697
N2120G1X11.151Y16.486
N2130G1X11.223Y16.254
N2140G1X11.248Y16.000
N2150G1X11.223Y15.746
N2160G1X11.151Y15.514
N2170G1X11.036Y15.303
N2180G1X10.883Y15.117
N2190G1X10.697Y14.964
N2200G1X10.486Y14.849
N2210G1X10.254Y14.777
N2220G1X10.000Y14.752
N2230G00Z5.080
N2240G00Y15.953
N2250G1Z-3.100F172.0
N2260G1X9.956Y15.982F200.0
N2270G1X9.971Y16.037
N2280G1X10.029Y16.037
N2290G1X10.045Y15.987
N2300G1X10.000Y15.953
N2310G1Y14.752
N2320G1X9.746Y14.777
N2330G1X9.514Y14.849
N2340G1X9.303Y14.964
N2350G1X9.117Y15.117
N2360G1X8.964Y15.303
N2370G1X8.849Y15.514
N2380G1X8.777Y15.746
N2390G1X8.752Y16.000
N2400G1X8.777Y16.254
N2410G1X8.849Y16.486
N2420G1X8.964Y16.697
N2430G1X9.117Y16.883
N2440G1X9.303Y17.036
N2450G1X9.514Y17.151
N2460G1X9.746Y17.223
N2470G1X10.000Y17.248
N2480G1X10.254Y17.223
N2490G1X10.486Y17.151
N2500G1X10.697Y17.036
N2510G1X10.883Y16.883
N2520G1X11.036Y16.697
N2530G1X11.151Y16.486
N2540G1X11.223Y16.254
N2550G1X11.248Y16.000
N2560G1X11.223Y15.746
N2570G1X11.151Y15.514
N2580G1X11.036Y15.303
N2590G1X10.883Y15.117
N2600G1X10.697Y14.964
N2610G1X10.486Y14.849
N2620G1X10.254Y14.777
N2630G1X10.000Y14.752
N2640G00Z5.080
N2650G00Y15.953
N2660G1Z-3.617F172.0
N2670G1X9.956Y15.982F200.0
N2680G1X9.971Y16.037
N2690G1X10.029Y16.037
N2700G1X10.045Y15.987
N2710G1X10.000Y15.953
N2720G1Y14.752
N2730G1X9.746Y14.777
N2740G1X9.514Y14.849
N2750G1X9.303Y14.964
N2760G1X9.117Y15.117
N2770G1X8.964Y15.303
N2780G1X8.849Y15.514
N2790G1X8.777Y15.746
N2800G1X8.752Y16.000
N2810G1X8.777Y16.254
N2820G1X8.849Y16.486
N2830G1X8.964Y16.697
N2840G1X9.117Y16.883
N2850G1X9.303Y17.036
N2860G1X9.514Y17.151
N2870G1X9.746Y17.223
N2880G1X10.000Y17.248
N2890G1X10.254Y17.223
N2900G1X10.486Y17.151
N2910G1X10.697Y17.036
N2920G1X10.883Y16.883
N2930G1X11.036Y16.697
N2940G1X11.151Y16.486
N2950G1X11.223Y16.254
N2960G1X11.248Y16.000
N2970G1X11.223Y15.746
N2980G1X11.151Y15.514
N2990G1X11.036Y15.303
N3000G1X10.883Y15.117
N3010G1X10.697Y14.964
N3020G1X10.486Y14.849
N3030G1X10.254Y14.777
N3040G1X10.000Y14.752
N3050G00Z5.080
N3060G00Y15.953
N3070G1Z-4.133F172.0
N3080G1X9.956Y15.982F200.0
N3090G1X9.971Y16.037
N3100G1X10.029Y16.037
N3110G1X10.045Y15.987
N3120G1X10.000Y15.953
N3130G1Y14.752
N3140G1X9.746Y14.777
N3150G1X9.514Y14.849
N3160G1X9.303Y14.964
N3170G1X9.117Y15.117
N3180G1X8.964Y15.303
N3190G1X8.849Y15.514
N3200G1X8.777Y15.746
N3210G1X8.752Y16.000
N3220G1X8.777Y16.254
N3230G1X8.849Y16.486
N3240G1X8.964Y16.697
N3250G1X9.117Y16.883
N3260G1X9.303Y17.036
N3270G1X9.514Y17.151
N3280G1X9.746Y17.223
N3290G1X10.000Y17.248
N3300G1X10.254Y17.223
N3310G1X10.486Y17.151
N3320G1X10.697Y17.036
N3330G1X10.883Y16.883
N3340G1X11.036Y16.697
N3350G1X11.151Y16.486
N3360G1X11.223Y16.254
N3370G1X11.248Y16.000
N3380G1X11.223Y15.746
N3390G1X11.151Y15.514
N3400G1X11.036Y15.303
N3410G1X10.883Y15.117
N3420G1X10.697Y14.964
N3430G1X10.486Y14.849
N3440G1X10.254Y14.777
N3450G1X10.000Y14.752
N3460G00Z5.080
N3470G00Y15.953
N3480G1Z-4.650F172.0
N3490G1X9.956Y15.982F200.0
N3500G1X9.971Y16.037
N3510G1X10.029Y16.037
N3520G1X10.045Y15.987
N3530G1X10.000Y15.953
N3540G1Y14.752
N3550G1X9.746Y14.777
N3560G1X9.514Y14.849
N3570G1X9.303Y14.964
N3580G1X9.117Y15.117
N3590G1X8.964Y15.303
N3600G1X8.849Y15.514
N3610G1X8.777Y15.746
N3620G1X8.752Y16.000
N3630G1X8.777Y16.254
N3640G1X8.849Y16.486
N3650G1X8.964Y16.697
N3660G1X9.117Y16.883
N3670G1X9.303Y17.036
N3680G1X9.514Y17.151
N3690G1X9.746Y17.223
N3700G1X10.000Y17.248
N3710G1X10.254Y17.223
N3720G1X10.486Y17.151
N3730G1X10.697Y17.036
N3740G1X10.883Y16.883
N3750G1X11.036Y16.697
N3760G1X11.151Y16.486
N3770G1X11.223Y16.254
N3780G1X11.248Y16.000
N3790G1X11.223Y15.746
N3800G1X11.151Y15.514
N3810G1X11.036Y15.303
N3820G1X10.883Y15.117
N3830G1X10.697Y14.964
N3840G1X10.486Y14.849
N3850G1X10.254Y14.777
N3860G1X10.000Y14.752
N3870G00Z5.080
N3880G00Y15.953
N3890G1Z-5.167F172.0
N3900G1X9.956Y15.982F200.0
N3910G1X9.971Y16.037
N3920G1X10.029Y16.037
N3930G1X10.045Y15.987
N3940G1X10.000Y15.953
N3950G1Y14.752
N3960G1X9.746Y14.777
N3970G1X9.514Y14.849
N3980G1X9.303Y14.964
N3990G1X9.117Y15.117
N4000G1X8.964Y15.303
N4010G1X8.849Y15.514
N4020G1X8.777Y15.746
N4030G1X8.752Y16.000
N4040G1X8.777Y16.254
N4050G1X8.849Y16.486
N4060G1X8.964Y16.697
N4070G1X9.117Y16.883
N4080G1X9.303Y17.036
N4090G1X9.514Y17.151
N4100G1X9.746Y17.223
N4110G1X10.000Y17.248
N4120G1X10.254Y17.223
N4130G1X10.486Y17.151
N4140G1X10.697Y17.036
N4150G1X10.883Y16.883
N4160G1X11.036Y16.697
N4170G1X11.151Y16.486
N4180G1X11.223Y16.254
N4190G1X11.248Y16.000
N4200G1X11.223Y15.746
N4210G1X11.151Y15.514
N4220G1X11.036Y15.303
N4230G1X10.883Y15.117
N4240G1X10.697Y14.964
N4250G1X10.486Y14.849
N4260G1X10.254Y14.777
N4270G1X10.000Y14.752
N4280G00Z5.080
N4290G00Y15.953
N4300G1Z-5.683F172.0
N4310G1X9.956Y15.982F200.0
N4320G1X9.971Y16.037
N4330G1X10.029Y16.037
N4340G1X10.045Y15.987
N4350G1X10.000Y15.953
N4360G1Y14.752
N4370G1X9.746Y14.777
N4380G1X9.514Y14.849
N4390G1X9.303Y14.964
N4400G1X9.117Y15.117
N4410G1X8.964Y15.303
N4420G1X8.849Y15.514
N4430G1X8.777Y15.746
N4440G1X8.752Y16.000
N4450G1X8.777Y16.254
N4460G1X8.849Y16.486
N4470G1X8.964Y16.697
N4480G1X9.117Y16.883
N4490G1X9.303Y17.036
N4500G1X9.514Y17.151
N4510G1X9.746Y17.223
N4520G1X10.000Y17.248
N4530G1X10.254Y17.223
N4540G1X10.486Y17.151
N4550G1X10.697Y17.036
N4560G1X10.883Y16.883
N4570G1X11.036Y16.697
N4580G1X11.151Y16.486
N4590G1X11.223Y16.254
N4600G1X11.248Y16.000
N4610G1X11.223Y15.746
N4620G1X11.151Y15.514
N4630G1X11.036Y15.303
N4640G1X10.883Y15.117
N4650G1X10.697Y14.964
N4660G1X10.486Y14.849
N4670G1X10.254Y14.777
N4680G1X10.000Y14.752
N4690G00Z5.080
N4700G00Y15.953
N4710G1Z-6.200F172.0
N4720G1X9.956Y15.982F200.0
N4730G1X9.971Y16.037
N4740G1X10.029Y16.037
N4750G1X10.045Y15.987
N4760G1X10.000Y15.953
N4770G1Y14.752
N4780G1X9.746Y14.777
N4790G1X9.514Y14.849
N4800G1X9.303Y14.964
N4810G1X9.117Y15.117
N4820G1X8.964Y15.303
N4830G1X8.849Y15.514
N4840G1X8.777Y15.746
N4850G1X8.752Y16.000
N4860G1X8.777Y16.254
N4870G1X8.849Y16.486
N4880G1X8.964Y16.697
N4890G1X9.117Y16.883
N4900G1X9.303Y17.036
N4910G1X9.514Y17.151
N4920G1X9.746Y17.223
N4930G1X10.000Y17.248
N4940G1X10.254Y17.223
N4950G1X10.486Y17.151
N4960G1X10.697Y17.036
N4970G1X10.883Y16.883
N4980G1X11.036Y16.697
N4990G1X11.151Y16.486
N5000G1X11.223Y16.254
N5010G1X11.248Y16.000
N5020G1X11.223Y15.746
N5030G1X11.151Y15.514
N5040G1X11.036Y15.303
N5050G1X10.883Y15.117
N5060G1X10.697Y14.964
N5070G1X10.486Y14.849
N5080G1X10.254Y14.777
N5090G1X10.000Y14.752
N5100G00Z5.080
N5110G00Y35.953
N5120G1Z-0.517F172.0
N5130G1X9.956Y35.982F200.0
N5140G1X9.971Y36.037
N5150G1X10.029Y36.037
N5160G1X10.045Y35.987
N5170G1X10.000Y35.953
N5180G1Y34.752
N5190G1X9.746Y34.777
N5200G1X9.514Y34.849
N5210G1X9.303Y34.964
N5220G1X9.117Y35.117
N5230G1X8.964Y35.303
N5240G1X8.849Y35.514
N5250G1X8.777Y35.746
N5260G1X8.752Y36.000
N5270G1X8.777Y36.254
N5280G1X8.849Y36.486
N5290G1X8.964Y36.697
N5300G1X9.117Y36.883
N5310G1X9.303Y37.036
N5320G1X9.514Y37.151
N5330G1X9.746Y37.223
N5340G1X10.000Y37.248
N5350G1X10.254Y37.223
N5360G1X10.486Y37.151
N5370G1X10.697Y37.036
N5380G1X10.883Y36.883
N5390G1X11.036Y36.697
N5400G1X11.151Y36.486
N5410G1X11.223Y36.254
N5420G1X11.248Y36.000
N5430G1X11.223Y35.746
N5440G1X11.151Y35.514
N5450G1X11.036Y35.303
N5460G1X10.883Y35.117
N5470G1X10.697Y34.964
N5480G1X10.486Y34.849
N5490G1X10.254Y34.777
N5500G1X10.000Y34.752
N5510G00Z5.080
N5520G00Y35.953
N5530G1Z-1.033F172.0
N5540G1X9.956Y35.982F200.0
N5550G1X9.971Y36.037
N5560G1X10.029Y36.037
N5570G1X10.045Y35.987
N5580G1X10.000Y35.953
N5590G1Y34.752
N5600G1X9.746Y34.777
N5610G1X9.514Y34.849
N5620G1X9.303Y34.964
N5630G1X9.117Y35.117
N5640G1X8.964Y35.303
N5650G1X8.849Y35.514
N5660G1X8.777Y35.746
N5670G1X8.752Y36.000
N5680G1X8.777Y36.254
N5690G1X8.849Y36.486
N5700G1X8.964Y36.697
N5710G1X9.117Y36.883
N5720G1X9.303Y37.036
N5730G1X9.514Y37.151
N5740G1X9.746Y37.223
N5750G1X10.000Y37.248
N5760G1X10.254Y37.223
N5770G1X10.486Y37.151
N5780G1X10.697Y37.036
N5790G1X10.883Y36.883
N5800G1X11.036Y36.697
N5810G1X11.151Y36.486
N5820G1X11.223Y36.254
N5830G1X11.248Y36.000
N5840G1X11.223Y35.746
N5850G1X11.151Y35.514
N5860G1X11.036Y35.303
N5870G1X10.883Y35.117
N5880G1X10.697Y34.964
N5890G1X10.486Y34.849
N5900G1X10.254Y34.777
N5910G1X10.000Y34.752
N5920G00Z5.080
N5930G00Y35.953
N5940G1Z-1.550F172.0
N5950G1X9.956Y35.982F200.0
N5960G1X9.971Y36.037
N5970G1X10.029Y36.037
N5980G1X10.045Y35.987
N5990G1X10.000Y35.953
N6000G1Y34.752
N6010G1X9.746Y34.777
N6020G1X9.514Y34.849
N6030G1X9.303Y34.964
N6040G1X9.117Y35.117
N6050G1X8.964Y35.303
N6060G1X8.849Y35.514
N6070G1X8.777Y35.746
N6080G1X8.752Y36.000
N6090G1X8.777Y36.254
N6100G1X8.849Y36.486
N6110G1X8.964Y36.697
N6120G1X9.117Y36.883
N6130G1X9.303Y37.036
N6140G1X9.514Y37.151
N6150G1X9.746Y37.223
N6160G1X10.000Y37.248
N6170G1X10.254Y37.223
N6180G1X10.486Y37.151
N6190G1X10.697Y37.036
N6200G1X10.883Y36.883
N6210G1X11.036Y36.697
N6220G1X11.151Y36.486
N6230G1X11.223Y36.254
N6240G1X11.248Y36.000
N6250G1X11.223Y35.746
N6260G1X11.151Y35.514
N6270G1X11.036Y35.303
N6280G1X10.883Y35.117
N6290G1X10.697Y34.964
N6300G1X10.486Y34.849
N6310G1X10.254Y34.777
N6320G1X10.000Y34.752
N6330G00Z5.080
N6340G00Y35.953
N6350G1Z-2.067F172.0
N6360G1X9.956Y35.982F200.0
N6370G1X9.971Y36.037
N6380G1X10.029Y36.037
N6390G1X10.045Y35.987
N6400G1X10.000Y35.953
N6410G1Y34.752
N6420G1X9.746Y34.777
N6430G1X9.514Y34.849
N6440G1X9.303Y34.964
N6450G1X9.117Y35.117
N6460G1X8.964Y35.303
N6470G1X8.849Y35.514
N6480G1X8.777Y35.746
N6490G1X8.752Y36.000
N6500G1X8.777Y36.254
N6510G1X8.849Y36.486
N6520G1X8.964Y36.697
N6530G1X9.117Y36.883
N6540G1X9.303Y37.036
N6550G1X9.514Y37.151
N6560G1X9.746Y37.223
N6570G1X10.000Y37.248
N6580G1X10.254Y37.223
N6590G1X10.486Y37.151
N6600G1X10.697Y37.036
N6610G1X10.883Y36.883
N6620G1X11.036Y36.697
N6630G1X11.151Y36.486
N6640G1X11.223Y36.254
N6650G1X11.248Y36.000
N6660G1X11.223Y35.746
N6670G1X11.151Y35.514
N6680G1X11.036Y35.303
N6690G1X10.883Y35.117
N6700G1X10.697Y34.964
N6710G1X10.486Y34.849
N6720G1X10.254Y34.777
N6730G1X10.000Y34.752
N6740G00Z5.080
N6750G00Y35.953
N6760G1Z-2.583F172.0
N6770G1X9.956Y35.982F200.0
N6780G1X9.971Y36.037
N6790G1X10.029Y36.037
N6800G1X10.045Y35.987
N6810G1X10.000Y35.953
N6820G1Y34.752
N6830G1X9.746Y34.777
N6840G1X9.514Y34.849
N6850G1X9.303Y34.964
N6860G1X9.117Y35.117
N6870G1X8.964Y35.303
N6880G1X8.849Y35.514
N6890G1X8.777Y35.746
N6900G1X8.752Y36.000
N6910G1X8.777Y36.254
N6920G1X8.849Y36.486
N6930G1X8.964Y36.697
N6940G1X9.117Y36.883
N6950G1X9.303Y37.036
N6960G1X9.514Y37.151
N6970G1X9.746Y37.223
N6980G1X10.000Y37.248
N6990G1X10.254Y37.223
N7000G1X10.486Y37.151
N7010G1X10.697Y37.036
N7020G1X10.883Y36.883
N7030G1X11.036Y36.697
N7040G1X11.151Y36.486
N7050G1X11.223Y36.254
N7060G1X11.248Y36.000
N7070G1X11.223Y35.746
N7080G1X11.151Y35.514
N7090G1X11.036Y35.303
N7100G1X10.883Y35.117
N7110G1X10.697Y34.964
N7120G1X10.486Y34.849
N7130G1X10.254Y34.777
N7140G1X10.000Y34.752
N7150G00Z5.080
N7160G00Y35.953
N7170G1Z-3.100F172.0
N7180G1X9.956Y35.982F200.0
N7190G1X9.971Y36.037
N7200G1X10.029Y36.037
N7210G1X10.045Y35.987
N7220G1X10.000Y35.953
N7230G1Y34.752
N7240G1X9.746Y34.777
N7250G1X9.514Y34.849
N7260G1X9.303Y34.964
N7270G1X9.117Y35.117
N7280G1X8.964Y35.303
N7290G1X8.849Y35.514
N7300G1X8.777Y35.746
N7310G1X8.752Y36.000
N7320G1X8.777Y36.254
N7330G1X8.849Y36.486
N7340G1X8.964Y36.697
N7350G1X9.117Y36.883
N7360G1X9.303Y37.036
N7370G1X9.514Y37.151
N7380G1X9.746Y37.223
N7390G1X10.000Y37.248
N7400G1X10.254Y37.223
N7410G1X10.486Y37.151
N7420G1X10.697Y37.036
N7430G1X10.883Y36.883
N7440G1X11.036Y36.697
N7450G1X11.151Y36.486
N7460G1X11.223Y36.254
N7470G1X11.248Y36.000
N7480G1X11.223Y35.746
N7490G1X11.151Y35.514
N7500G1X11.036Y35.303
N7510G1X10.883Y35.117
N7520G1X10.697Y34.964
N7530G1X10.486Y34.849
N7540G1X10.254Y34.777
N7550G1X10.000Y34.752
N7560G00Z5.080
N7570G00Y35.953
N7580G1Z-3.617F172.0
N7590G1X9.956Y35.982F200.0
N7600G1X9.971Y36.037
N7610G1X10.029Y36.037
N7620G1X10.045Y35.987
N7630G1X10.000Y35.953
N7640G1Y34.752
N7650G1X9.746Y34.777
N7660G1X9.514Y34.849
N7670G1X9.303Y34.964
N7680G1X9.117Y35.117
N7690G1X8.964Y35.303
N7700G1X8.849Y35.514
N7710G1X8.777Y35.746
N7720G1X8.752Y36.000
N7730G1X8.777Y36.254
N7740G1X8.849Y36.486
N7750G1X8.964Y36.697
N7760G1X9.117Y36.883
N7770G1X9.303Y37.036
N7780G1X9.514Y37.151
N7790G1X9.746Y37.223
N7800G1X10.000Y37.248
N7810G1X10.254Y37.223
N7820G1X10.486Y37.151
N7830G1X10.697Y37.036
N7840G1X10.883Y36.883
N7850G1X11.036Y36.697
N7860G1X11.151Y36.486
N7870G1X11.223Y36.254
N7880G1X11.248Y36.000
N7890G1X11.223Y35.746
N7900G1X11.151Y35.514
N7910G1X11.036Y35.303
N7920G1X10.883Y35.117
N7930G1X10.697Y34.964
N7940G1X10.486Y34.849
N7950G1X10.254Y34.777
N7960G1X10.000Y34.752
N7970G00Z5.080
N7980G00Y35.953
N7990G1Z-4.133F172.0
N8000G1X9.956Y35.982F200.0
N8010G1X9.971Y36.037
N8020G1X10.029Y36.037
N8030G1X10.045Y35.987
N8040G1X10.000Y35.953
N8050G1Y34.752
N8060G1X9.746Y34.777
N8070G1X9.514Y34.849
N8080G1X9.303Y34.964
N8090G1X9.117Y35.117
N8100G1X8.964Y35.303
N8110G1X8.849Y35.514
N8120G1X8.777Y35.746
N8130G1X8.752Y36.000
N8140G1X8.777Y36.254
N8150G1X8.849Y36.486
N8160G1X8.964Y36.697
N8170G1X9.117Y36.883
N8180G1X9.303Y37.036
N8190G1X9.514Y37.151
N8200G1X9.746Y37.223
N8210G1X10.000Y37.248
N8220G1X10.254Y37.223
N8230G1X10.486Y37.151
N8240G1X10.697Y37.036
N8250G1X10.883Y36.883
N8260G1X11.036Y36.697
N8270G1X11.151Y36.486
N8280G1X11.223Y36.254
N8290G1X11.248Y36.000
N8300G1X11.223Y35.746
N8310G1X11.151Y35.514
N8320G1X11.036Y35.303
N8330G1X10.883Y35.117
N8340G1X10.697Y34.964
N8350G1X10.486Y34.849
N8360G1X10.254Y34.777
N8370G1X10.000Y34.752
N8380G00Z5.080
N8390G00Y35.953
N8400G1Z-4.650F172.0
N8410G1X9.956Y35.982F200.0
N8420G1X9.971Y36.037
N8430G1X10.029Y36.037
N8440G1X10.045Y35.987
N8450G1X10.000Y35.953
N8460G1Y34.752
N8470G1X9.746Y34.777
N8480G1X9.514Y34.849
N8490G1X9.303Y34.964
N8500G1X9.117Y35.117
N8510G1X8.964Y35.303
N8520G1X8.849Y35.514
N8530G1X8.777Y35.746
N8540G1X8.752Y36.000
N8550G1X8.777Y36.254
N8560G1X8.849Y36.486
N8570G1X8.964Y36.697
N8580G1X9.117Y36.883
N8590G1X9.303Y37.036
N8600G1X9.514Y37.151
N8610G1X9.746Y37.223
N8620G1X10.000Y37.248
N8630G1X10.254Y37.223
N8640G1X10.486Y37.151
N8650G1X10.697Y37.036
N8660G1X10.883Y36.883
N8670G1X11.036Y36.697
N8680G1X11.151Y36.486
N8690G1X11.223Y36.254
N8700G1X11.248Y36.000
N8710G1X11.223Y35.746
N8720G1X11.151Y35.514
N8730G1X11.036Y35.303
N8740G1X10.883Y35.117
N8750G1X10.697Y34.964
N8760G1X10.486Y34.849
N8770G1X10.254Y34.777
N8780G1X10.000Y34.752
N8790G00Z5.080
N8800G00Y35.953
N8810G1Z-5.167F172.0
N8820G1X9.956Y35.982F200.0
N8830G1X9.971Y36.037
N8840G1X10.029Y36.037
N8850G1X10.045Y35.987
N8860G1X10.000Y35.953
N8870G1Y34.752
N8880G1X9.746Y34.777
N8890G1X9.514Y34.849
N8900G1X9.303Y34.964
N8910G1X9.117Y35.117
N8920G1X8.964Y35.303
N8930G1X8.849Y35.514
N8940G1X8.777Y35.746
N8950G1X8.752Y36.000
N8960G1X8.777Y36.254
N8970G1X8.849Y36.486
N8980G1X8.964Y36.697
N8990G1X9.117Y36.883
N9000G1X9.303Y37.036
N9010G1X9.514Y37.151
N9020G1X9.746Y37.223
N9030G1X10.000Y37.248
N9040G1X10.254Y37.223
N9050G1X10.486Y37.151
N9060G1X10.697Y37.036
N9070G1X10.883Y36.883
N9080G1X11.036Y36.697
N9090G1X11.151Y36.486
N9100G1X11.223Y36.254
N9110G1X11.248Y36.000
N9120G1X11.223Y35.746
N9130G1X11.151Y35.514
N9140G1X11.036Y35.303
N9150G1X10.883Y35.117
N9160G1X10.697Y34.964
N9170G1X10.486Y34.849
N9180G1X10.254Y34.777
N9190G1X10.000Y34.752
N9200G00Z5.080
N9210G00Y35.953
N9220G1Z-5.683F172.0
N9230G1X9.956Y35.982F200.0
N9240G1X9.971Y36.037
N9250G1X10.029Y36.037
N9260G1X10.045Y35.987
N9270G1X10.000Y35.953
N9280G1Y34.752
N9290G1X9.746Y34.777
N9300G1X9.514Y34.849
N9310G1X9.303Y34.964
N9320G1X9.117Y35.117
N9330G1X8.964Y35.303
N9340G1X8.849Y35.514
N9350G1X8.777Y35.746
N9360G1X8.752Y36.000
N9370G1X8.777Y36.254
N9380G1X8.849Y36.486
N9390G1X8.964Y36.697
N9400G1X9.117Y36.883
N9410G1X9.303Y37.036
N9420G1X9.514Y37.151
N9430G1X9.746Y37.223
N9440G1X10.000Y37.248
N9450G1X10.254Y37.223
N9460G1X10.486Y37.151
N9470G1X10.697Y37.036
N9480G1X10.883Y36.883
N9490G1X11.036Y36.697
N9500G1X11.151Y36.486
N9510G1X11.223Y36.254
N9520G1X11.248Y36.000
N9530G1X11.223Y35.746
N9540G1X11.151Y35.514
N9550G1X11.036Y35.303
N9560G1X10.883Y35.117
N9570G1X10.697Y34.964
N9580G1X10.486Y34.849
N9590G1X10.254Y34.777
N9600G1X10.000Y34.752
N9610G00Z5.080
N9620G00Y35.953
N9630G1Z-6.200F172.0
N9640G1X9.956Y35.982F200.0
N9650G1X9.971Y36.037
N9660G1X10.029Y36.037
N9670G1X10.045Y35.987
N9680G1X10.000Y35.953
N9690G1Y34.752
N9700G1X9.746Y34.777
N9710G1X9.514Y34.849
N9720G1X9.303Y34.964
N9730G1X9.117Y35.117
N9740G1X8.964Y35.303
N9750G1X8.849Y35.514
N9760G1X8.777Y35.746
N9770G1X8.752Y36.000
N9780G1X8.777Y36.254
N9790G1X8.849Y36.486
N9800G1X8.964Y36.697
N9810G1X9.117Y36.883
N9820G1X9.303Y37.036
N9830G1X9.514Y37.151
N9840G1X9.746Y37.223
N9850G1X10.000Y37.248
N9860G1X10.254Y37.223
N9870G1X10.486Y37.151
N9880G1X10.697Y37.036
N9890G1X10.883Y36.883
N9900G1X11.036Y36.697
N9910G1X11.151Y36.486
N9920G1X11.223Y36.254
N9930G1X11.248Y36.000
N9940G1X11.223Y35.746
N9950G1X11.151Y35.514
N9960G1X11.036Y35.303
N9970G1X10.883Y35.117
N9980G1X10.697Y34.964
N9990G1X10.486Y34.849
N10000G1X10.254Y34.777
N10010G1X10.000Y34.752
N10020G00Z5.080
N10030G00X44.900Y35.953
N10040G1Z-0.517F172.0
N10050G1X44.856Y35.982F200.0
N10060G1X44.871Y36.037
N10070G1X44.929Y36.037
N10080G1X44.945Y35.987
N10090G1X44.900Y35.953
N10100G1Y34.752
N10110G1X44.646Y34.777
N10120G1X44.414Y34.849
N10130G1X44.203Y34.964
N10140G1X44.017Y35.117
N10150G1X43.864Y35.303
N10160G1X43.749Y35.514
N10170G1X43.677Y35.746
N10180G1X43.652Y36.000
N10190G1X43.677Y36.254
N10200G1X43.749Y36.486
N10210G1X43.864Y36.697
N10220G1X44.017Y36.883
N10230G1X44.203Y37.036
N10240G1X44.414Y37.151
N10250G1X44.646Y37.223
N10260G1X44.900Y37.248
N10270G1X45.154Y37.223
N10280G1X45.386Y37.151
N10290G1X45.597Y37.036
N10300G1X45.783Y36.883
N10310G1X45.936Y36.697
N10320G1X46.051Y36.486
N10330G1X46.123Y36.254
N10340G1X46.148Y36.000
N10350G1X46.123Y35.746
N10360G1X46.051Y35.514
N10370G1X45.936Y35.303
N10380G1X45.783Y35.117
N10390G1X45.597Y34.964
N10400G1X45.386Y34.849
N10410G1X45.154Y34.777
N10420G1X44.900Y34.752
N10430G00Z5.080
N10440G00Y35.953
N10450G1Z-1.033F172.0
N10460G1X44.856Y35.982F200.0
N10470G1X44.871Y36.037
N10480G1X44.929Y36.037
N10490G1X44.945Y35.987
N10500G1X44.900Y35.953
N10510G1Y34.752
N10520G1X44.646Y34.777
N10530G1X44.414Y34.849
N10540G1X44.203Y34.964
N10550G1X44.017Y35.117
N10560G1X43.864Y35.303
N10570G1X43.749Y35.514
N10580G1X43.677Y35.746
N10590G1X43.652Y36.000
N10600G1X43.677Y36.254
N10610G1X43.749Y36.486
N10620G1X43.864Y36.697
N10630G1X44.017Y36.883
N10640G1X44.203Y37.036
N10650G1X44.414Y37.151
N10660G1X44.646Y37.223
N10670G1X44.900Y37.248
N10680G1X45.154Y37.223
N10690G1X45.386Y37.151
N10700G1X45.597Y37.036
N10710G1X45.783Y36.883
N10720G1X45.936Y36.697
N10730G1X46.051Y36.486
N10740G1X46.123Y36.254
N10750G1X46.148Y36.000
N10760G1X46.123Y35.746
N10770G1X46.051Y35.514
N10780G1X45.936Y35.303
N10790G1X45.783Y35.117
N10800G1X45.597Y34.964
N10810G1X45.386Y34.849
N10820G1X45.154Y34.777
N10830G1X44.900Y34.752
N10840G00Z5.080
N10850G00Y35.953
N10860G1Z-1.550F172.0
N10870G1X44.856Y35.982F200.0
N10880G1X44.871Y36.037
N10890G1X44.929Y36.037
N10900G1X44.945Y35.987
N10910G1X44.900Y35.953
N10920G1Y34.752
N10930G1X44.646Y34.777
N10940G1X44.414Y34.849
N10950G1X44.203Y34.964
N10960G1X44.017Y35.117
N10970G1X43.864Y35.303
N10980G1X43.749Y35.514
N10990G1X43.677Y35.746
N11000G1X43.652Y36.000
N11010G1X43.677Y36.254
N11020G1X43.749Y36.486
N11030G1X43.864Y36.697
N11040G1X44.017Y36.883
N11050G1X44.203Y37.036
N11060G1X44.414Y37.151
N11070G1X44.646Y37.223
N11080G1X44.900Y37.248
N11090G1X45.154Y37.223
N11100G1X45.386Y37.151
N11110G1X45.597Y37.036
N11120G1X45.783Y36.883
N11130G1X45.936Y36.697
N11140G1X46.051Y36.486
N11150G1X46.123Y36.254
N11160G1X46.148Y36.000
N11170G1X46.123Y35.746
N11180G1X46.051Y35.514
N11190G1X45.936Y35.303
N11200G1X45.783Y35.117
N11210G1X45.597Y34.964
N11220G1X45.386Y34.849
N11230G1X45.154Y34.777
N11240G1X44.900Y34.752
N11250G00Z5.080
N11260G00Y35.953
N11270G1Z-2.067F172.0
N11280G1X44.856Y35.982F200.0
N11290G1X44.871Y36.037
N11300G1X44.929Y36.037
N11310G1X44.945Y35.987
N11320G1X44.900Y35.953
N11330G1Y34.752
N11340G1X44.646Y34.777
N11350G1X44.414Y34.849
N11360G1X44.203Y34.964
N11370G1X44.017Y35.117
N11380G1X43.864Y35.303
N11390G1X43.749Y35.514
N11400G1X43.677Y35.746
N11410G1X43.652Y36.000
N11420G1X43.677Y36.254
N11430G1X43.749Y36.486
N11440G1X43.864Y36.697
N11450G1X44.017Y36.883
N11460G1X44.203Y37.036
N11470G1X44.414Y37.151
N11480G1X44.646Y37.223
N11490G1X44.900Y37.248
N11500G1X45.154Y37.223
N11510G1X45.386Y37.151
N11520G1X45.597Y37.036
N11530G1X45.783Y36.883
N11540G1X45.936Y36.697
N11550G1X46.051Y36.486
N11560G1X46.123Y36.254
N11570G1X46.148Y36.000
N11580G1X46.123Y35.746
N11590G1X46.051Y35.514
N11600G1X45.936Y35.303
N11610G1X45.783Y35.117
N11620G1X45.597Y34.964
N11630G1X45.386Y34.849
N11640G1X45.154Y34.777
N11650G1X44.900Y34.752
N11660G00Z5.080
N11670G00Y35.953
N11680G1Z-2.583F172.0
N11690G1X44.856Y35.982F200.0
N11700G1X44.871Y36.037
N11710G1X44.929Y36.037
N11720G1X44.945Y35.987
N11730G1X44.900Y35.953
N11740G1Y34.752
N11750G1X44.646Y34.777
N11760G1X44.414Y34.849
N11770G1X44.203Y34.964
N11780G1X44.017Y35.117
N11790G1X43.864Y35.303
N11800G1X43.749Y35.514
N11810G1X43.677Y35.746
N11820G1X43.652Y36.000
N11830G1X43.677Y36.254
N11840G1X43.749Y36.486
N11850G1X43.864Y36.697
N11860G1X44.017Y36.883
N11870G1X44.203Y37.036
N11880G1X44.414Y37.151
N11890G1X44.646Y37.223
N11900G1X44.900Y37.248
N11910G1X45.154Y37.223
N11920G1X45.386Y37.151
N11930G1X45.597Y37.036
N11940G1X45.783Y36.883
N11950G1X45.936Y36.697
N11960G1X46.051Y36.486
N11970G1X46.123Y36.254
N11980G1X46.148Y36.000
N11990G1X46.123Y35.746
N12000G1X46.051Y35.514
N12010G1X45.936Y35.303
N12020G1X45.783Y35.117
N12030G1X45.597Y34.964
N12040G1X45.386Y34.849
N12050G1X45.154Y34.777
N12060G1X44.900Y34.752
N12070G00Z5.080
N12080G00Y35.953
N12090G1Z-3.100F172.0
N12100G1X44.856Y35.982F200.0
N12110G1X44.871Y36.037
N12120G1X44.929Y36.037
N12130G1X44.945Y35.987
N12140G1X44.900Y35.953
N12150G1Y34.752
N12160G1X44.646Y34.777
N12170G1X44.414Y34.849
N12180G1X44.203Y34.964
N12190G1X44.017Y35.117
N12200G1X43.864Y35.303
N12210G1X43.749Y35.514
N12220G1X43.677Y35.746
N12230G1X43.652Y36.000
N12240G1X43.677Y36.254
N12250G1X43.749Y36.486
N12260G1X43.864Y36.697
N12270G1X44.017Y36.883
N12280G1X44.203Y37.036
N12290G1X44.414Y37.151
N12300G1X44.646Y37.223
N12310G1X44.900Y37.248
N12320G1X45.154Y37.223
N12330G1X45.386Y37.151
N12340G1X45.597Y37.036
N12350G1X45.783Y36.883
N12360G1X45.936Y36.697
N12370G1X46.051Y36.486
N12380G1X46.123Y36.254
N12390G1X46.148Y36.000
N12400G1X46.123Y35.746
N12410G1X46.051Y35.514
N12420G1X45.936Y35.303
N12430G1X45.783Y35.117
N12440G1X45.597Y34.964
N12450G1X45.386Y34.849
N12460G1X45.154Y34.777
N12470G1X44.900Y34.752
N12480G00Z5.080
N12490G00Y35.953
N12500G1Z-3.617F172.0
N12510G1X44.856Y35.982F200.0
N12520G1X44.871Y36.037
N12530G1X44.929Y36.037
N12540G1X44.945Y35.987
N12550G1X44.900Y35.953
N12560G1Y34.752
N12570G1X44.646Y34.777
N12580G1X44.414Y34.849
N12590G1X44.203Y34.964
N12600G1X44.017Y35.117
N12610G1X43.864Y35.303
N12620G1X43.749Y35.514
N12630G1X43.677Y35.746
N12640G1X43.652Y36.000
N12650G1X43.677Y36.254
N12660G1X43.749Y36.486
N12670G1X43.864Y36.697
N12680G1X44.017Y36.883
N12690G1X44.203Y37.036
N12700G1X44.414Y37.151
N12710G1X44.646Y37.223
N12720G1X44.900Y37.248
N12730G1X45.154Y37.223
N12740G1X45.386Y37.151
N12750G1X45.597Y37.036
N12760G1X45.783Y36.883
N12770G1X45.936Y36.697
N12780G1X46.051Y36.486
N12790G1X46.123Y36.254
N12800G1X46.148Y36.000
N12810G1X46.123Y35.746
N12820G1X46.051Y35.514
N12830G1X45.936Y35.303
N12840G1X45.783Y35.117
N12850G1X45.597Y34.964
N12860G1X45.386Y34.849
N12870G1X45.154Y34.777
N12880G1X44.900Y34.752
N12890G00Z5.080
N12900G00Y35.953
N12910G1Z-4.133F172.0
N12920G1X44.856Y35.982F200.0
N12930G1X44.871Y36.037
N12940G1X44.929Y36.037
N12950G1X44.945Y35.987
N12960G1X44.900Y35.953
N12970G1Y34.752
N12980G1X44.646Y34.777
N12990G1X44.414Y34.849
N13000G1X44.203Y34.964
N13010G1X44.017Y35.117
N13020G1X43.864Y35.303
N13030G1X43.749Y35.514
N13040G1X43.677Y35.746
N13050G1X43.652Y36.000
N13060G1X43.677Y36.254
N13070G1X43.749Y36.486
N13080G1X43.864Y36.697
N13090G1X44.017Y36.883
N13100G1X44.203Y37.036
N13110G1X44.414Y37.151
N13120G1X44.646Y37.223
N13130G1X44.900Y37.248
N13140G1X45.154Y37.223
N13150G1X45.386Y37.151
N13160G1X45.597Y37.036
N13170G1X45.783Y36.883
N13180G1X45.936Y36.697
N13190G1X46.051Y36.486
N13200G1X46.123Y36.254
N13210G1X46.148Y36.000
N13220G1X46.123Y35.746
N13230G1X46.051Y35.514
N13240G1X45.936Y35.303
N13250G1X45.783Y35.117
N13260G1X45.597Y34.964
N13270G1X45.386Y34.849
N13280G1X45.154Y34.777
N13290G1X44.900Y34.752
N13300G00Z5.080
N13310G00Y35.953
N13320G1Z-4.650F172.0
N13330G1X44.856Y35.982F200.0
N13340G1X44.871Y36.037
N13350G1X44.929Y36.037
N13360G1X44.945Y35.987
N13370G1X44.900Y35.953
N13380G1Y34.752
N13390G1X44.646Y34.777
N13400G1X44.414Y34.849
N13410G1X44.203Y34.964
N13420G1X44.017Y35.117
N13430G1X43.864Y35.303
N13440G1X43.749Y35.514
N13450G1X43.677Y35.746
N13460G1X43.652Y36.000
N13470G1X43.677Y36.254
N13480G1X43.749Y36.486
N13490G1X43.864Y36.697
N13500G1X44.017Y36.883
N13510G1X44.203Y37.036
N13520G1X44.414Y37.151
N13530G1X44.646Y37.223
N13540G1X44.900Y37.248
N13550G1X45.154Y37.223
N13560G1X45.386Y37.151
N13570G1X45.597Y37.036
N13580G1X45.783Y36.883
N13590G1X45.936Y36.697
N13600G1X46.051Y36.486
N13610G1X46.123Y36.254
N13620G1X46.148Y36.000
N13630G1X46.123Y35.746
N13640G1X46.051Y35.514
N13650G1X45.936Y35.303
N13660G1X45.783Y35.117
N13670G1X45.597Y34.964
N13680G1X45.386Y34.849
N13690G1X45.154Y34.777
N13700G1X44.900Y34.752
N13710G00Z5.080
N13720G00Y35.953
N13730G1Z-5.167F172.0
N13740G1X44.856Y35.982F200.0
N13750G1X44.871Y36.037
N13760G1X44.929Y36.037
N13770G1X44.945Y35.987
N13780G1X44.900Y35.953
N13790G1Y34.752
N13800G1X44.646Y34.777
N13810G1X44.414Y34.849
N13820G1X44.203Y34.964
N13830G1X44.017Y35.117
N13840G1X43.864Y35.303
N13850G1X43.749Y35.514
N13860G1X43.677Y35.746
N13870G1X43.652Y36.000
N13880G1X43.677Y36.254
N13890G1X43.749Y36.486
N13900G1X43.864Y36.697
N13910G1X44.017Y36.883
N13920G1X44.203Y37.036
N13930G1X44.414Y37.151
N13940G1X44.646Y37.223
N13950G1X44.900Y37.248
N13960G1X45.154Y37.223
N13970G1X45.386Y37.151
N13980G1X45.597Y37.036
N13990G1X45.783Y36.883
N14000G1X45.936Y36.697
N14010G1X46.051Y36.486
N14020G1X46.123Y36.254
N14030G1X46.148Y36.000
N14040G1X46.123Y35.746
N14050G1X46.051Y35.514
N14060G1X45.936Y35.303
N14070G1X45.783Y35.117
N14080G1X45.597Y34.964
N14090G1X45.386Y34.849
N14100G1X45.154Y34.777
N14110G1X44.900Y34.752
N14120G00Z5.080
N14130G00Y35.953
N14140G1Z-5.683F172.0
N14150G1X44.856Y35.982F200.0
N14160G1X44.871Y36.037
N14170G1X44.929Y36.037
N14180G1X44.945Y35.987
N14190G1X44.900Y35.953
N14200G1Y34.752
N14210G1X44.646Y34.777
N14220G1X44.414Y34.849
N14230G1X44.203Y34.964
N14240G1X44.017Y35.117
N14250G1X43.864Y35.303
N14260G1X43.749Y35.514
N14270G1X43.677Y35.746
N14280G1X43.652Y36.000
N14290G1X43.677Y36.254
N14300G1X43.749Y36.486
N14310G1X43.864Y36.697
N14320G1X44.017Y36.883
N14330G1X44.203Y37.036
N14340G1X44.414Y37.151
N14350G1X44.646Y37.223
N14360G1X44.900Y37.248
N14370G1X45.154Y37.223
N14380G1X45.386Y37.151
N14390G1X45.597Y37.036
N14400G1X45.783Y36.883
N14410G1X45.936Y36.697
N14420G1X46.051Y36.486
N14430G1X46.123Y36.254
N14440G1X46.148Y36.000
N14450G1X46.123Y35.746
N14460G1X46.051Y35.514
N14470G1X45.936Y35.303
N14480G1X45.783Y35.117
N14490G1X45.597Y34.964
N14500G1X45.386Y34.849
N14510G1X45.154Y34.777
N14520G1X44.900Y34.752
N14530G00Z5.080
N14540G00Y35.953
N14550G1Z-6.200F172.0
N14560G1X44.856Y35.982F200.0
N14570G1X44.871Y36.037
N14580G1X44.929Y36.037
N14590G1X44.945Y35.987
N14600G1X44.900Y35.953
N14610G1Y34.752
N14620G1X44.646Y34.777
N14630G1X44.414Y34.849
N14640G1X44.203Y34.964
N14650G1X44.017Y35.117
N14660G1X43.864Y35.303
N14670G1X43.749Y35.514
N14680G1X43.677Y35.746
N14690G1X43.652Y36.000
N14700G1X43.677Y36.254
N14710G1X43.749Y36.486
N14720G1X43.864Y36.697
N14730G1X44.017Y36.883
N14740G1X44.203Y37.036
N14750G1X44.414Y37.151
N14760G1X44.646Y37.223
N14770G1X44.900Y37.248
N14780G1X45.154Y37.223
N14790G1X45.386Y37.151
N14800G1X45.597Y37.036
N14810G1X45.783Y36.883
N14820G1X45.936Y36.697
N14830G1X46.051Y36.486
N14840G1X46.123Y36.254
N14850G1X46.148Y36.000
N14860G1X46.123Y35.746
N14870G1X46.051Y35.514
N14880G1X45.936Y35.303
N14890G1X45.783Y35.117
N14900G1X45.597Y34.964
N14910G1X45.386Y34.849
N14920G1X45.154Y34.777
N14930G1X44.900Y34.752
N14940G00Z5.080
N14950G00Y15.953
N14960G1Z-0.517F172.0
N14970G1X44.856Y15.982F200.0
N14980G1X44.871Y16.037
N14990G1X44.929Y16.037
N15000G1X44.945Y15.987
N15010G1X44.900Y15.953
N15020G1Y14.752
N15030G1X44.646Y14.777
N15040G1X44.414Y14.849
N15050G1X44.203Y14.964
N15060G1X44.017Y15.117
N15070G1X43.864Y15.303
N15080G1X43.749Y15.514
N15090G1X43.677Y15.746
N15100G1X43.652Y16.000
N15110G1X43.677Y16.254
N15120G1X43.749Y16.486
N15130G1X43.864Y16.697
N15140G1X44.017Y16.883
N15150G1X44.203Y17.036
N15160G1X44.414Y17.151
N15170G1X44.646Y17.223
N15180G1X44.900Y17.248
N15190G1X45.154Y17.223
N15200G1X45.386Y17.151
N15210G1X45.597Y17.036
N15220G1X45.783Y16.883
N15230G1X45.936Y16.697
N15240G1X46.051Y16.486
N15250G1X46.123Y16.254
N15260G1X46.148Y16.000
N15270G1X46.123Y15.746
N15280G1X46.051Y15.514
N15290G1X45.936Y15.303
N15300G1X45.783Y15.117
N15310G1X45.597Y14.964
N15320G1X45.386Y14.849
N15330G1X45.154Y14.777
N15340G1X44.900Y14.752
N15350G00Z5.080
N15360G00Y15.953
N15370G1Z-1.033F172.0
N15380G1X44.856Y15.982F200.0
N15390G1X44.871Y16.037
N15400G1X44.929Y16.037
N15410G1X44.945Y15.987
N15420G1X44.900Y15.953
N15430G1Y14.752
N15440G1X44.646Y14.777
N15450G1X44.414Y14.849
N15460G1X44.203Y14.964
N15470G1X44.017Y15.117
N15480G1X43.864Y15.303
N15490G1X43.749Y15.514
N15500G1X43.677Y15.746
N15510G1X43.652Y16.000
N15520G1X43.677Y16.254
N15530G1X43.749Y16.486
N15540G1X43.864Y16.697
N15550G1X44.017Y16.883
N15560G1X44.203Y17.036
N15570G1X44.414Y17.151
N15580G1X44.646Y17.223
N15590G1X44.900Y17.248
N15600G1X45.154Y17.223
N15610G1X45.386Y17.151
N15620G1X45.597Y17.036
N15630G1X45.783Y16.883
N15640G1X45.936Y16.697
N15650G1X46.051Y16.486
N15660G1X46.123Y16.254
N15670G1X46.148Y16.000
N15680G1X46.123Y15.746
N15690G1X46.051Y15.514
N15700G1X45.936Y15.303
N15710G1X45.783Y15.117
N15720G1X45.597Y14.964
N15730G1X45.386Y14.849
N15740G1X45.154Y14.777
N15750G1X44.900Y14.752
N15760G00Z5.080
N15770G00Y15.953
N15780G1Z-1.550F172.0
N15790G1X44.856Y15.982F200.0
N15800G1X44.871Y16.037
N15810G1X44.929Y16.037
N15820G1X44.945Y15.987
N15830G1X44.900Y15.953
N15840G1Y14.752
N15850G1X44.646Y14.777
N15860G1X44.414Y14.849
N15870G1X44.203Y14.964
N15880G1X44.017Y15.117
N15890G1X43.864Y15.303
N15900G1X43.749Y15.514
N15910G1X43.677Y15.746
N15920G1X43.652Y16.000
N15930G1X43.677Y16.254
N15940G1X43.749Y16.486
N15950G1X43.864Y16.697
N15960G1X44.017Y16.883
N15970G1X44.203Y17.036
N15980G1X44.414Y17.151
N15990G1X44.646Y17.223
N16000G1X44.900Y17.248
N16010G1X45.154Y17.223
N16020G1X45.386Y17.151
N16030G1X45.597Y17.036
N16040G1X45.783Y16.883
N16050G1X45.936Y16.697
N16060G1X46.051Y16.486
N16070G1X46.123Y16.254
N16080G1X46.148Y16.000
N16090G1X46.123Y15.746
N16100G1X46.051Y15.514
N16110G1X45.936Y15.303
N16120G1X45.783Y15.117
N16130G1X45.597Y14.964
N16140G1X45.386Y14.849
N16150G1X45.154Y14.777
N16160G1X44.900Y14.752
N16170G00Z5.080
N16180G00Y15.953
N16190G1Z-2.067F172.0
N16200G1X44.856Y15.982F200.0
N16210G1X44.871Y16.037
N16220G1X44.929Y16.037
N16230G1X44.945Y15.987
N16240G1X44.900Y15.953
N16250G1Y14.752
N16260G1X44.646Y14.777
N16270G1X44.414Y14.849
N16280G1X44.203Y14.964
N16290G1X44.017Y15.117
N16300G1X43.864Y15.303
N16310G1X43.749Y15.514
N16320G1X43.677Y15.746
N16330G1X43.652Y16.000
N16340G1X43.677Y16.254
N16350G1X43.749Y16.486
N16360G1X43.864Y16.697
N16370G1X44.017Y16.883
N16380G1X44.203Y17.036
N16390G1X44.414Y17.151
N16400G1X44.646Y17.223
N16410G1X44.900Y17.248
N16420G1X45.154Y17.223
N16430G1X45.386Y17.151
N16440G1X45.597Y17.036
N16450G1X45.783Y16.883
N16460G1X45.936Y16.697
N16470G1X46.051Y16.486
N16480G1X46.123Y16.254
N16490G1X46.148Y16.000
N16500G1X46.123Y15.746
N16510G1X46.051Y15.514
N16520G1X45.936Y15.303
N16530G1X45.783Y15.117
N16540G1X45.597Y14.964
N16550G1X45.386Y14.849
N16560G1X45.154Y14.777
N16570G1X44.900Y14.752
N16580G00Z5.080
N16590G00Y15.953
N16600G1Z-2.583F172.0
N16610G1X44.856Y15.982F200.0
N16620G1X44.871Y16.037
N16630G1X44.929Y16.037
N16640G1X44.945Y15.987
N16650G1X44.900Y15.953
N16660G1Y14.752
N16670G1X44.646Y14.777
N16680G1X44.414Y14.849
N16690G1X44.203Y14.964
N16700G1X44.017Y15.117
N16710G1X43.864Y15.303
N16720G1X43.749Y15.514
N16730G1X43.677Y15.746
N16740G1X43.652Y16.000
N16750G1X43.677Y16.254
N16760G1X43.749Y16.486
N16770G1X43.864Y16.697
N16780G1X44.017Y16.883
N16790G1X44.203Y17.036
N16800G1X44.414Y17.151
N16810G1X44.646Y17.223
N16820G1X44.900Y17.248
N16830G1X45.154Y17.223
N16840G1X45.386Y17.151
N16850G1X45.597Y17.036
N16860G1X45.783Y16.883
N16870G1X45.936Y16.697
N16880G1X46.051Y16.486
N16890G1X46.123Y16.254
N16900G1X46.148Y16.000
N16910G1X46.123Y15.746
N16920G1X46.051Y15.514
N16930G1X45.936Y15.303
N16940G1X45.783Y15.117
N16950G1X45.597Y14.964
N16960G1X45.386Y14.849
N16970G1X45.154Y14.777
N16980G1X44.900Y14.752
N16990G00Z5.080
N17000G00Y15.953
N17010G1Z-3.100F172.0
N17020G1X44.856Y15.982F200.0
N17030G1X44.871Y16.037
N17040G1X44.929Y16.037
N17050G1X44.945Y15.987
N17060G1X44.900Y15.953
N17070G1Y14.752
N17080G1X44.646Y14.777
N17090G1X44.414Y14.849
N17100G1X44.203Y14.964
N17110G1X44.017Y15.117
N17120G1X43.864Y15.303
N17130G1X43.749Y15.514
N17140G1X43.677Y15.746
N17150G1X43.652Y16.000
N17160G1X43.677Y16.254
N17170G1X43.749Y16.486
N17180G1X43.864Y16.697
N17190G1X44.017Y16.883
N17200G1X44.203Y17.036
N17210G1X44.414Y17.151
N17220G1X44.646Y17.223
N17230G1X44.900Y17.248
N17240G1X45.154Y17.223
N17250G1X45.386Y17.151
N17260G1X45.597Y17.036
N17270G1X45.783Y16.883
N17280G1X45.936Y16.697
N17290G1X46.051Y16.486
N17300G1X46.123Y16.254
N17310G1X46.148Y16.000
N17320G1X46.123Y15.746
N17330G1X46.051Y15.514
N17340G1X45.936Y15.303
N17350G1X45.783Y15.117
N17360G1X45.597Y14.964
N17370G1X45.386Y14.849
N17380G1X45.154Y14.777
N17390G1X44.900Y14.752
N17400G00Z5.080
N17410G00Y15.953
N17420G1Z-3.617F172.0
N17430G1X44.856Y15.982F200.0
N17440G1X44.871Y16.037
N17450G1X44.929Y16.037
N17460G1X44.945Y15.987
N17470G1X44.900Y15.953
N17480G1Y14.752
N17490G1X44.646Y14.777
N17500G1X44.414Y14.849
N17510G1X44.203Y14.964
N17520G1X44.017Y15.117
N17530G1X43.864Y15.303
N17540G1X43.749Y15.514
N17550G1X43.677Y15.746
N17560G1X43.652Y16.000
N17570G1X43.677Y16.254
N17580G1X43.749Y16.486
N17590G1X43.864Y16.697
N17600G1X44.017Y16.883
N17610G1X44.203Y17.036
N17620G1X44.414Y17.151
N17630G1X44.646Y17.223
N17640G1X44.900Y17.248
N17650G1X45.154Y17.223
N17660G1X45.386Y17.151
N17670G1X45.597Y17.036
N17680G1X45.783Y16.883
N17690G1X45.936Y16.697
N17700G1X46.051Y16.486
N17710G1X46.123Y16.254
N17720G1X46.148Y16.000
N17730G1X46.123Y15.746
N17740G1X46.051Y15.514
N17750G1X45.936Y15.303
N17760G1X45.783Y15.117
N17770G1X45.597Y14.964
N17780G1X45.386Y14.849
N17790G1X45.154Y14.777
N17800G1X44.900Y14.752
N17810G00Z5.080
N17820G00Y15.953
N17830G1Z-4.133F172.0
N17840G1X44.856Y15.982F200.0
N17850G1X44.871Y16.037
N17860G1X44.929Y16.037
N17870G1X44.945Y15.987
N17880G1X44.900Y15.953
N17890G1Y14.752
N17900G1X44.646Y14.777
N17910G1X44.414Y14.849
N17920G1X44.203Y14.964
N17930G1X44.017Y15.117
N17940G1X43.864Y15.303
N17950G1X43.749Y15.514
N17960G1X43.677Y15.746
N17970G1X43.652Y16.000
N17980G1X43.677Y16.254
N17990G1X43.749Y16.486
N18000G1X43.864Y16.697
N18010G1X44.017Y16.883
N18020G1X44.203Y17.036
N18030G1X44.414Y17.151
N18040G1X44.646Y17.223
N18050G1X44.900Y17.248
N18060G1X45.154Y17.223
N18070G1X45.386Y17.151
N18080G1X45.597Y17.036
N18090G1X45.783Y16.883
N18100G1X45.936Y16.697
N18110G1X46.051Y16.486
N18120G1X46.123Y16.254
N18130G1X46.148Y16.000
N18140G1X46.123Y15.746
N18150G1X46.051Y15.514
N18160G1X45.936Y15.303
N18170G1X45.783Y15.117
N18180G1X45.597Y14.964
N18190G1X45.386Y14.849
N18200G1X45.154Y14.777
N18210G1X44.900Y14.752
N18220G00Z5.080
N18230G00Y15.953
N18240G1Z-4.650F172.0
N18250G1X44.856Y15.982F200.0
N18260G1X44.871Y16.037
N18270G1X44.929Y16.037
N18280G1X44.945Y15.987
N18290G1X44.900Y15.953
N18300G1Y14.752
N18310G1X44.646Y14.777
N18320G1X44.414Y14.849
N18330G1X44.203Y14.964
N18340G1X44.017Y15.117
N18350G1X43.864Y15.303
N18360G1X43.749Y15.514
N18370G1X43.677Y15.746
N18380G1X43.652Y16.000
N18390G1X43.677Y16.254
N18400G1X43.749Y16.486
N18410G1X43.864Y16.697
N18420G1X44.017Y16.883
N18430G1X44.203Y17.036
N18440G1X44.414Y17.151
N18450G1X44.646Y17.223
N18460G1X44.900Y17.248
N18470G1X45.154Y17.223
N18480G1X45.386Y17.151
N18490G1X45.597Y17.036
N18500G1X45.783Y16.883
N18510G1X45.936Y16.697
N18520G1X46.051Y16.486
N18530G1X46.123Y16.254
N18540G1X46.148Y16.000
N18550G1X46.123Y15.746
N18560G1X46.051Y15.514
N18570G1X45.936Y15.303
N18580G1X45.783Y15.117
N18590G1X45.597Y14.964
N18600G1X45.386Y14.849
N18610G1X45.154Y14.777
N18620G1X44.900Y14.752
N18630G00Z5.080
N18640G00Y15.953
N18650G1Z-5.167F172.0
N18660G1X44.856Y15.982F200.0
N18670G1X44.871Y16.037
N18680G1X44.929Y16.037
N18690G1X44.945Y15.987
N18700G1X44.900Y15.953
N18710G1Y14.752
N18720G1X44.646Y14.777
N18730G1X44.414Y14.849
N18740G1X44.203Y14.964
N18750G1X44.017Y15.117
N18760G1X43.864Y15.303
N18770G1X43.749Y15.514
N18780G1X43.677Y15.746
N18790G1X43.652Y16.000
N18800G1X43.677Y16.254
N18810G1X43.749Y16.486
N18820G1X43.864Y16.697
N18830G1X44.017Y16.883
N18840G1X44.203Y17.036
N18850G1X44.414Y17.151
N18860G1X44.646Y17.223
N18870G1X44.900Y17.248
N18880G1X45.154Y17.223
N18890G1X45.386Y17.151
N18900G1X45.597Y17.036
N18910G1X45.783Y16.883
N18920G1X45.936Y16.697
N18930G1X46.051Y16.486
N18940G1X46.123Y16.254
N18950G1X46.148Y16.000
N18960G1X46.123Y15.746
N18970G1X46.051Y15.514
N18980G1X45.936Y15.303
N18990G1X45.783Y15.117
N19000G1X45.597Y14.964
N19010G1X45.386Y14.849
N19020G1X45.154Y14.777
N19030G1X44.900Y14.752
N19040G00Z5.080
N19050G00Y15.953
N19060G1Z-5.683F172.0
N19070G1X44.856Y15.982F200.0
N19080G1X44.871Y16.037
N19090G1X44.929Y16.037
N19100G1X44.945Y15.987
N19110G1X44.900Y15.953
N19120G1Y14.752
N19130G1X44.646Y14.777
N19140G1X44.414Y14.849
N19150G1X44.203Y14.964
N19160G1X44.017Y15.117
N19170G1X43.864Y15.303
N19180G1X43.749Y15.514
N19190G1X43.677Y15.746
N19200G1X43.652Y16.000
N19210G1X43.677Y16.254
N19220G1X43.749Y16.486
N19230G1X43.864Y16.697
N19240G1X44.017Y16.883
N19250G1X44.203Y17.036
N19260G1X44.414Y17.151
N19270G1X44.646Y17.223
N19280G1X44.900Y17.248
N19290G1X45.154Y17.223
N19300G1X45.386Y17.151
N19310G1X45.597Y17.036
N19320G1X45.783Y16.883
N19330G1X45.936Y16.697
N19340G1X46.051Y16.486
N19350G1X46.123Y16.254
N19360G1X46.148Y16.000
N19370G1X46.123Y15.746
N19380G1X46.051Y15.514
N19390G1X45.936Y15.303
N19400G1X45.783Y15.117
N19410G1X45.597Y14.964
N19420G1X45.386Y14.849
N19430G1X45.154Y14.777
N19440G1X44.900Y14.752
N19450G00Z5.080
N19460G00Y15.953
N19470G1Z-6.200F172.0
N19480G1X44.856Y15.982F200.0
N19490G1X44.871Y16.037
N19500G1X44.929Y16.037
N19510G1X44.945Y15.987
N19520G1X44.900Y15.953
N19530G1Y14.752
N19540G1X44.646Y14.777
N19550G1X44.414Y14.849
N19560G1X44.203Y14.964
N19570G1X44.017Y15.117
N19580G1X43.864Y15.303
N19590G1X43.749Y15.514
N19600G1X43.677Y15.746
N19610G1X43.652Y16.000
N19620G1X43.677Y16.254
N19630G1X43.749Y16.486
N19640G1X43.864Y16.697
N19650G1X44.017Y16.883
N19660G1X44.203Y17.036
N19670G1X44.414Y17.151
N19680G1X44.646Y17.223
N19690G1X44.900Y17.248
N19700G1X45.154Y17.223
N19710G1X45.386Y17.151
N19720G1X45.597Y17.036
N19730G1X45.783Y16.883
N19740G1X45.936Y16.697
N19750G1X46.051Y16.486
N19760G1X46.123Y16.254
N19770G1X46.148Y16.000
N19780G1X46.123Y15.746
N19790G1X46.051Y15.514
N19800G1X45.936Y15.303
N19810G1X45.783Y15.117
N19820G1X45.597Y14.964
N19830G1X45.386Y14.849
N19840G1X45.154Y14.777
N19850G1X44.900Y14.752
N19860G00Z5.080
N19870G00X60.900Y15.953
N19880G1Z-0.517F172.0
N19890G1X60.856Y15.982F200.0
N19900G1X60.871Y16.037
N19910G1X60.929Y16.037
N19920G1X60.946Y15.987
N19930G1X60.900Y15.953
N19940G1Y14.752
N19950G1X60.647Y14.777
N19960G1X60.414Y14.849
N19970G1X60.203Y14.964
N19980G1X60.017Y15.117
N19990G1X59.864Y15.303
N20000G1X59.749Y15.514
N20010G1X59.677Y15.746
N20020G1X59.652Y16.000
N20030G1X59.677Y16.254
N20040G1X59.749Y16.486
N20050G1X59.864Y16.697
N20060G1X60.017Y16.883
N20070G1X60.203Y17.036
N20080G1X60.414Y17.151
N20090G1X60.647Y17.223
N20100G1X60.900Y17.248
N20110G1X61.154Y17.223
N20120G1X61.386Y17.151
N20130G1X61.597Y17.036
N20140G1X61.783Y16.883
N20150G1X61.936Y16.697
N20160G1X62.051Y16.486
N20170G1X62.123Y16.254
N20180G1X62.148Y16.000
N20190G1X62.123Y15.746
N20200G1X62.051Y15.514
N20210G1X61.936Y15.303
N20220G1X61.783Y15.117
N20230G1X61.597Y14.964
N20240G1X61.386Y14.849
N20250G1X61.154Y14.777
N20260G1X60.900Y14.752
N20270G00Z5.080
N20280G00Y15.953
N20290G1Z-1.033F172.0
N20300G1X60.856Y15.982F200.0
N20310G1X60.871Y16.037
N20320G1X60.929Y16.037
N20330G1X60.946Y15.987
N20340G1X60.900Y15.953
N20350G1Y14.752
N20360G1X60.647Y14.777
N20370G1X60.414Y14.849
N20380G1X60.203Y14.964
N20390G1X60.017Y15.117
N20400G1X59.864Y15.303
N20410G1X59.749Y15.514
N20420G1X59.677Y15.746
N20430G1X59.652Y16.000
N20440G1X59.677Y16.254
N20450G1X59.749Y16.486
N20460G1X59.864Y16.697
N20470G1X60.017Y16.883
N20480G1X60.203Y17.036
N20490G1X60.414Y17.151
N20500G1X60.647Y17.223
N20510G1X60.900Y17.248
N20520G1X61.154Y17.223
N20530G1X61.386Y17.151
N20540G1X61.597Y17.036
N20550G1X61.783Y16.883
N20560G1X61.936Y16.697
N20570G1X62.051Y16.486
N20580G1X62.123Y16.254
N20590G1X62.148Y16.000
N20600G1X62.123Y15.746
N20610G1X62.051Y15.514
N20620G1X61.936Y15.303
N20630G1X61.783Y15.117
N20640G1X61.597Y14.964
N20650G1X61.386Y14.849
N20660G1X61.154Y14.777
N20670G1X60.900Y14.752
N20680G00Z5.080
N20690G00Y15.953
N20700G1Z-1.550F172.0
N20710G1X60.856Y15.982F200.0
N20720G1X60.871Y16.037
N20730G1X60.929Y16.037
N20740G1X60.946Y15.987
N20750G1X60.900Y15.953
N20760G1Y14.752
N20770G1X60.647Y14.777
N20780G1X60.414Y14.849
N20790G1X60.203Y14.964
N20800G1X60.017Y15.117
N20810G1X59.864Y15.303
N20820G1X59.749Y15.514
N20830G1X59.677Y15.746
N20840G1X59.652Y16.000
N20850G1X59.677Y16.254
N20860G1X59.749Y16.486
N20870G1X59.864Y16.697
N20880G1X60.017Y16.883
N20890G1X60.203Y17.036
N20900G1X60.414Y17.151
N20910G1X60.647Y17.223
N20920G1X60.900Y17.248
N20930G1X61.154Y17.223
N20940G1X61.386Y17.151
N20950G1X61.597Y17.036
N20960G1X61.783Y16.883
N20970G1X61.936Y16.697
N20980G1X62.051Y16.486
N20990G1X62.123Y16.254
N21000G1X62.148Y16.000
N21010G1X62.123Y15.746
N21020G1X62.051Y15.514
N21030G1X61.936Y15.303
N21040G1X61.783Y15.117
N21050G1X61.597Y14.964
N21060G1X61.386Y14.849
N21070G1X61.154Y14.777
N21080G1X60.900Y14.752
N21090G00Z5.080
N21100G00Y15.953
N21110G1Z-2.067F172.0
N21120G1X60.856Y15.982F200.0
N21130G1X60.871Y16.037
N21140G1X60.929Y16.037
N21150G1X60.946Y15.987
N21160G1X60.900Y15.953
N21170G1Y14.752
N21180G1X60.647Y14.777
N21190G1X60.414Y14.849
N21200G1X60.203Y14.964
N21210G1X60.017Y15.117
N21220G1X59.864Y15.303
N21230G1X59.749Y15.514
N21240G1X59.677Y15.746
N21250G1X59.652Y16.000
N21260G1X59.677Y16.254
N21270G1X59.749Y16.486
N21280G1X59.864Y16.697
N21290G1X60.017Y16.883
N21300G1X60.203Y17.036
N21310G1X60.414Y17.151
N21320G1X60.647Y17.223
N21330G1X60.900Y17.248
N21340G1X61.154Y17.223
N21350G1X61.386Y17.151
N21360G1X61.597Y17.036
N21370G1X61.783Y16.883
N21380G1X61.936Y16.697
N21390G1X62.051Y16.486
N21400G1X62.123Y16.254
N21410G1X62.148Y16.000
N21420G1X62.123Y15.746
N21430G1X62.051Y15.514
N21440G1X61.936Y15.303
N21450G1X61.783Y15.117
N21460G1X61.597Y14.964
N21470G1X61.386Y14.849
N21480G1X61.154Y14.777
N21490G1X60.900Y14.752
N21500G00Z5.080
N21510G00Y15.953
N21520G1Z-2.583F172.0
N21530G1X60.856Y15.982F200.0
N21540G1X60.871Y16.037
N21550G1X60.929Y16.037
N21560G1X60.946Y15.987
N21570G1X60.900Y15.953
N21580G1Y14.752
N21590G1X60.647Y14.777
N21600G1X60.414Y14.849
N21610G1X60.203Y14.964
N21620G1X60.017Y15.117
N21630G1X59.864Y15.303
N21640G1X59.749Y15.514
N21650G1X59.677Y15.746
N21660G1X59.652Y16.000
N21670G1X59.677Y16.254
N21680G1X59.749Y16.486
N21690G1X59.864Y16.697
N21700G1X60.017Y16.883
N21710G1X60.203Y17.036
N21720G1X60.414Y17.151
N21730G1X60.647Y17.223
N21740G1X60.900Y17.248
N21750G1X61.154Y17.223
N21760G1X61.386Y17.151
N21770G1X61.597Y17.036
N21780G1X61.783Y16.883
N21790G1X61.936Y16.697
N21800G1X62.051Y16.486
N21810G1X62.123Y16.254
N21820G1X62.148Y16.000
N21830G1X62.123Y15.746
N21840G1X62.051Y15.514
N21850G1X61.936Y15.303
N21860G1X61.783Y15.117
N21870G1X61.597Y14.964
N21880G1X61.386Y14.849
N21890G1X61.154Y14.777
N21900G1X60.900Y14.752
N21910G00Z5.080
N21920G00Y15.953
N21930G1Z-3.100F172.0
N21940G1X60.856Y15.982F200.0
N21950G1X60.871Y16.037
N21960G1X60.929Y16.037
N21970G1X60.946Y15.987
N21980G1X60.900Y15.953
N21990G1Y14.752
N22000G1X60.647Y14.777
N22010G1X60.414Y14.849
N22020G1X60.203Y14.964
N22030G1X60.017Y15.117
N22040G1X59.864Y15.303
N22050G1X59.749Y15.514
N22060G1X59.677Y15.746
N22070G1X59.652Y16.000
N22080G1X59.677Y16.254
N22090G1X59.749Y16.486
N22100G1X59.864Y16.697
N22110G1X60.017Y16.883
N22120G1X60.203Y17.036
N22130G1X60.414Y17.151
N22140G1X60.647Y17.223
N22150G1X60.900Y17.248
N22160G1X61.154Y17.223
N22170G1X61.386Y17.151
N22180G1X61.597Y17.036
N22190G1X61.783Y16.883
N22200G1X61.936Y16.697
N22210G1X62.051Y16.486
N22220G1X62.123Y16.254
N22230G1X62.148Y16.000
N22240G1X62.123Y15.746
N22250G1X62.051Y15.514
N22260G1X61.936Y15.303
N22270G1X61.783Y15.117
N22280G1X61.597Y14.964
N22290G1X61.386Y14.849
N22300G1X61.154Y14.777
N22310G1X60.900Y14.752
N22320G00Z5.080
N22330G00Y15.953
N22340G1Z-3.617F172.0
N22350G1X60.856Y15.982F200.0
N22360G1X60.871Y16.037
N22370G1X60.929Y16.037
N22380G1X60.946Y15.987
N22390G1X60.900Y15.953
N22400G1Y14.752
N22410G1X60.647Y14.777
N22420G1X60.414Y14.849
N22430G1X60.203Y14.964
N22440G1X60.017Y15.117
N22450G1X59.864Y15.303
N22460G1X59.749Y15.514
N22470G1X59.677Y15.746
N22480G1X59.652Y16.000
N22490G1X59.677Y16.254
N22500G1X59.749Y16.486
N22510G1X59.864Y16.697
N22520G1X60.017Y16.883
N22530G1X60.203Y17.036
N22540G1X60.414Y17.151
N22550G1X60.647Y17.223
N22560G1X60.900Y17.248
N22570G1X61.154Y17.223
N22580G1X61.386Y17.151
N22590G1X61.597Y17.036
N22600G1X61.783Y16.883
N22610G1X61.936Y16.697
N22620G1X62.051Y16.486
N22630G1X62.123Y16.254
N22640G1X62.148Y16.000
N22650G1X62.123Y15.746
N22660G1X62.051Y15.514
N22670G1X61.936Y15.303
N22680G1X61.783Y15.117
N22690G1X61.597Y14.964
N22700G1X61.386Y14.849
N22710G1X61.154Y14.777
N22720G1X60.900Y14.752
N22730G00Z5.080
N22740G00Y15.953
N22750G1Z-4.133F172.0
N22760G1X60.856Y15.982F200.0
N22770G1X60.871Y16.037
N22780G1X60.929Y16.037
N22790G1X60.946Y15.987
N22800G1X60.900Y15.953
N22810G1Y14.752
N22820G1X60.647Y14.777
N22830G1X60.414Y14.849
N22840G1X60.203Y14.964
N22850G1X60.017Y15.117
N22860G1X59.864Y15.303
N22870G1X59.749Y15.514
N22880G1X59.677Y15.746
N22890G1X59.652Y16.000
N22900G1X59.677Y16.254
N22910G1X59.749Y16.486
N22920G1X59.864Y16.697
N22930G1X60.017Y16.883
N22940G1X60.203Y17.036
N22950G1X60.414Y17.151
N22960G1X60.647Y17.223
N22970G1X60.900Y17.248
N22980G1X61.154Y17.223
N22990G1X61.386Y17.151
N23000G1X61.597Y17.036
N23010G1X61.783Y16.883
N23020G1X61.936Y16.697
N23030G1X62.051Y16.486
N23040G1X62.123Y16.254
N23050G1X62.148Y16.000
N23060G1X62.123Y15.746
N23070G1X62.051Y15.514
N23080G1X61.936Y15.303
N23090G1X61.783Y15.117
N23100G1X61.597Y14.964
N23110G1X61.386Y14.849
N23120G1X61.154Y14.777
N23130G1X60.900Y14.752
N23140G00Z5.080
N23150G00Y15.953
N23160G1Z-4.650F172.0
N23170G1X60.856Y15.982F200.0
N23180G1X60.871Y16.037
N23190G1X60.929Y16.037
N23200G1X60.946Y15.987
N23210G1X60.900Y15.953
N23220G1Y14.752
N23230G1X60.647Y14.777
N23240G1X60.414Y14.849
N23250G1X60.203Y14.964
N23260G1X60.017Y15.117
N23270G1X59.864Y15.303
N23280G1X59.749Y15.514
N23290G1X59.677Y15.746
N23300G1X59.652Y16.000
N23310G1X59.677Y16.254
N23320G1X59.749Y16.486
N23330G1X59.864Y16.697
N23340G1X60.017Y16.883
N23350G1X60.203Y17.036
N23360G1X60.414Y17.151
N23370G1X60.647Y17.223
N23380G1X60.900Y17.248
N23390G1X61.154Y17.223
N23400G1X61.386Y17.151
N23410G1X61.597Y17.036
N23420G1X61.783Y16.883
N23430G1X61.936Y16.697
N23440G1X62.051Y16.486
N23450G1X62.123Y16.254
N23460G1X62.148Y16.000
N23470G1X62.123Y15.746
N23480G1X62.051Y15.514
N23490G1X61.936Y15.303
N23500G1X61.783Y15.117
N23510G1X61.597Y14.964
N23520G1X61.386Y14.849
N23530G1X61.154Y14.777
N23540G1X60.900Y14.752
N23550G00Z5.080
N23560G00Y15.953
N23570G1Z-5.167F172.0
N23580G1X60.856Y15.982F200.0
N23590G1X60.871Y16.037
N23600G1X60.929Y16.037
N23610G1X60.946Y15.987
N23620G1X60.900Y15.953
N23630G1Y14.752
N23640G1X60.647Y14.777
N23650G1X60.414Y14.849
N23660G1X60.203Y14.964
N23670G1X60.017Y15.117
N23680G1X59.864Y15.303
N23690G1X59.749Y15.514
N23700G1X59.677Y15.746
N23710G1X59.652Y16.000
N23720G1X59.677Y16.254
N23730G1X59.749Y16.486
N23740G1X59.864Y16.697
N23750G1X60.017Y16.883
N23760G1X60.203Y17.036
N23770G1X60.414Y17.151
N23780G1X60.647Y17.223
N23790G1X60.900Y17.248
N23800G1X61.154Y17.223
N23810G1X61.386Y17.151
N23820G1X61.597Y17.036
N23830G1X61.783Y16.883
N23840G1X61.936Y16.697
N23850G1X62.051Y16.486
N23860G1X62.123Y16.254
N23870G1X62.148Y16.000
N23880G1X62.123Y15.746
N23890G1X62.051Y15.514
N23900G1X61.936Y15.303
N23910G1X61.783Y15.117
N23920G1X61.597Y14.964
N23930G1X61.386Y14.849
N23940G1X61.154Y14.777
N23950G1X60.900Y14.752
N23960G00Z5.080
N23970G00Y15.953
N23980G1Z-5.683F172.0
N23990G1X60.856Y15.982F200.0
N24000G1X60.871Y16.037
N24010G1X60.929Y16.037
N24020G1X60.946Y15.987
N24030G1X60.900Y15.953
N24040G1Y14.752
N24050G1X60.647Y14.777
N24060G1X60.414Y14.849
N24070G1X60.203Y14.964
N24080G1X60.017Y15.117
N24090G1X59.864Y15.303
N24100G1X59.749Y15.514
N24110G1X59.677Y15.746
N24120G1X59.652Y16.000
N24130G1X59.677Y16.254
N24140G1X59.749Y16.486
N24150G1X59.864Y16.697
N24160G1X60.017Y16.883
N24170G1X60.203Y17.036
N24180G1X60.414Y17.151
N24190G1X60.647Y17.223
N24200G1X60.900Y17.248
N24210G1X61.154Y17.223
N24220G1X61.386Y17.151
N24230G1X61.597Y17.036
N24240G1X61.783Y16.883
N24250G1X61.936Y16.697
N24260G1X62.051Y16.486
N24270G1X62.123Y16.254
N24280G1X62.148Y16.000
N24290G1X62.123Y15.746
N24300G1X62.051Y15.514
N24310G1X61.936Y15.303
N24320G1X61.783Y15.117
N24330G1X61.597Y14.964
N24340G1X61.386Y14.849
N24350G1X61.154Y14.777
N24360G1X60.900Y14.752
N24370G00Z5.080
N24380G00Y15.953
N24390G1Z-6.200F172.0
N24400G1X60.856Y15.982F200.0
N24410G1X60.871Y16.037
N24420G1X60.929Y16.037
N24430G1X60.946Y15.987
N24440G1X60.900Y15.953
N24450G1Y14.752
N24460G1X60.647Y14.777
N24470G1X60.414Y14.849
N24480G1X60.203Y14.964
N24490G1X60.017Y15.117
N24500G1X59.864Y15.303
N24510G1X59.749Y15.514
N24520G1X59.677Y15.746
N24530G1X59.652Y16.000
N24540G1X59.677Y16.254
N24550G1X59.749Y16.486
N24560G1X59.864Y16.697
N24570G1X60.017Y16.883
N24580G1X60.203Y17.036
N24590G1X60.414Y17.151
N24600G1X60.647Y17.223
N24610G1X60.900Y17.248
N24620G1X61.154Y17.223
N24630G1X61.386Y17.151
N24640G1X61.597Y17.036
N24650G1X61.783Y16.883
N24660G1X61.936Y16.697
N24670G1X62.051Y16.486
N24680G1X62.123Y16.254
N24690G1X62.148Y16.000
N24700G1X62.123Y15.746
N24710G1X62.051Y15.514
N24720G1X61.936Y15.303
N24730G1X61.783Y15.117
N24740G1X61.597Y14.964
N24750G1X61.386Y14.849
N24760G1X61.154Y14.777
N24770G1X60.900Y14.752
N24780G00Z5.080
N24790G00Y35.953
N24800G1Z-0.517F172.0
N24810G1X60.856Y35.982F200.0
N24820G1X60.871Y36.037
N24830G1X60.929Y36.037
N24840G1X60.946Y35.987
N24850G1X60.900Y35.953
N24860G1Y34.752
N24870G1X60.647Y34.777
N24880G1X60.414Y34.849
N24890G1X60.203Y34.964
N24900G1X60.017Y35.117
N24910G1X59.864Y35.303
N24920G1X59.749Y35.514
N24930G1X59.677Y35.746
N24940G1X59.652Y36.000
N24950G1X59.677Y36.254
N24960G1X59.749Y36.486
N24970G1X59.864Y36.697
N24980G1X60.017Y36.883
N24990G1X60.203Y37.036
N25000G1X60.414Y37.151
N25010G1X60.647Y37.223
N25020G1X60.900Y37.248
N25030G1X61.154Y37.223
N25040G1X61.386Y37.151
N25050G1X61.597Y37.036
N25060G1X61.783Y36.883
N25070G1X61.936Y36.697
N25080G1X62.051Y36.486
N25090G1X62.123Y36.254
N25100G1X62.148Y36.000
N25110G1X62.123Y35.746
N25120G1X62.051Y35.514
N25130G1X61.936Y35.303
N25140G1X61.783Y35.117
N25150G1X61.597Y34.964
N25160G1X61.386Y34.849
N25170G1X61.154Y34.777
N25180G1X60.900Y34.752
N25190G00Z5.080
N25200G00Y35.953
N25210G1Z-1.033F172.0
N25220G1X60.856Y35.982F200.0
N25230G1X60.871Y36.037
N25240G1X60.929Y36.037
N25250G1X60.946Y35.987
N25260G1X60.900Y35.953
N25270G1Y34.752
N25280G1X60.647Y34.777
N25290G1X60.414Y34.849
N25300G1X60.203Y34.964
N25310G1X60.017Y35.117
N25320G1X59.864Y35.303
N25330G1X59.749Y35.514
N25340G1X59.677Y35.746
N25350G1X59.652Y36.000
N25360G1X59.677Y36.254
N25370G1X59.749Y36.486
N25380G1X59.864Y36.697
N25390G1X60.017Y36.883
N25400G1X60.203Y37.036
N25410G1X60.414Y37.151
N25420G1X60.647Y37.223
N25430G1X60.900Y37.248
N25440G1X61.154Y37.223
N25450G1X61.386Y37.151
N25460G1X61.597Y37.036
N25470G1X61.783Y36.883
N25480G1X61.936Y36.697
N25490G1X62.051Y36.486
N25500G1X62.123Y36.254
N25510G1X62.148Y36.000
N25520G1X62.123Y35.746
N25530G1X62.051Y35.514
N25540G1X61.936Y35.303
N25550G1X61.783Y35.117
N25560G1X61.597Y34.964
N25570G1X61.386Y34.849
N25580G1X61.154Y34.777
N25590G1X60.900Y34.752
N25600G00Z5.080
N25610G00Y35.953
N25620G1Z-1.550F172.0
N25630G1X60.856Y35.982F200.0
N25640G1X60.871Y36.037
N25650G1X60.929Y36.037
N25660G1X60.946Y35.987
N25670G1X60.900Y35.953
N25680G1Y34.752
N25690G1X60.647Y34.777
N25700G1X60.414Y34.849
N25710G1X60.203Y34.964
N25720G1X60.017Y35.117
N25730G1X59.864Y35.303
N25740G1X59.749Y35.514
N25750G1X59.677Y35.746
N25760G1X59.652Y36.000
N25770G1X59.677Y36.254
N25780G1X59.749Y36.486
N25790G1X59.864Y36.697
N25800G1X60.017Y36.883
N25810G1X60.203Y37.036
N25820G1X60.414Y37.151
N25830G1X60.647Y37.223
N25840G1X60.900Y37.248
N25850G1X61.154Y37.223
N25860G1X61.386Y37.151
N25870G1X61.597Y37.036
N25880G1X61.783Y36.883
N25890G1X61.936Y36.697
N25900G1X62.051Y36.486
N25910G1X62.123Y36.254
N25920G1X62.148Y36.000
N25930G1X62.123Y35.746
N25940G1X62.051Y35.514
N25950G1X61.936Y35.303
N25960G1X61.783Y35.117
N25970G1X61.597Y34.964
N25980G1X61.386Y34.849
N25990G1X61.154Y34.777
N26000G1X60.900Y34.752
N26010G00Z5.080
N26020G00Y35.953
N26030G1Z-2.067F172.0
N26040G1X60.856Y35.982F200.0
N26050G1X60.871Y36.037
N26060G1X60.929Y36.037
N26070G1X60.946Y35.987
N26080G1X60.900Y35.953
N26090G1Y34.752
N26100G1X60.647Y34.777
N26110G1X60.414Y34.849
N26120G1X60.203Y34.964
N26130G1X60.017Y35.117
N26140G1X59.864Y35.303
N26150G1X59.749Y35.514
N26160G1X59.677Y35.746
N26170G1X59.652Y36.000
N26180G1X59.677Y36.254
N26190G1X59.749Y36.486
N26200G1X59.864Y36.697
N26210G1X60.017Y36.883
N26220G1X60.203Y37.036
N26230G1X60.414Y37.151
N26240G1X60.647Y37.223
N26250G1X60.900Y37.248
N26260G1X61.154Y37.223
N26270G1X61.386Y37.151
N26280G1X61.597Y37.036
N26290G1X61.783Y36.883
N26300G1X61.936Y36.697
N26310G1X62.051Y36.486
N26320G1X62.123Y36.254
N26330G1X62.148Y36.000
N26340G1X62.123Y35.746
N26350G1X62.051Y35.514
N26360G1X61.936Y35.303
N26370G1X61.783Y35.117
N26380G1X61.597Y34.964
N26390G1X61.386Y34.849
N26400G1X61.154Y34.777
N26410G1X60.900Y34.752
N26420G00Z5.080
N26430G00Y35.953
N26440G1Z-2.583F172.0
N26450G1X60.856Y35.982F200.0
N26460G1X60.871Y36.037
N26470G1X60.929Y36.037
N26480G1X60.946Y35.987
N26490G1X60.900Y35.953
N26500G1Y34.752
N26510G1X60.647Y34.777
N26520G1X60.414Y34.849
N26530G1X60.203Y34.964
N26540G1X60.017Y35.117
N26550G1X59.864Y35.303
N26560G1X59.749Y35.514
N26570G1X59.677Y35.746
N26580G1X59.652Y36.000
N26590G1X59.677Y36.254
N26600G1X59.749Y36.486
N26610G1X59.864Y36.697
N26620G1X60.017Y36.883
N26630G1X60.203Y37.036
N26640G1X60.414Y37.151
N26650G1X60.647Y37.223
N26660G1X60.900Y37.248
N26670G1X61.154Y37.223
N26680G1X61.386Y37.151
N26690G1X61.597Y37.036
N26700G1X61.783Y36.883
N26710G1X61.936Y36.697
N26720G1X62.051Y36.486
N26730G1X62.123Y36.254
N26740G1X62.148Y36.000
N26750G1X62.123Y35.746
N26760G1X62.051Y35.514
N26770G1X61.936Y35.303
N26780G1X61.783Y35.117
N26790G1X61.597Y34.964
N26800G1X61.386Y34.849
N26810G1X61.154Y34.777
N26820G1X60.900Y34.752
N26830G00Z5.080
N26840G00Y35.953
N26850G1Z-3.100F172.0
N26860G1X60.856Y35.982F200.0
N26870G1X60.871Y36.037
N26880G1X60.929Y36.037
N26890G1X60.946Y35.987
N26900G1X60.900Y35.953
N26910G1Y34.752
N26920G1X60.647Y34.777
N26930G1X60.414Y34.849
N26940G1X60.203Y34.964
N26950G1X60.017Y35.117
N26960G1X59.864Y35.303
N26970G1X59.749Y35.514
N26980G1X59.677Y35.746
N26990G1X59.652Y36.000
N27000G1X59.677Y36.254
N27010G1X59.749Y36.486
N27020G1X59.864Y36.697
N27030G1X60.017Y36.883
N27040G1X60.203Y37.036
N27050G1X60.414Y37.151
N27060G1X60.647Y37.223
N27070G1X60.900Y37.248
N27080G1X61.154Y37.223
N27090G1X61.386Y37.151
N27100G1X61.597Y37.036
N27110G1X61.783Y36.883
N27120G1X61.936Y36.697
N27130G1X62.051Y36.486
N27140G1X62.123Y36.254
N27150G1X62.148Y36.000
N27160G1X62.123Y35.746
N27170G1X62.051Y35.514
N27180G1X61.936Y35.303
N27190G1X61.783Y35.117
N27200G1X61.597Y34.964
N27210G1X61.386Y34.849
N27220G1X61.154Y34.777
N27230G1X60.900Y34.752
N27240G00Z5.080
N27250G00Y35.953
N27260G1Z-3.617F172.0
N27270G1X60.856Y35.982F200.0
N27280G1X60.871Y36.037
N27290G1X60.929Y36.037
N27300G1X60.946Y35.987
N27310G1X60.900Y35.953
N27320G1Y34.752
N27330G1X60.647Y34.777
N27340G1X60.414Y34.849
N27350G1X60.203Y34.964
N27360G1X60.017Y35.117
N27370G1X59.864Y35.303
N27380G1X59.749Y35.514
N27390G1X59.677Y35.746
N27400G1X59.652Y36.000
N27410G1X59.677Y36.254
N27420G1X59.749Y36.486
N27430G1X59.864Y36.697
N27440G1X60.017Y36.883
N27450G1X60.203Y37.036
N27460G1X60.414Y37.151
N27470G1X60.647Y37.223
N27480G1X60.900Y37.248
N27490G1X61.154Y37.223
N27500G1X61.386Y37.151
N27510G1X61.597Y37.036
N27520G1X61.783Y36.883
N27530G1X61.936Y36.697
N27540G1X62.051Y36.486
N27550G1X62.123Y36.254
N27560G1X62.148Y36.000
N27570G1X62.123Y35.746
N27580G1X62.051Y35.514
N27590G1X61.936Y35.303
N27600G1X61.783Y35.117
N27610G1X61.597Y34.964
N27620G1X61.386Y34.849
N27630G1X61.154Y34.777
N27640G1X60.900Y34.752
N27650G00Z5.080
N27660G00Y35.953
N27670G1Z-4.133F172.0
N27680G1X60.856Y35.982F200.0
N27690G1X60.871Y36.037
N27700G1X60.929Y36.037
N27710G1X60.946Y35.987
N27720G1X60.900Y35.953
N27730G1Y34.752
N27740G1X60.647Y34.777
N27750G1X60.414Y34.849
N27760G1X60.203Y34.964
N27770G1X60.017Y35.117
N27780G1X59.864Y35.303
N27790G1X59.749Y35.514
N27800G1X59.677Y35.746
N27810G1X59.652Y36.000
N27820G1X59.677Y36.254
N27830G1X59.749Y36.486
N27840G1X59.864Y36.697
N27850G1X60.017Y36.883
N27860G1X60.203Y37.036
N27870G1X60.414Y37.151
N27880G1X60.647Y37.223
N27890G1X60.900Y37.248
N27900G1X61.154Y37.223
N27910G1X61.386Y37.151
N27920G1X61.597Y37.036
N27930G1X61.783Y36.883
N27940G1X61.936Y36.697
N27950G1X62.051Y36.486
N27960G1X62.123Y36.254
N27970G1X62.148Y36.000
N27980G1X62.123Y35.746
N27990G1X62.051Y35.514
N28000G1X61.936Y35.303
N28010G1X61.783Y35.117
N28020G1X61.597Y34.964
N28030G1X61.386Y34.849
N28040G1X61.154Y34.777
N28050G1X60.900Y34.752
N28060G00Z5.080
N28070G00Y35.953
N28080G1Z-4.650F172.0
N28090G1X60.856Y35.982F200.0
N28100G1X60.871Y36.037
N28110G1X60.929Y36.037
N28120G1X60.946Y35.987
N28130G1X60.900Y35.953
N28140G1Y34.752
N28150G1X60.647Y34.777
N28160G1X60.414Y34.849
N28170G1X60.203Y34.964
N28180G1X60.017Y35.117
N28190G1X59.864Y35.303
N28200G1X59.749Y35.514
N28210G1X59.677Y35.746
N28220G1X59.652Y36.000
N28230G1X59.677Y36.254
N28240G1X59.749Y36.486
N28250G1X59.864Y36.697
N28260G1X60.017Y36.883
N28270G1X60.203Y37.036
N28280G1X60.414Y37.151
N28290G1X60.647Y37.223
N28300G1X60.900Y37.248
N28310G1X61.154Y37.223
N28320G1X61.386Y37.151
N28330G1X61.597Y37.036
N28340G1X61.783Y36.883
N28350G1X61.936Y36.697
N28360G1X62.051Y36.486
N28370G1X62.123Y36.254
N28380G1X62.148Y36.000
N28390G1X62.123Y35.746
N28400G1X62.051Y35.514
N28410G1X61.936Y35.303
N28420G1X61.783Y35.117
N28430G1X61.597Y34.964
N28440G1X61.386Y34.849
N28450G1X61.154Y34.777
N28460G1X60.900Y34.752
N28470G00Z5.080
N28480G00Y35.953
N28490G1Z-5.167F172.0
N28500G1X60.856Y35.982F200.0
N28510G1X60.871Y36.037
N28520G1X60.929Y36.037
N28530G1X60.946Y35.987
N28540G1X60.900Y35.953
N28550G1Y34.752
N28560G1X60.647Y34.777
N28570G1X60.414Y34.849
N28580G1X60.203Y34.964
N28590G1X60.017Y35.117
N28600G1X59.864Y35.303
N28610G1X59.749Y35.514
N28620G1X59.677Y35.746
N28630G1X59.652Y36.000
N28640G1X59.677Y36.254
N28650G1X59.749Y36.486
N28660G1X59.864Y36.697
N28670G1X60.017Y36.883
N28680G1X60.203Y37.036
N28690G1X60.414Y37.151
N28700G1X60.647Y37.223
N28710G1X60.900Y37.248
N28720G1X61.154Y37.223
N28730G1X61.386Y37.151
N28740G1X61.597Y37.036
N28750G1X61.783Y36.883
N28760G1X61.936Y36.697
N28770G1X62.051Y36.486
N28780G1X62.123Y36.254
N28790G1X62.148Y36.000
N28800G1X62.123Y35.746
N28810G1X62.051Y35.514
N28820G1X61.936Y35.303
N28830G1X61.783Y35.117
N28840G1X61.597Y34.964
N28850G1X61.386Y34.849
N28860G1X61.154Y34.777
N28870G1X60.900Y34.752
N28880G00Z5.080
N28890G00Y35.953
N28900G1Z-5.683F172.0
N28910G1X60.856Y35.982F200.0
N28920G1X60.871Y36.037
N28930G1X60.929Y36.037
N28940G1X60.946Y35.987
N28950G1X60.900Y35.953
N28960G1Y34.752
N28970G1X60.647Y34.777
N28980G1X60.414Y34.849
N28990G1X60.203Y34.964
N29000G1X60.017Y35.117
N29010G1X59.864Y35.303
N29020G1X59.749Y35.514
N29030G1X59.677Y35.746
N29040G1X59.652Y36.000
N29050G1X59.677Y36.254
N29060G1X59.749Y36.486
N29070G1X59.864Y36.697
N29080G1X60.017Y36.883
N29090G1X60.203Y37.036
N29100G1X60.414Y37.151
N29110G1X60.647Y37.223
N29120G1X60.900Y37.248
N29130G1X61.154Y37.223
N29140G1X61.386Y37.151
N29150G1X61.597Y37.036
N29160G1X61.783Y36.883
N29170G1X61.936Y36.697
N29180G1X62.051Y36.486
N29190G1X62.123Y36.254
N29200G1X62.148Y36.000
N29210G1X62.123Y35.746
N29220G1X62.051Y35.514
N29230G1X61.936Y35.303
N29240G1X61.783Y35.117
N29250G1X61.597Y34.964
N29260G1X61.386Y34.849
N29270G1X61.154Y34.777
N29280G1X60.900Y34.752
N29290G00Z5.080
N29300G00Y35.953
N29310G1Z-6.200F172.0
N29320G1X60.856Y35.982F200.0
N29330G1X60.871Y36.037
N29340G1X60.929Y36.037
N29350G1X60.946Y35.987
N29360G1X60.900Y35.953
N29370G1Y34.752
N29380G1X60.647Y34.777
N29390G1X60.414Y34.849
N29400G1X60.203Y34.964
N29410G1X60.017Y35.117
N29420G1X59.864Y35.303
N29430G1X59.749Y35.514
N29440G1X59.677Y35.746
N29450G1X59.652Y36.000
N29460G1X59.677Y36.254
N29470G1X59.749Y36.486
N29480G1X59.864Y36.697
N29490G1X60.017Y36.883
N29500G1X60.203Y37.036
N29510G1X60.414Y37.151
N29520G1X60.647Y37.223
N29530G1X60.900Y37.248
N29540G1X61.154Y37.223
N29550G1X61.386Y37.151
N29560G1X61.597Y37.036
N29570G1X61.783Y36.883
N29580G1X61.936Y36.697
N29590G1X62.051Y36.486
N29600G1X62.123Y36.254
N29610G1X62.148Y36.000
N29620G1X62.123Y35.746
N29630G1X62.051Y35.514
N29640G1X61.936Y35.303
N29650G1X61.783Y35.117
N29660G1X61.597Y34.964
N29670G1X61.386Y34.849
N29680G1X61.154Y34.777
N29690G1X60.900Y34.752
N29700G00Z5.080
N29710G00X101.078Y14.000
N29720G1Z-0.517F172.0
N29730G1X100.918Y14.020F200.0
N29740G1X100.781Y14.094
N29750G1X100.680Y14.216
N29760G1X100.634Y14.366
N29770G1X100.630Y22.552
N29780G1X100.640Y22.674
N29790G1X100.701Y22.817
N29800G1X100.813Y22.929
N29810G1X100.956Y22.990
N29820G1X102.452Y23.000
N29830G1X102.612Y22.980
N29840G1X102.749Y22.906
N29850G1X102.850Y22.784
N29860G1X102.896Y22.634
N29870G1X102.900Y14.448
N29880G1X102.890Y14.326
N29890G1X102.829Y14.183
N29900G1X102.717Y14.071
N29910G1X102.574Y14.010
N29920G1X101.078Y14.000
N29930G00Z5.080
N29940G1Z-1.033F172.0
N29950G1X100.918Y14.020F200.0
N29960G1X100.781Y14.094
N29970G1X100.680Y14.216
N29980G1X100.634Y14.366
N29990G1X100.630Y22.552
N30000G1X100.640Y22.674
N30010G1X100.701Y22.817
N30020G1X100.813Y22.929
N30030G1X100.956Y22.990
N30040G1X102.452Y23.000
N30050G1X102.612Y22.980
N30060G1X102.749Y22.906
N30070G1X102.850Y22.784
N30080G1X102.896Y22.634
N30090G1X102.900Y14.448
N30100G1X102.890Y14.326
N30110G1X102.829Y14.183
N30120G1X102.717Y14.071
N30130G1X102.574Y14.010
N30140G1X101.078Y14.000
N30150G00Z5.080
N30160G1Z-1.550F172.0
N30170G1X100.918Y14.020F200.0
N30180G1X100.781Y14.094
N30190G1X100.680Y14.216
N30200G1X100.634Y14.366
N30210G1X100.630Y22.552
N30220G1X100.640Y22.674
N30230G1X100.701Y22.817
N30240G1X100.813Y22.929
N30250G1X100.956Y22.990
N30260G1X102.452Y23.000
N30270G1X102.612Y22.980
N30280G1X102.749Y22.906
N30290G1X102.850Y22.784
N30300G1X102.896Y22.634
N30310G1X102.900Y14.448
N30320G1X102.890Y14.326
N30330G1X102.829Y14.183
N30340G1X102.717Y14.071
N30350G1X102.574Y14.010
N30360G1X101.078Y14.000
N30370G00Z5.080
N30380G1Z-2.067F172.0
N30390G1X100.918Y14.020F200.0
N30400G1X100.781Y14.094
N30410G1X100.680Y14.216
N30420G1X100.634Y14.366
N30430G1X100.630Y22.552
N30440G1X100.640Y22.674
N30450G1X100.701Y22.817
N30460G1X100.813Y22.929
N30470G1X100.956Y22.990
N30480G1X102.452Y23.000
N30490G1X102.612Y22.980
N30500G1X102.749Y22.906
N30510G1X102.850Y22.784
N30520G1X102.896Y22.634
N30530G1X102.900Y14.448
N30540G1X102.890Y14.326
N30550G1X102.829Y14.183
N30560G1X102.717Y14.071
N30570G1X102.574Y14.010
N30580G1X101.078Y14.000
N30590G00Z5.080
N30600G1Z-2.583F172.0
N30610G1X100.918Y14.020F200.0
N30620G1X100.781Y14.094
N30630G1X100.680Y14.216
N30640G1X100.634Y14.366
N30650G1X100.630Y22.552
N30660G1X100.640Y22.674
N30670G1X100.701Y22.817
N30680G1X100.813Y22.929
N30690G1X100.956Y22.990
N30700G1X102.452Y23.000
N30710G1X102.612Y22.980
N30720G1X102.749Y22.906
N30730G1X102.850Y22.784
N30740G1X102.896Y22.634
N30750G1X102.900Y14.448
N30760G1X102.890Y14.326
N30770G1X102.829Y14.183
N30780G1X102.717Y14.071
N30790G1X102.574Y14.010
N30800G1X101.078Y14.000
N30810G00Z5.080
N30820G1Z-3.100F172.0
N30830G1X100.918Y14.020F200.0
N30840G1X100.781Y14.094
N30850G1X100.680Y14.216
N30860G1X100.634Y14.366
N30870G1X100.630Y22.552
N30880G1X100.640Y22.674
N30890G1X100.701Y22.817
N30900G1X100.813Y22.929
N30910G1X100.956Y22.990
N30920G1X102.452Y23.000
N30930G1X102.612Y22.980
N30940G1X102.749Y22.906
N30950G1X102.850Y22.784
N30960G1X102.896Y22.634
N30970G1X102.900Y14.448
N30980G1X102.890Y14.326
N30990G1X102.829Y14.183
N31000G1X102.717Y14.071
N31010G1X102.574Y14.010
N31020G1X101.078Y14.000
N31030G00Z5.080
N31040G1Z-3.617F172.0
N31050G1X100.918Y14.020F200.0
N31060G1X100.781Y14.094
N31070G1X100.680Y14.216
N31080G1X100.634Y14.366
N31090G1X100.630Y22.552
N31100G1X100.640Y22.674
N31110G1X100.701Y22.817
N31120G1X100.813Y22.929
N31130G1X100.956Y22.990
N31140G1X102.452Y23.000
N31150G1X102.612Y22.980
N31160G1X102.749Y22.906
N31170G1X102.850Y22.784
N31180G1X102.896Y22.634
N31190G1X102.900Y14.448
N31200G1X102.890Y14.326
N31210G1X102.829Y14.183
N31220G1X102.717Y14.071
N31230G1X102.574Y14.010
N31240G1X101.078Y14.000
N31250G00Z5.080
N31260G1Z-4.133F172.0
N31270G1X100.918Y14.020F200.0
N31280G1X100.781Y14.094
N31290G1X100.680Y14.216
N31300G1X100.634Y14.366
N31310G1X100.630Y22.552
N31320G1X100.640Y22.674
N31330G1X100.701Y22.817
N31340G1X100.813Y22.929
N31350G1X100.956Y22.990
N31360G1X102.452Y23.000
N31370G1X102.612Y22.980
N31380G1X102.749Y22.906
N31390G1X102.850Y22.784
N31400G1X102.896Y22.634
N31410G1X102.900Y14.448
N31420G1X102.890Y14.326
N31430G1X102.829Y14.183
N31440G1X102.717Y14.071
N31450G1X102.574Y14.010
N31460G1X101.078Y14.000
N31470G00Z5.080
N31480G1Z-4.650F172.0
N31490G1X100.918Y14.020F200.0
N31500G1X100.781Y14.094
N31510G1X100.680Y14.216
N31520G1X100.634Y14.366
N31530G1X100.630Y22.552
N31540G1X100.640Y22.674
N31550G1X100.701Y22.817
N31560G1X100.813Y22.929
N31570G1X100.956Y22.990
N31580G1X102.452Y23.000
N31590G1X102.612Y22.980
N31600G1X102.749Y22.906
N31610G1X102.850Y22.784
N31620G1X102.896Y22.634
N31630G1X102.900Y14.448
N31640G1X102.890Y14.326
N31650G1X102.829Y14.183
N31660G1X102.717Y14.071
N31670G1X102.574Y14.010
N31680G1X101.078Y14.000
N31690G00Z5.080
N31700G1Z-5.167F172.0
N31710G1X100.918Y14.020F200.0
N31720G1X100.781Y14.094
N31730G1X100.680Y14.216
N31740G1X100.634Y14.366
N31750G1X100.630Y22.552
N31760G1X100.640Y22.674
N31770G1X100.701Y22.817
N31780G1X100.813Y22.929
N31790G1X100.956Y22.990
N31800G1X102.452Y23.000
N31810G1X102.612Y22.980
N31820G1X102.749Y22.906
N31830G1X102.850Y22.784
N31840G1X102.896Y22.634
N31850G1X102.900Y14.448
N31860G1X102.890Y14.326
N31870G1X102.829Y14.183
N31880G1X102.717Y14.071
N31890G1X102.574Y14.010
N31900G1X101.078Y14.000
N31910G00Z5.080
N31920G1Z-5.683F172.0
N31930G1X100.918Y14.020F200.0
N31940G1X100.781Y14.094
N31950G1X100.680Y14.216
N31960G1X100.634Y14.366
N31970G1X100.630Y22.552
N31980G1X100.640Y22.674
N31990G1X100.701Y22.817
N32000G1X100.813Y22.929
N32010G1X100.956Y22.990
N32020G1X102.452Y23.000
N32030G1X102.612Y22.980
N32040G1X102.749Y22.906
N32050G1X102.850Y22.784
N32060G1X102.896Y22.634
N32070G1X102.900Y14.448
N32080G1X102.890Y14.326
N32090G1X102.829Y14.183
N32100G1X102.717Y14.071
N32110G1X102.574Y14.010
N32120G1X101.078Y14.000
N32130G00Z5.080
N32140G1Z-6.200F172.0
N32150G1X100.918Y14.020F200.0
N32160G1X100.781Y14.094
N32170G1X100.680Y14.216
N32180G1X100.634Y14.366
N32190G1X100.630Y22.552
N32200G1X100.640Y22.674
N32210G1X100.701Y22.817
N32220G1X100.813Y22.929
N32230G1X100.956Y22.990
N32240G1X102.452Y23.000
N32250G1X102.612Y22.980
N32260G1X102.749Y22.906
N32270G1X102.850Y22.784
N32280G1X102.896Y22.634
N32290G1X102.900Y14.448
N32300G1X102.890Y14.326
N32310G1X102.829Y14.183
N32320G1X102.717Y14.071
N32330G1X102.574Y14.010
N32340G1X101.078Y14.000
N32350G00Z5.080
N32360G00X110.000Y18.453
N32370G1Z-0.517F172.0
N32380G1X109.956Y18.482F200.0
N32390G1X109.971Y18.537
N32400G1X110.029Y18.537
N32410G1X110.045Y18.487
N32420G1X110.000Y18.453
N32430G1Y17.252
N32440G1X109.746Y17.277
N32450G1X109.514Y17.349
N32460G1X109.303Y17.464
N32470G1X109.117Y17.617
N32480G1X108.964Y17.803
N32490G1X108.849Y18.014
N32500G1X108.777Y18.246
N32510G1X108.752Y18.500
N32520G1X108.777Y18.754
N32530G1X108.849Y18.986
N32540G1X108.964Y19.197
N32550G1X109.117Y19.383
N32560G1X109.303Y19.536
N32570G1X109.514Y19.651
N32580G1X109.746Y19.723
N32590G1X110.000Y19.748
N32600G1X110.254Y19.723
N32610G1X110.486Y19.651
N32620G1X110.697Y19.536
N32630G1X110.883Y19.383
N32640G1X111.036Y19.197
N32650G1X111.151Y18.986
N32660G1X111.223Y18.754
N32670G1X111.248Y18.500
N32680G1X111.223Y18.246
N32690G1X111.151Y18.014
N32700G1X111.036Y17.803
N32710G1X110.883Y17.617
N32720G1X110.697Y17.464
N32730G1X110.486Y17.349
N32740G1X110.254Y17.277
N32750G1X110.000Y17.252
N32760G00Z5.080
N32770G00Y18.453
N32780G1Z-1.033F172.0
N32790G1X109.956Y18.482F200.0
N32800G1X109.971Y18.537
N32810G1X110.029Y18.537
N32820G1X110.045Y18.487
N32830G1X110.000Y18.453
N32840G1Y17.252
N32850G1X109.746Y17.277
N32860G1X109.514Y17.349
N32870G1X109.303Y17.464
N32880G1X109.117Y17.617
N32890G1X108.964Y17.803
N32900G1X108.849Y18.014
N32910G1X108.777Y18.246
N32920G1X108.752Y18.500
N32930G1X108.777Y18.754
N32940G1X108.849Y18.986
N32950G1X108.964Y19.197
N32960G1X109.117Y19.383
N32970G1X109.303Y19.536
N32980G1X109.514Y19.651
N32990G1X109.746Y19.723
N33000G1X110.000Y19.748
N33010G1X110.254Y19.723
N33020G1X110.486Y19.651
N33030G1X110.697Y19.536
N33040G1X110.883Y19.383
N33050G1X111.036Y19.197
N33060G1X111.151Y18.986
N33070G1X111.223Y18.754
N33080G1X111.248Y18.500
N33090G1X111.223Y18.246
N33100G1X111.151Y18.014
N33110G1X111.036Y17.803
N33120G1X110.883Y17.617
N33130G1X110.697Y17.464
N33140G1X110.486Y17.349
N33150G1X110.254Y17.277
N33160G1X110.000Y17.252
N33170G00Z5.080
N33180G00Y18.453
N33190G1Z-1.550F172.0
N33200G1X109.956Y18.482F200.0
N33210G1X109.971Y18.537
N33220G1X110.029Y18.537
N33230G1X110.045Y18.487
N33240G1X110.000Y18.453
N33250G1Y17.252
N33260G1X109.746Y17.277
N33270G1X109.514Y17.349
N33280G1X109.303Y17.464
N33290G1X109.117Y17.617
N33300G1X108.964Y17.803
N33310G1X108.849Y18.014
N33320G1X108.777Y18.246
N33330G1X108.752Y18.500
N33340G1X108.777Y18.754
N33350G1X108.849Y18.986
N33360G1X108.964Y19.197
N33370G1X109.117Y19.383
N33380G1X109.303Y19.536
N33390G1X109.514Y19.651
N33400G1X109.746Y19.723
N33410G1X110.000Y19.748
N33420G1X110.254Y19.723
N33430G1X110.486Y19.651
N33440G1X110.697Y19.536
N33450G1X110.883Y19.383
N33460G1X111.036Y19.197
N33470G1X111.151Y18.986
N33480G1X111.223Y18.754
N33490G1X111.248Y18.500
N33500G1X111.223Y18.246
N33510G1X111.151Y18.014
N33520G1X111.036Y17.803
N33530G1X110.883Y17.617
N33540G1X110.697Y17.464
N33550G1X110.486Y17.349
N33560G1X110.254Y17.277
N33570G1X110.000Y17.252
N33580G00Z5.080
N33590G00Y18.453
N33600G1Z-2.067F172.0
N33610G1X109.956Y18.482F200.0
N33620G1X109.971Y18.537
N33630G1X110.029Y18.537
N33640G1X110.045Y18.487
N33650G1X110.000Y18.453
N33660G1Y17.252
N33670G1X109.746Y17.277
N33680G1X109.514Y17.349
N33690G1X109.303Y17.464
N33700G1X109.117Y17.617
N33710G1X108.964Y17.803
N33720G1X108.849Y18.014
N33730G1X108.777Y18.246
N33740G1X108.752Y18.500
N33750G1X108.777Y18.754
N33760G1X108.849Y18.986
N33770G1X108.964Y19.197
N33780G1X109.117Y19.383
N33790G1X109.303Y19.536
N33800G1X109.514Y19.651
N33810G1X109.746Y19.723
N33820G1X110.000Y19.748
N33830G1X110.254Y19.723
N33840G1X110.486Y19.651
N33850G1X110.697Y19.536
N33860G1X110.883Y19.383
N33870G1X111.036Y19.197
N33880G1X111.151Y18.986
N33890G1X111.223Y18.754
N33900G1X111.248Y18.500
N33910G1X111.223Y18.246
N33920G1X111.151Y18.014
N33930G1X111.036Y17.803
N33940G1X110.883Y17.617
N33950G1X110.697Y17.464
N33960G1X110.486Y17.349
N33970G1X110.254Y17.277
N33980G1X110.000Y17.252
N33990G00Z5.080
N34000G00Y18.453
N34010G1Z-2.583F172.0
N34020G1X109.956Y18.482F200.0
N34030G1X109.971Y18.537
N34040G1X110.029Y18.537
N34050G1X110.045Y18.487
N34060G1X110.000Y18.453
N34070G1Y17.252
N34080G1X109.746Y17.277
N34090G1X109.514Y17.349
N34100G1X109.303Y17.464
N34110G1X109.117Y17.617
N34120G1X108.964Y17.803
N34130G1X108.849Y18.014
N34140G1X108.777Y18.246
N34150G1X108.752Y18.500
N34160G1X108.777Y18.754
N34170G1X108.849Y18.986
N34180G1X108.964Y19.197
N34190G1X109.117Y19.383
N34200G1X109.303Y19.536
N34210G1X109.514Y19.651
N34220G1X109.746Y19.723
N34230G1X110.000Y19.748
N34240G1X110.254Y19.723
N34250G1X110.486Y19.651
N34260G1X110.697Y19.536
N34270G1X110.883Y19.383
N34280G1X111.036Y19.197
N34290G1X111.151Y18.986
N34300G1X111.223Y18.754
N34310G1X111.248Y18.500
N34320G1X111.223Y18.246
N34330G1X111.151Y18.014
N34340G1X111.036Y17.803
N34350G1X110.883Y17.617
N34360G1X110.697Y17.464
N34370G1X110.486Y17.349
N34380G1X110.254Y17.277
N34390G1X110.000Y17.252
N34400G00Z5.080
N34410G00Y18.453
N34420G1Z-3.100F172.0
N34430G1X109.956Y18.482F200.0
N34440G1X109.971Y18.537
N34450G1X110.029Y18.537
N34460G1X110.045Y18.487
N34470G1X110.000Y18.453
N34480G1Y17.252
N34490G1X109.746Y17.277
N34500G1X109.514Y17.349
N34510G1X109.303Y17.464
N34520G1X109.117Y17.617
N34530G1X108.964Y17.803
N34540G1X108.849Y18.014
N34550G1X108.777Y18.246
N34560G1X108.752Y18.500
N34570G1X108.777Y18.754
N34580G1X108.849Y18.986
N34590G1X108.964Y19.197
N34600G1X109.117Y19.383
N34610G1X109.303Y19.536
N34620G1X109.514Y19.651
N34630G1X109.746Y19.723
N34640G1X110.000Y19.748
N34650G1X110.254Y19.723
N34660G1X110.486Y19.651
N34670G1X110.697Y19.536
N34680G1X110.883Y19.383
N34690G1X111.036Y19.197
N34700G1X111.151Y18.986
N34710G1X111.223Y18.754
N34720G1X111.248Y18.500
N34730G1X111.223Y18.246
N34740G1X111.151Y18.014
N34750G1X111.036Y17.803
N34760G1X110.883Y17.617
N34770G1X110.697Y17.464
N34780G1X110.486Y17.349
N34790G1X110.254Y17.277
N34800G1X110.000Y17.252
N34810G00Z5.080
N34820G00Y18.453
N34830G1Z-3.617F172.0
N34840G1X109.956Y18.482F200.0
N34850G1X109.971Y18.537
N34860G1X110.029Y18.537
N34870G1X110.045Y18.487
N34880G1X110.000Y18.453
N34890G1Y17.252
N34900G1X109.746Y17.277
N34910G1X109.514Y17.349
N34920G1X109.303Y17.464
N34930G1X109.117Y17.617
N34940G1X108.964Y17.803
N34950G1X108.849Y18.014
N34960G1X108.777Y18.246
N34970G1X108.752Y18.500
N34980G1X108.777Y18.754
N34990G1X108.849Y18.986
N35000G1X108.964Y19.197
N35010G1X109.117Y19.383
N35020G1X109.303Y19.536
N35030G1X109.514Y19.651
N35040G1X109.746Y19.723
N35050G1X110.000Y19.748
N35060G1X110.254Y19.723
N35070G1X110.486Y19.651
N35080G1X110.697Y19.536
N35090G1X110.883Y19.383
N35100G1X111.036Y19.197
N35110G1X111.151Y18.986
N35120G1X111.223Y18.754
N35130G1X111.248Y18.500
N35140G1X111.223Y18.246
N35150G1X111.151Y18.014
N35160G1X111.036Y17.803
N35170G1X110.883Y17.617
N35180G1X110.697Y17.464
N35190G1X110.486Y17.349
N35200G1X110.254Y17.277
N35210G1X110.000Y17.252
N35220G00Z5.080
N35230G00Y18.453
N35240G1Z-4.133F172.0
N35250G1X109.956Y18.482F200.0
N35260G1X109.971Y18.537
N35270G1X110.029Y18.537
N35280G1X110.045Y18.487
N35290G1X110.000Y18.453
N35300G1Y17.252
N35310G1X109.746Y17.277
N35320G1X109.514Y17.349
N35330G1X109.303Y17.464
N35340G1X109.117Y17.617
N35350G1X108.964Y17.803
N35360G1X108.849Y18.014
N35370G1X108.777Y18.246
N35380G1X108.752Y18.500
N35390G1X108.777Y18.754
N35400G1X108.849Y18.986
N35410G1X108.964Y19.197
N35420G1X109.117Y19.383
N35430G1X109.303Y19.536
N35440G1X109.514Y19.651
N35450G1X109.746Y19.723
N35460G1X110.000Y19.748
N35470G1X110.254Y19.723
N35480G1X110.486Y19.651
N35490G1X110.697Y19.536
N35500G1X110.883Y19.383
N35510G1X111.036Y19.197
N35520G1X111.151Y18.986
N35530G1X111.223Y18.754
N35540G1X111.248Y18.500
N35550G1X111.223Y18.246
N35560G1X111.151Y18.014
N35570G1X111.036Y17.803
N35580G1X110.883Y17.617
N35590G1X110.697Y17.464
N35600G1X110.486Y17.349
N35610G1X110.254Y17.277
N35620G1X110.000Y17.252
N35630G00Z5.080
N35640G00Y18.453
N35650G1Z-4.650F172.0
N35660G1X109.956Y18.482F200.0
N35670G1X109.971Y18.537
N35680G1X110.029Y18.537
N35690G1X110.045Y18.487
N35700G1X110.000Y18.453
N35710G1Y17.252
N35720G1X109.746Y17.277
N35730G1X109.514Y17.349
N35740G1X109.303Y17.464
N35750G1X109.117Y17.617
N35760G1X108.964Y17.803
N35770G1X108.849Y18.014
N35780G1X108.777Y18.246
N35790G1X108.752Y18.500
N35800G1X108.777Y18.754
N35810G1X108.849Y18.986
N35820G1X108.964Y19.197
N35830G1X109.117Y19.383
N35840G1X109.303Y19.536
N35850G1X109.514Y19.651
N35860G1X109.746Y19.723
N35870G1X110.000Y19.748
N35880G1X110.254Y19.723
N35890G1X110.486Y19.651
N35900G1X110.697Y19.536
N35910G1X110.883Y19.383
N35920G1X111.036Y19.197
N35930G1X111.151Y18.986
N35940G1X111.223Y18.754
N35950G1X111.248Y18.500
N35960G1X111.223Y18.246
N35970G1X111.151Y18.014
N35980G1X111.036Y17.803
N35990G1X110.883Y17.617
N36000G1X110.697Y17.464
N36010G1X110.486Y17.349
N36020G1X110.254Y17.277
N36030G1X110.000Y17.252
N36040G00Z5.080
N36050G00Y18.453
N36060G1Z-5.167F172.0
N36070G1X109.956Y18.482F200.0
N36080G1X109.971Y18.537
N36090G1X110.029Y18.537
N36100G1X110.045Y18.487
N36110G1X110.000Y18.453
N36120G1Y17.252
N36130G1X109.746Y17.277
N36140G1X109.514Y17.349
N36150G1X109.303Y17.464
N36160G1X109.117Y17.617
N36170G1X108.964Y17.803
N36180G1X108.849Y18.014
N36190G1X108.777Y18.246
N36200G1X108.752Y18.500
N36210G1X108.777Y18.754
N36220G1X108.849Y18.986
N36230G1X108.964Y19.197
N36240G1X109.117Y19.383
N36250G1X109.303Y19.536
N36260G1X109.514Y19.651
N36270G1X109.746Y19.723
N36280G1X110.000Y19.748
N36290G1X110.254Y19.723
N36300G1X110.486Y19.651
N36310G1X110.697Y19.536
N36320G1X110.883Y19.383
N36330G1X111.036Y19.197
N36340G1X111.151Y18.986
N36350G1X111.223Y18.754
N36360G1X111.248Y18.500
N36370G1X111.223Y18.246
N36380G1X111.151Y18.014
N36390G1X111.036Y17.803
N36400G1X110.883Y17.617
N36410G1X110.697Y17.464
N36420G1X110.486Y17.349
N36430G1X110.254Y17.277
N36440G1X110.000Y17.252
N36450G00Z5.080
N36460G00Y18.453
N36470G1Z-5.683F172.0
N36480G1X109.956Y18.482F200.0
N36490G1X109.971Y18.537
N36500G1X110.029Y18.537
N36510G1X110.045Y18.487
N36520G1X110.000Y18.453
N36530G1Y17.252
N36540G1X109.746Y17.277
N36550G1X109.514Y17.349
N36560G1X109.303Y17.464
N36570G1X109.117Y17.617
N36580G1X108.964Y17.803
N36590G1X108.849Y18.014
N36600G1X108.777Y18.246
N36610G1X108.752Y18.500
N36620G1X108.777Y18.754
N36630G1X108.849Y18.986
N36640G1X108.964Y19.197
N36650G1X109.117Y19.383
N36660G1X109.303Y19.536
N36670G1X109.514Y19.651
N36680G1X109.746Y19.723
N36690G1X110.000Y19.748
N36700G1X110.254Y19.723
N36710G1X110.486Y19.651
N36720G1X110.697Y19.536
N36730G1X110.883Y19.383
N36740G1X111.036Y19.197
N36750G1X111.151Y18.986
N36760G1X111.223Y18.754
N36770G1X111.248Y18.500
N36780G1X111.223Y18.246
N36790G1X111.151Y18.014
N36800G1X111.036Y17.803
N36810G1X110.883Y17.617
N36820G1X110.697Y17.464
N36830G1X110.486Y17.349
N36840G1X110.254Y17.277
N36850G1X110.000Y17.252
N36860G00Z5.080
N36870G00Y18.453
N36880G1Z-6.200F172.0
N36890G1X109.956Y18.482F200.0
N36900G1X109.971Y18.537
N36910G1X110.029Y18.537
N36920G1X110.045Y18.487
N36930G1X110.000Y18.453
N36940G1Y17.252
N36950G1X109.746Y17.277
N36960G1X109.514Y17.349
N36970G1X109.303Y17.464
N36980G1X109.117Y17.617
N36990G1X108.964Y17.803
N37000G1X108.849Y18.014
N37010G1X108.777Y18.246
N37020G1X108.752Y18.500
N37030G1X108.777Y18.754
N37040G1X108.849Y18.986
N37050G1X108.964Y19.197
N37060G1X109.117Y19.383
N37070G1X109.303Y19.536
N37080G1X109.514Y19.651
N37090G1X109.746Y19.723
N37100G1X110.000Y19.748
N37110G1X110.254Y19.723
N37120G1X110.486Y19.651
N37130G1X110.697Y19.536
N37140G1X110.883Y19.383
N37150G1X111.036Y19.197
N37160G1X111.151Y18.986
N37170G1X111.223Y18.754
N37180G1X111.248Y18.500
N37190G1X111.223Y18.246
N37200G1X111.151Y18.014
N37210G1X111.036Y17.803
N37220G1X110.883Y17.617
N37230G1X110.697Y17.464
N37240G1X110.486Y17.349
N37250G1X110.254Y17.277
N37260G1X110.000Y17.252
N37270G00Z5.080
N37280G00X130.000Y18.453
N37290G1Z-0.517F172.0
N37300G1X129.956Y18.482F200.0
N37310G1X129.971Y18.537
N37320G1X130.029Y18.537
N37330G1X130.046Y18.487
N37340G1X130.000Y18.453
N37350G1Y17.252
N37360G1X129.746Y17.277
N37370G1X129.514Y17.349
N37380G1X129.303Y17.464
N37390G1X129.117Y17.617
N37400G1X128.964Y17.803
N37410G1X128.849Y18.014
N37420G1X128.777Y18.246
N37430G1X128.752Y18.500
N37440G1X128.777Y18.754
N37450G1X128.849Y18.986
N37460G1X128.964Y19.197
N37470G1X129.117Y19.383
N37480G1X129.303Y19.536
N37490G1X129.514Y19.651
N37500G1X129.747Y19.723
N37510G1X130.000Y19.748
N37520G1X130.254Y19.723
N37530G1X130.486Y19.651
N37540G1X130.697Y19.536
N37550G1X130.883Y19.383
N37560G1X131.036Y19.197
N37570G1X131.151Y18.986
N37580G1X131.223Y18.754
N37590G1X131.248Y18.500
N37600G1X131.223Y18.246
N37610G1X131.151Y18.014
N37620G1X131.036Y17.803
N37630G1X130.883Y17.617
N37640G1X130.697Y17.464
N37650G1X130.486Y17.349
N37660G1X130.254Y17.277
N37670G1X130.000Y17.252
N37680G00Z5.080
N37690G00Y18.453
N37700G1Z-1.033F172.0
N37710G1X129.956Y18.482F200.0
N37720G1X129.971Y18.537
N37730G1X130.029Y18.537
N37740G1X130.046Y18.487
N37750G1X130.000Y18.453
N37760G1Y17.252
N37770G1X129.746Y17.277
N37780G1X129.514Y17.349
N37790G1X129.303Y17.464
N37800G1X129.117Y17.617
N37810G1X128.964Y17.803
N37820G1X128.849Y18.014
N37830G1X128.777Y18.246
N37840G1X128.752Y18.500
N37850G1X128.777Y18.754
N37860G1X128.849Y18.986
N37870G1X128.964Y19.197
N37880G1X129.117Y19.383
N37890G1X129.303Y19.536
N37900G1X129.514Y19.651
N37910G1X129.747Y19.723
N37920G1X130.000Y19.748
N37930G1X130.254Y19.723
N37940G1X130.486Y19.651
N37950G1X130.697Y19.536
N37960G1X130.883Y19.383
N37970G1X131.036Y19.197
N37980G1X131.151Y18.986
N37990G1X131.223Y18.754
N38000G1X131.248Y18.500
N38010G1X131.223Y18.246
N38020G1X131.151Y18.014
N38030G1X131.036Y17.803
N38040G1X130.883Y17.617
N38050G1X130.697Y17.464
N38060G1X130.486Y17.349
N38070G1X130.254Y17.277
N38080G1X130.000Y17.252
N38090G00Z5.080
N38100G00Y18.453
N38110G1Z-1.550F172.0
N38120G1X129.956Y18.482F200.0
N38130G1X129.971Y18.537
N38140G1X130.029Y18.537
N38150G1X130.046Y18.487
N38160G1X130.000Y18.453
N38170G1Y17.252
N38180G1X129.746Y17.277
N38190G1X129.514Y17.349
N38200G1X129.303Y17.464
N38210G1X129.117Y17.617
N38220G1X128.964Y17.803
N38230G1X128.849Y18.014
N38240G1X128.777Y18.246
N38250G1X128.752Y18.500
N38260G1X128.777Y18.754
N38270G1X128.849Y18.986
N38280G1X128.964Y19.197
N38290G1X129.117Y19.383
N38300G1X129.303Y19.536
N38310G1X129.514Y19.651
N38320G1X129.747Y19.723
N38330G1X130.000Y19.748
N38340G1X130.254Y19.723
N38350G1X130.486Y19.651
N38360G1X130.697Y19.536
N38370G1X130.883Y19.383
N38380G1X131.036Y19.197
N38390G1X131.151Y18.986
N38400G1X131.223Y18.754
N38410G1X131.248Y18.500
N38420G1X131.223Y18.246
N38430G1X131.151Y18.014
N38440G1X131.036Y17.803
N38450G1X130.883Y17.617
N38460G1X130.697Y17.464
N38470G1X130.486Y17.349
N38480G1X130.254Y17.277
N38490G1X130.000Y17.252
N38500G00Z5.080
N38510G00Y18.453
N38520G1Z-2.067F172.0
N38530G1X129.956Y18.482F200.0
N38540G1X129.971Y18.537
N38550G1X130.029Y18.537
N38560G1X130.046Y18.487
N38570G1X130.000Y18.453
N38580G1Y17.252
N38590G1X129.746Y17.277
N38600G1X129.514Y17.349
N38610G1X129.303Y17.464
N38620G1X129.117Y17.617
N38630G1X128.964Y17.803
N38640G1X128.849Y18.014
N38650G1X128.777Y18.246
N38660G1X128.752Y18.500
N38670G1X128.777Y18.754
N38680G1X128.849Y18.986
N38690G1X128.964Y19.197
N38700G1X129.117Y19.383
N38710G1X129.303Y19.536
N38720G1X129.514Y19.651
N38730G1X129.747Y19.723
N38740G1X130.000Y19.748
N38750G1X130.254Y19.723
N38760G1X130.486Y19.651
N38770G1X130.697Y19.536
N38780G1X130.883Y19.383
N38790G1X131.036Y19.197
N38800G1X131.151Y18.986
N38810G1X131.223Y18.754
N38820G1X131.248Y18.500
N38830G1X131.223Y18.246
N38840G1X131.151Y18.014
N38850G1X131.036Y17.803
N38860G1X130.883Y17.617
N38870G1X130.697Y17.464
N38880G1X130.486Y17.349
N38890G1X130.254Y17.277
N38900G1X130.000Y17.252
N38910G00Z5.080
N38920G00Y18.453
N38930G1Z-2.583F172.0
N38940G1X129.956Y18.482F200.0
N38950G1X129.971Y18.537
N38960G1X130.029Y18.537
N38970G1X130.046Y18.487
N38980G1X130.000Y18.453
N38990G1Y17.252
N39000G1X129.746Y17.277
N39010G1X129.514Y17.349
N39020G1X129.303Y17.464
N39030G1X129.117Y17.617
N39040G1X128.964Y17.803
N39050G1X128.849Y18.014
N39060G1X128.777Y18.246
N39070G1X128.752Y18.500
N39080G1X128.777Y18.754
N39090G1X128.849Y18.986
N39100G1X128.964Y19.197
N39110G1X129.117Y19.383
N39120G1X129.303Y19.536
N39130G1X129.514Y19.651
N39140G1X129.747Y19.723
N39150G1X130.000Y19.748
N39160G1X130.254Y19.723
N39170G1X130.486Y19.651
N39180G1X130.697Y19.536
N39190G1X130.883Y19.383
N39200G1X131.036Y19.197
N39210G1X131.151Y18.986
N39220G1X131.223Y18.754
N39230G1X131.248Y18.500
N39240G1X131.223Y18.246
N39250G1X131.151Y18.014
N39260G1X131.036Y17.803
N39270G1X130.883Y17.617
N39280G1X130.697Y17.464
N39290G1X130.486Y17.349
N39300G1X130.254Y17.277
N39310G1X130.000Y17.252
N39320G00Z5.080
N39330G00Y18.453
N39340G1Z-3.100F172.0
N39350G1X129.956Y18.482F200.0
N39360G1X129.971Y18.537
N39370G1X130.029Y18.537
N39380G1X130.046Y18.487
N39390G1X130.000Y18.453
N39400G1Y17.252
N39410G1X129.746Y17.277
N39420G1X129.514Y17.349
N39430G1X129.303Y17.464
N39440G1X129.117Y17.617
N39450G1X128.964Y17.803
N39460G1X128.849Y18.014
N39470G1X128.777Y18.246
N39480G1X128.752Y18.500
N39490G1X128.777Y18.754
N39500G1X128.849Y18.986
N39510G1X128.964Y19.197
N39520G1X129.117Y19.383
N39530G1X129.303Y19.536
N39540G1X129.514Y19.651
N39550G1X129.747Y19.723
N39560G1X130.000Y19.748
N39570G1X130.254Y19.723
N39580G1X130.486Y19.651
N39590G1X130.697Y19.536
N39600G1X130.883Y19.383
N39610G1X131.036Y19.197
N39620G1X131.151Y18.986
N39630G1X131.223Y18.754
N39640G1X131.248Y18.500
N39650G1X131.223Y18.246
N39660G1X131.151Y18.014
N39670G1X131.036Y17.803
N39680G1X130.883Y17.617
N39690G1X130.697Y17.464
N39700G1X130.486Y17.349
N39710G1X130.254Y17.277
N39720G1X130.000Y17.252
N39730G00Z5.080
N39740G00Y18.453
N39750G1Z-3.617F172.0
N39760G1X129.956Y18.482F200.0
N39770G1X129.971Y18.537
N39780G1X130.029Y18.537
N39790G1X130.046Y18.487
N39800G1X130.000Y18.453
N39810G1Y17.252
N39820G1X129.746Y17.277
N39830G1X129.514Y17.349
N39840G1X129.303Y17.464
N39850G1X129.117Y17.617
N39860G1X128.964Y17.803
N39870G1X128.849Y18.014
N39880G1X128.777Y18.246
N39890G1X128.752Y18.500
N39900G1X128.777Y18.754
N39910G1X128.849Y18.986
N39920G1X128.964Y19.197
N39930G1X129.117Y19.383
N39940G1X129.303Y19.536
N39950G1X129.514Y19.651
N39960G1X129.747Y19.723
N39970G1X130.000Y19.748
N39980G1X130.254Y19.723
N39990G1X130.486Y19.651
N40000G1X130.697Y19.536
N40010G1X130.883Y19.383
N40020G1X131.036Y19.197
N40030G1X131.151Y18.986
N40040G1X131.223Y18.754
N40050G1X131.248Y18.500
N40060G1X131.223Y18.246
N40070G1X131.151Y18.014
N40080G1X131.036Y17.803
N40090G1X130.883Y17.617
N40100G1X130.697Y17.464
N40110G1X130.486Y17.349
N40120G1X130.254Y17.277
N40130G1X130.000Y17.252
N40140G00Z5.080
N40150G00Y18.453
N40160G1Z-4.133F172.0
N40170G1X129.956Y18.482F200.0
N40180G1X129.971Y18.537
N40190G1X130.029Y18.537
N40200G1X130.046Y18.487
N40210G1X130.000Y18.453
N40220G1Y17.252
N40230G1X129.746Y17.277
N40240G1X129.514Y17.349
N40250G1X129.303Y17.464
N40260G1X129.117Y17.617
N40270G1X128.964Y17.803
N40280G1X128.849Y18.014
N40290G1X128.777Y18.246
N40300G1X128.752Y18.500
N40310G1X128.777Y18.754
N40320G1X128.849Y18.986
N40330G1X128.964Y19.197
N40340G1X129.117Y19.383
N40350G1X129.303Y19.536
N40360G1X129.514Y19.651
N40370G1X129.747Y19.723
N40380G1X130.000Y19.748
N40390G1X130.254Y19.723
N40400G1X130.486Y19.651
N40410G1X130.697Y19.536
N40420G1X130.883Y19.383
N40430G1X131.036Y19.197
N40440G1X131.151Y18.986
N40450G1X131.223Y18.754
N40460G1X131.248Y18.500
N40470G1X131.223Y18.246
N40480G1X131.151Y18.014
N40490G1X131.036Y17.803
N40500G1X130.883Y17.617
N40510G1X130.697Y17.464
N40520G1X130.486Y17.349
N40530G1X130.254Y17.277
N40540G1X130.000Y17.252
N40550G00Z5.080
N40560G00Y18.453
N40570G1Z-4.650F172.0
N40580G1X129.956Y18.482F200.0
N40590G1X129.971Y18.537
N40600G1X130.029Y18.537
N40610G1X130.046Y18.487
N40620G1X130.000Y18.453
N40630G1Y17.252
N40640G1X129.746Y17.277
N40650G1X129.514Y17.349
N40660G1X129.303Y17.464
N40670G1X129.117Y17.617
N40680G1X128.964Y17.803
N40690G1X128.849Y18.014
N40700G1X128.777Y18.246
N40710G1X128.752Y18.500
N40720G1X128.777Y18.754
N40730G1X128.849Y18.986
N40740G1X128.964Y19.197
N40750G1X129.117Y19.383
N40760G1X129.303Y19.536
N40770G1X129.514Y19.651
N40780G1X129.747Y19.723
N40790G1X130.000Y19.748
N40800G1X130.254Y19.723
N40810G1X130.486Y19.651
N40820G1X130.697Y19.536
N40830G1X130.883Y19.383
N40840G1X131.036Y19.197
N40850G1X131.151Y18.986
N40860G1X131.223Y18.754
N40870G1X131.248Y18.500
N40880G1X131.223Y18.246
N40890G1X131.151Y18.014
N40900G1X131.036Y17.803
N40910G1X130.883Y17.617
N40920G1X130.697Y17.464
N40930G1X130.486Y17.349
N40940G1X130.254Y17.277
N40950G1X130.000Y17.252
N40960G00Z5.080
N40970G00Y18.453
N40980G1Z-5.167F172.0
N40990G1X129.956Y18.482F200.0
N41000G1X129.971Y18.537
N41010G1X130.029Y18.537
N41020G1X130.046Y18.487
N41030G1X130.000Y18.453
N41040G1Y17.252
N41050G1X129.746Y17.277
N41060G1X129.514Y17.349
N41070G1X129.303Y17.464
N41080G1X129.117Y17.617
N41090G1X128.964Y17.803
N41100G1X128.849Y18.014
N41110G1X128.777Y18.246
N41120G1X128.752Y18.500
N41130G1X128.777Y18.754
N41140G1X128.849Y18.986
N41150G1X128.964Y19.197
N41160G1X129.117Y19.383
N41170G1X129.303Y19.536
N41180G1X129.514Y19.651
N41190G1X129.747Y19.723
N41200G1X130.000Y19.748
N41210G1X130.254Y19.723
N41220G1X130.486Y19.651
N41230G1X130.697Y19.536
N41240G1X130.883Y19.383
N41250G1X131.036Y19.197
N41260G1X131.151Y18.986
N41270G1X131.223Y18.754
N41280G1X131.248Y18.500
N41290G1X131.223Y18.246
N41300G1X131.151Y18.014
N41310G1X131.036Y17.803
N41320G1X130.883Y17.617
N41330G1X130.697Y17.464
N41340G1X130.486Y17.349
N41350G1X130.254Y17.277
N41360G1X130.000Y17.252
N41370G00Z5.080
N41380G00Y18.453
N41390G1Z-5.683F172.0
N41400G1X129.956Y18.482F200.0
N41410G1X129.971Y18.537
N41420G1X130.029Y18.537
N41430G1X130.046Y18.487
N41440G1X130.000Y18.453
N41450G1Y17.252
N41460G1X129.746Y17.277
N41470G1X129.514Y17.349
N41480G1X129.303Y17.464
N41490G1X129.117Y17.617
N41500G1X128.964Y17.803
N41510G1X128.849Y18.014
N41520G1X128.777Y18.246
N41530G1X128.752Y18.500
N41540G1X128.777Y18.754
N41550G1X128.849Y18.986
N41560G1X128.964Y19.197
N41570G1X129.117Y19.383
N41580G1X129.303Y19.536
N41590G1X129.514Y19.651
N41600G1X129.747Y19.723
N41610G1X130.000Y19.748
N41620G1X130.254Y19.723
N41630G1X130.486Y19.651
N41640G1X130.697Y19.536
N41650G1X130.883Y19.383
N41660G1X131.036Y19.197
N41670G1X131.151Y18.986
N41680G1X131.223Y18.754
N41690G1X131.248Y18.500
N41700G1X131.223Y18.246
N41710G1X131.151Y18.014
N41720G1X131.036Y17.803
N41730G1X130.883Y17.617
N41740G1X130.697Y17.464
N41750G1X130.486Y17.349
N41760G1X130.254Y17.277
N41770G1X130.000Y17.252
N41780G00Z5.080
N41790G00Y18.453
N41800G1Z-6.200F172.0
N41810G1X129.956Y18.482F200.0
N41820G1X129.971Y18.537
N41830G1X130.029Y18.537
N41840G1X130.046Y18.487
N41850G1X130.000Y18.453
N41860G1Y17.252
N41870G1X129.746Y17.277
N41880G1X129.514Y17.349
N41890G1X129.303Y17.464
N41900G1X129.117Y17.617
N41910G1X128.964Y17.803
N41920G1X128.849Y18.014
N41930G1X128.777Y18.246
N41940G1X128.752Y18.500
N41950G1X128.777Y18.754
N41960G1X128.849Y18.986
N41970G1X128.964Y19.197
N41980G1X129.117Y19.383
N41990G1X129.303Y19.536
N42000G1X129.514Y19.651
N42010G1X129.747Y19.723
N42020G1X130.000Y19.748
N42030G1X130.254Y19.723
N42040G1X130.486Y19.651
N42050G1X130.697Y19.536
N42060G1X130.883Y19.383
N42070G1X131.036Y19.197
N42080G1X131.151Y18.986
N42090G1X131.223Y18.754
N42100G1X131.248Y18.500
N42110G1X131.223Y18.246
N42120G1X131.151Y18.014
N42130G1X131.036Y17.803
N42140G1X130.883Y17.617
N42150G1X130.697Y17.464
N42160G1X130.486Y17.349
N42170G1X130.254Y17.277
N42180G1X130.000Y17.252
N42190G00Z5.080
N42200G00X120.000Y18.195
N42210G1Z-0.517F172.0
N42220G1X119.882Y18.218F200.0
N42230G1X119.763Y18.307
N42240G1X119.702Y18.433
N42250G1X119.709Y18.593
N42260G1X119.784Y18.716
N42270G1X119.907Y18.791
N42280G1X120.067Y18.798
N42290G1X120.193Y18.737
N42300G1X120.282Y18.618
N42310G1X120.303Y18.463
N42320G1X120.255Y18.332
N42330G1X120.144Y18.230
N42340G1X120.000Y18.195
N42350G1Y16.995
N42360G1X119.693Y17.026
N42370G1X119.414Y17.112
N42380G1X119.160Y17.250
N42390G1X118.936Y17.436
N42400G1X118.750Y17.660
N42410G1X118.612Y17.914
N42420G1X118.526Y18.193
N42430G1X118.495Y18.500
N42440G1X118.526Y18.807
N42450G1X118.612Y19.086
N42460G1X118.750Y19.340
N42470G1X118.936Y19.564
N42480G1X119.160Y19.750
N42490G1X119.414Y19.888
N42500G1X119.693Y19.974
N42510G1X120.000Y20.005
N42520G1X120.307Y19.974
N42530G1X120.586Y19.888
N42540G1X120.840Y19.750
N42550G1X121.065Y19.564
N42560G1X121.250Y19.340
N42570G1X121.388Y19.086
N42580G1X121.474Y18.807
N42590G1X121.505Y18.500
N42600G1X121.474Y18.193
N42610G1X121.388Y17.914
N42620G1X121.250Y17.660
N42630G1X121.065Y17.435
N42640G1X120.840Y17.250
N42650G1X120.586Y17.112
N42660G1X120.307Y17.026
N42670G1X120.000Y16.995
N42680G1Y15.795
N42690G1X119.721Y15.809
N42700G1X119.453Y15.850
N42710G1X119.195Y15.916
N42720G1X118.947Y16.007
N42730G1X118.711Y16.120
N42740G1X118.488Y16.256
N42750G1X118.280Y16.412
N42760G1X118.087Y16.587
N42770G1X117.912Y16.780
N42780G1X117.756Y16.988
N42790G1X117.620Y17.211
N42800G1X117.507Y17.447
N42810G1X117.416Y17.695
N42820G1X117.350Y17.953
N42830G1X117.309Y18.221
N42840G1X117.295Y18.500
N42850G1X117.309Y18.779
N42860G1X117.350Y19.047
N42870G1X117.416Y19.305
N42880G1X117.507Y19.553
N42890G1X117.620Y19.789
N42900G1X117.756Y20.012
N42910G1X117.912Y20.220
N42920G1X118.087Y20.413
N42930G1X118.280Y20.588
N42940G1X118.488Y20.744
N42950G1X118.711Y20.880
N42960G1X118.947Y20.993
N42970G1X119.195Y21.084
N42980G1X119.453Y21.150
N42990G1X119.721Y21.191
N43000G1X120.000Y21.205
N43010G1X120.279Y21.191
N43020G1X120.547Y21.150
N43030G1X120.806Y21.084
N43040G1X121.053Y20.993
N43050G1X121.289Y20.880
N43060G1X121.512Y20.744
N43070G1X121.720Y20.588
N43080G1X121.913Y20.413
N43090G1X122.088Y20.220
N43100G1X122.244Y20.012
N43110G1X122.380Y19.789
N43120G1X122.493Y19.553
N43130G1X122.584Y19.305
N43140G1X122.650Y19.047
N43150G1X122.691Y18.779
N43160G1X122.705Y18.500
N43170G1X122.691Y18.221
N43180G1X122.650Y17.953
N43190G1X122.584Y17.695
N43200G1X122.493Y17.447
N43210G1X122.380Y17.211
N43220G1X122.244Y16.988
N43230G1X122.088Y16.780
N43240G1X121.913Y16.587
N43250G1X121.720Y16.412
N43260G1X121.512Y16.256
N43270G1X121.289Y16.120
N43280G1X121.053Y16.007
N43290G1X120.806Y15.916
N43300G1X120.547Y15.850
N43310G1X120.279Y15.809
N43320G1X120.000Y15.795
N43330G00Z5.080
N43340G00Y18.195
N43350G1Z-1.033F172.0
N43360G1X119.882Y18.218F200.0
N43370G1X119.763Y18.307
N43380G1X119.702Y18.433
N43390G1X119.709Y18.593
N43400G1X119.784Y18.716
N43410G1X119.907Y18.791
N43420G1X120.067Y18.798
N43430G1X120.193Y18.737
N43440G1X120.282Y18.618
N43450G1X120.303Y18.463
N43460G1X120.255Y18.332
N43470G1X120.144Y18.230
N43480G1X120.000Y18.195
N43490G1Y16.995
N43500G1X119.693Y17.026
N43510G1X119.414Y17.112
N43520G1X119.160Y17.250
N43530G1X118.936Y17.436
N43540G1X118.750Y17.660
N43550G1X118.612Y17.914
N43560G1X118.526Y18.193
N43570G1X118.495Y18.500
N43580G1X118.526Y18.807
N43590G1X118.612Y19.086
N43600G1X118.750Y19.340
N43610G1X118.936Y19.564
N43620G1X119.160Y19.750
N43630G1X119.414Y19.888
N43640G1X119.693Y19.974
N43650G1X120.000Y20.005
N43660G1X120.307Y19.974
N43670G1X120.586Y19.888
N43680G1X120.840Y19.750
N43690G1X121.065Y19.564
N43700G1X121.250Y19.340
N43710G1X121.388Y19.086
N43720G1X121.474Y18.807
N43730G1X121.505Y18.500
N43740G1X121.474Y18.193
N43750G1X121.388Y17.914
N43760G1X121.250Y17.660
N43770G1X121.065Y17.435
N43780G1X120.840Y17.250
N43790G1X120.586Y17.112
N43800G1X120.307Y17.026
N43810G1X120.000Y16.995
N43820G1Y15.795
N43830G1X119.721Y15.809
N43840G1X119.453Y15.850
N43850G1X119.195Y15.916
N43860G1X118.947Y16.007
N43870G1X118.711Y16.120
N43880G1X118.488Y16.256
N43890G1X118.280Y16.412
N43900G1X118.087Y16.587
N43910G1X117.912Y16.780
N43920G1X117.756Y16.988
N43930G1X117.620Y17.211
N43940G1X117.507Y17.447
N43950G1X117.416Y17.695
N43960G1X117.350Y17.953
N43970G1X117.309Y18.221
N43980G1X117.295Y18.500
N43990G1X117.309Y18.779
N44000G1X117.350Y19.047
N44010G1X117.416Y19.305
N44020G1X117.507Y19.553
N44030G1X117.620Y19.789
N44040G1X117.756Y20.012
N44050G1X117.912Y20.220
N44060G1X118.087Y20.413
N44070G1X118.280Y20.588
N44080G1X118.488Y20.744
N44090G1X118.711Y20.880
N44100G1X118.947Y20.993
N44110G1X119.195Y21.084
N44120G1X119.453Y21.150
N44130G1X119.721Y21.191
N44140G1X120.000Y21.205
N44150G1X120.279Y21.191
N44160G1X120.547Y21.150
N44170G1X120.806Y21.084
N44180G1X121.053Y20.993
