( Pocket 2 )
( File created: Friday May 28 2021 - 02:01 PM)
( USBCNC Postprocessor )
( Material Size)
( X= 46.000, Y= 140.000, Z= 6.000)
()
(Toolpaths used in this file:)
(Pocket 6)
(Tools used in this file: )
(1 = End Mill {3.175 mm})
N100G00G21G17G90G40G49
N110G80
N120 (End Mill {3.175 mm})
N130G00G43Z20.320H1
N140S12000M03
N150(Toolpath:- Pocket 6)
N160()
N170G94
N180X0.000Y0.000F300.0
N190G00X29.654Y46.008Z5.080
N200G1Z0.000F60.0
N210G1X29.879Y46.054Z-0.034
N220G1X30.121Z-0.070
N230G1X30.346Y46.008Z-0.104
N240G1X30.552Y45.921Z-0.137
N250G1X30.614Y45.880Z-0.148
N260G1X30.552Y45.921Z-0.159
N270G1X30.346Y46.008Z-0.192
N280G1X30.121Y46.054Z-0.226
N290G1X29.879Z-0.261
N300G1X29.654Y46.008Z-0.295
N310G1X29.879Y46.054F300.0
N320G1X30.121
N330G1X30.346Y46.008
N340G1X30.552Y45.921
N350G1X30.738Y45.796
N360G1X30.896Y45.638
N370G1X31.021Y45.452
N380G1X31.109Y45.246
N390G1X31.154Y45.021
N400G1Y44.779
N410G1X31.109Y44.554
N420G1X31.021Y44.348
N430G1X30.896Y44.162
N440G1X30.738Y44.004
N450G1X30.552Y43.879
N460G1X30.346Y43.792
N470G1X30.121Y43.746
N480G1X29.879
N490G1X29.654Y43.792
N500G1X29.448Y43.879
N510G1X29.262Y44.004
N520G1X29.104Y44.162
N530G1X28.979Y44.348
N540G1X28.892Y44.554
N550G1X28.846Y44.779
N560G1Y45.021
N570G1X28.892Y45.246
N580G1X28.979Y45.452
N590G1X29.104Y45.638
N600G1X29.262Y45.796
N610G1X29.448Y45.921
N620G1X29.654Y46.008
N630G00Z5.080
N640G1Z-0.295F60.0
N650G1X29.879Y46.054Z-0.329
N660G1X30.121Z-0.365
N670G1X30.346Y46.008Z-0.399
N680G1X30.552Y45.921Z-0.432
N690G1X30.614Y45.880Z-0.443
N700G1X30.552Y45.921Z-0.454
N710G1X30.346Y46.008Z-0.487
N720G1X30.121Y46.054Z-0.521
N730G1X29.879Z-0.557
N740G1X29.654Y46.008Z-0.590
N750G1X29.879Y46.054F300.0
N760G1X30.121
N770G1X30.346Y46.008
N780G1X30.552Y45.921
N790G1X30.738Y45.796
N800G1X30.896Y45.638
N810G1X31.021Y45.452
N820G1X31.109Y45.246
N830G1X31.154Y45.021
N840G1Y44.779
N850G1X31.109Y44.554
N860G1X31.021Y44.348
N870G1X30.896Y44.162
N880G1X30.738Y44.004
N890G1X30.552Y43.879
N900G1X30.346Y43.792
N910G1X30.121Y43.746
N920G1X29.879
N930G1X29.654Y43.792
N940G1X29.448Y43.879
N950G1X29.262Y44.004
N960G1X29.104Y44.162
N970G1X28.979Y44.348
N980G1X28.892Y44.554
N990G1X28.846Y44.779
N1000G1Y45.021
N1010G1X28.892Y45.246
N1020G1X28.979Y45.452
N1030G1X29.104Y45.638
N1040G1X29.262Y45.796
N1050G1X29.448Y45.921
N1060G1X29.654Y46.008
N1070G00Z5.080
N1080G1Z-0.590F60.0
N1090G1X29.879Y46.054Z-0.624
N1100G1X30.121Z-0.660
N1110G1X30.346Y46.008Z-0.694
N1120G1X30.552Y45.921Z-0.727
N1130G1X30.614Y45.880Z-0.738
N1140G1X30.552Y45.921Z-0.749
N1150G1X30.346Y46.008Z-0.782
N1160G1X30.121Y46.054Z-0.816
N1170G1X29.879Z-0.852
N1180G1X29.654Y46.008Z-0.886
N1190G1X29.879Y46.054F300.0
N1200G1X30.121
N1210G1X30.346Y46.008
N1220G1X30.552Y45.921
N1230G1X30.738Y45.796
N1240G1X30.896Y45.638
N1250G1X31.021Y45.452
N1260G1X31.109Y45.246
N1270G1X31.154Y45.021
N1280G1Y44.779
N1290G1X31.109Y44.554
N1300G1X31.021Y44.348
N1310G1X30.896Y44.162
N1320G1X30.738Y44.004
N1330G1X30.552Y43.879
N1340G1X30.346Y43.792
N1350G1X30.121Y43.746
N1360G1X29.879
N1370G1X29.654Y43.792
N1380G1X29.448Y43.879
N1390G1X29.262Y44.004
N1400G1X29.104Y44.162
N1410G1X28.979Y44.348
N1420G1X28.892Y44.554
N1430G1X28.846Y44.779
N1440G1Y45.021
N1450G1X28.892Y45.246
N1460G1X28.979Y45.452
N1470G1X29.104Y45.638
N1480G1X29.262Y45.796
N1490G1X29.448Y45.921
N1500G1X29.654Y46.008
N1510G00Z5.080
N1520G1Z-0.886F60.0
N1530G1X29.879Y46.054Z-0.920
N1540G1X30.121Z-0.955
N1550G1X30.346Y46.008Z-0.989
N1560G1X30.552Y45.921Z-1.022
N1570G1X30.614Y45.880Z-1.033
N1580G1X30.552Y45.921Z-1.044
N1590G1X30.346Y46.008Z-1.077
N1600G1X30.121Y46.054Z-1.111
N1610G1X29.879Z-1.147
N1620G1X29.654Y46.008Z-1.181
N1630G1X29.879Y46.054F300.0
N1640G1X30.121
N1650G1X30.346Y46.008
N1660G1X30.552Y45.921
N1670G1X30.738Y45.796
N1680G1X30.896Y45.638
N1690G1X31.021Y45.452
N1700G1X31.109Y45.246
N1710G1X31.154Y45.021
N1720G1Y44.779
N1730G1X31.109Y44.554
N1740G1X31.021Y44.348
N1750G1X30.896Y44.162
N1760G1X30.738Y44.004
N1770G1X30.552Y43.879
N1780G1X30.346Y43.792
N1790G1X30.121Y43.746
N1800G1X29.879
N1810G1X29.654Y43.792
N1820G1X29.448Y43.879
N1830G1X29.262Y44.004
N1840G1X29.104Y44.162
N1850G1X28.979Y44.348
N1860G1X28.892Y44.554
N1870G1X28.846Y44.779
N1880G1Y45.021
N1890G1X28.892Y45.246
N1900G1X28.979Y45.452
N1910G1X29.104Y45.638
N1920G1X29.262Y45.796
N1930G1X29.448Y45.921
N1940G1X29.654Y46.008
N1950G00Z5.080
N1960G1Z-1.181F60.0
N1970G1X29.879Y46.054Z-1.215
N1980G1X30.121Z-1.251
N1990G1X30.346Y46.008Z-1.285
N2000G1X30.552Y45.921Z-1.318
N2010G1X30.614Y45.880Z-1.329
N2020G1X30.552Y45.921Z-1.340
N2030G1X30.346Y46.008Z-1.373
N2040G1X30.121Y46.054Z-1.407
N2050G1X29.879Z-1.442
N2060G1X29.654Y46.008Z-1.476
N2070G1X29.879Y46.054F300.0
N2080G1X30.121
N2090G1X30.346Y46.008
N2100G1X30.552Y45.921
N2110G1X30.738Y45.796
N2120G1X30.896Y45.638
N2130G1X31.021Y45.452
N2140G1X31.109Y45.246
N2150G1X31.154Y45.021
N2160G1Y44.779
N2170G1X31.109Y44.554
N2180G1X31.021Y44.348
N2190G1X30.896Y44.162
N2200G1X30.738Y44.004
N2210G1X30.552Y43.879
N2220G1X30.346Y43.792
N2230G1X30.121Y43.746
N2240G1X29.879
N2250G1X29.654Y43.792
N2260G1X29.448Y43.879
N2270G1X29.262Y44.004
N2280G1X29.104Y44.162
N2290G1X28.979Y44.348
N2300G1X28.892Y44.554
N2310G1X28.846Y44.779
N2320G1Y45.021
N2330G1X28.892Y45.246
N2340G1X28.979Y45.452
N2350G1X29.104Y45.638
N2360G1X29.262Y45.796
N2370G1X29.448Y45.921
N2380G1X29.654Y46.008
N2390G00Z5.080
N2400G1Z-1.476F60.0
N2410G1X29.879Y46.054Z-1.510
N2420G1X30.121Z-1.546
N2430G1X30.346Y46.008Z-1.580
N2440G1X30.552Y45.921Z-1.613
N2450G1X30.614Y45.880Z-1.624
N2460G1X30.552Y45.921Z-1.635
N2470G1X30.346Y46.008Z-1.668
N2480G1X30.121Y46.054Z-1.702
N2490G1X29.879Z-1.738
N2500G1X29.654Y46.008Z-1.771
N2510G1X29.879Y46.054F300.0
N2520G1X30.121
N2530G1X30.346Y46.008
N2540G1X30.552Y45.921
N2550G1X30.738Y45.796
N2560G1X30.896Y45.638
N2570G1X31.021Y45.452
N2580G1X31.109Y45.246
N2590G1X31.154Y45.021
N2600G1Y44.779
N2610G1X31.109Y44.554
N2620G1X31.021Y44.348
N2630G1X30.896Y44.162
N2640G1X30.738Y44.004
N2650G1X30.552Y43.879
N2660G1X30.346Y43.792
N2670G1X30.121Y43.746
N2680G1X29.879
N2690G1X29.654Y43.792
N2700G1X29.448Y43.879
N2710G1X29.262Y44.004
N2720G1X29.104Y44.162
N2730G1X28.979Y44.348
N2740G1X28.892Y44.554
N2750G1X28.846Y44.779
N2760G1Y45.021
N2770G1X28.892Y45.246
N2780G1X28.979Y45.452
N2790G1X29.104Y45.638
N2800G1X29.262Y45.796
N2810G1X29.448Y45.921
N2820G1X29.654Y46.008
N2830G00Z5.080
N2840G1Z-1.771F60.0
N2850G1X29.879Y46.054Z-1.805
N2860G1X30.121Z-1.841
N2870G1X30.346Y46.008Z-1.875
N2880G1X30.552Y45.921Z-1.908
N2890G1X30.614Y45.880Z-1.919
N2900G1X30.552Y45.921Z-1.930
N2910G1X30.346Y46.008Z-1.963
N2920G1X30.121Y46.054Z-1.997
N2930G1X29.879Z-2.033
N2940G1X29.654Y46.008Z-2.067
N2950G1X29.879Y46.054F300.0
N2960G1X30.121
N2970G1X30.346Y46.008
N2980G1X30.552Y45.921
N2990G1X30.738Y45.796
N3000G1X30.896Y45.638
N3010G1X31.021Y45.452
N3020G1X31.109Y45.246
N3030G1X31.154Y45.021
N3040G1Y44.779
N3050G1X31.109Y44.554
N3060G1X31.021Y44.348
N3070G1X30.896Y44.162
N3080G1X30.738Y44.004
N3090G1X30.552Y43.879
N3100G1X30.346Y43.792
N3110G1X30.121Y43.746
N3120G1X29.879
N3130G1X29.654Y43.792
N3140G1X29.448Y43.879
N3150G1X29.262Y44.004
N3160G1X29.104Y44.162
N3170G1X28.979Y44.348
N3180G1X28.892Y44.554
N3190G1X28.846Y44.779
N3200G1Y45.021
N3210G1X28.892Y45.246
N3220G1X28.979Y45.452
N3230G1X29.104Y45.638
N3240G1X29.262Y45.796
N3250G1X29.448Y45.921
N3260G1X29.654Y46.008
N3270G00Z5.080
N3280G1Z-2.067F60.0
N3290G1X29.879Y46.054Z-2.101
N3300G1X30.121Z-2.136
N3310G1X30.346Y46.008Z-2.170
N3320G1X30.552Y45.921Z-2.203
N3330G1X30.614Y45.880Z-2.214
N3340G1X30.552Y45.921Z-2.225
N3350G1X30.346Y46.008Z-2.258
N3360G1X30.121Y46.054Z-2.292
N3370G1X29.879Z-2.328
N3380G1X29.654Y46.008Z-2.362
N3390G1X29.879Y46.054F300.0
N3400G1X30.121
N3410G1X30.346Y46.008
N3420G1X30.552Y45.921
N3430G1X30.738Y45.796
N3440G1X30.896Y45.638
N3450G1X31.021Y45.452
N3460G1X31.109Y45.246
N3470G1X31.154Y45.021
N3480G1Y44.779
N3490G1X31.109Y44.554
N3500G1X31.021Y44.348
N3510G1X30.896Y44.162
N3520G1X30.738Y44.004
N3530G1X30.552Y43.879
N3540G1X30.346Y43.792
N3550G1X30.121Y43.746
N3560G1X29.879
N3570G1X29.654Y43.792
N3580G1X29.448Y43.879
N3590G1X29.262Y44.004
N3600G1X29.104Y44.162
N3610G1X28.979Y44.348
N3620G1X28.892Y44.554
N3630G1X28.846Y44.779
N3640G1Y45.021
N3650G1X28.892Y45.246
N3660G1X28.979Y45.452
N3670G1X29.104Y45.638
N3680G1X29.262Y45.796
N3690G1X29.448Y45.921
N3700G1X29.654Y46.008
N3710G00Z5.080
N3720G1Z-2.362F60.0
N3730G1X29.879Y46.054Z-2.396
N3740G1X30.121Z-2.432
N3750G1X30.346Y46.008Z-2.465
N3760G1X30.552Y45.921Z-2.499
N3770G1X30.614Y45.880Z-2.510
N3780G1X30.552Y45.921Z-2.521
N3790G1X30.346Y46.008Z-2.554
N3800G1X30.121Y46.054Z-2.588
N3810G1X29.879Z-2.623
N3820G1X29.654Y46.008Z-2.657
N3830G1X29.879Y46.054F300.0
N3840G1X30.121
N3850G1X30.346Y46.008
N3860G1X30.552Y45.921
N3870G1X30.738Y45.796
N3880G1X30.896Y45.638
N3890G1X31.021Y45.452
N3900G1X31.109Y45.246
N3910G1X31.154Y45.021
N3920G1Y44.779
N3930G1X31.109Y44.554
N3940G1X31.021Y44.348
N3950G1X30.896Y44.162
N3960G1X30.738Y44.004
N3970G1X30.552Y43.879
N3980G1X30.346Y43.792
N3990G1X30.121Y43.746
N4000G1X29.879
N4010G1X29.654Y43.792
N4020G1X29.448Y43.879
N4030G1X29.262Y44.004
N4040G1X29.104Y44.162
N4050G1X28.979Y44.348
N4060G1X28.892Y44.554
N4070G1X28.846Y44.779
N4080G1Y45.021
N4090G1X28.892Y45.246
N4100G1X28.979Y45.452
N4110G1X29.104Y45.638
N4120G1X29.262Y45.796
N4130G1X29.448Y45.921
N4140G1X29.654Y46.008
N4150G00Z5.080
N4160G1Z-2.657F60.0
N4170G1X29.879Y46.054Z-2.691
N4180G1X30.121Z-2.727
N4190G1X30.346Y46.008Z-2.761
N4200G1X30.552Y45.921Z-2.794
N4210G1X30.614Y45.880Z-2.805
N4220G1X30.552Y45.921Z-2.816
N4230G1X30.346Y46.008Z-2.849
N4240G1X30.121Y46.054Z-2.883
N4250G1X29.879Z-2.918
N4260G1X29.654Y46.008Z-2.952
N4270G1X29.879Y46.054F300.0
N4280G1X30.121
N4290G1X30.346Y46.008
N4300G1X30.552Y45.921
N4310G1X30.738Y45.796
N4320G1X30.896Y45.638
N4330G1X31.021Y45.452
N4340G1X31.109Y45.246
N4350G1X31.154Y45.021
N4360G1Y44.779
N4370G1X31.109Y44.554
N4380G1X31.021Y44.348
N4390G1X30.896Y44.162
N4400G1X30.738Y44.004
N4410G1X30.552Y43.879
N4420G1X30.346Y43.792
N4430G1X30.121Y43.746
N4440G1X29.879
N4450G1X29.654Y43.792
N4460G1X29.448Y43.879
N4470G1X29.262Y44.004
N4480G1X29.104Y44.162
N4490G1X28.979Y44.348
N4500G1X28.892Y44.554
N4510G1X28.846Y44.779
N4520G1Y45.021
N4530G1X28.892Y45.246
N4540G1X28.979Y45.452
N4550G1X29.104Y45.638
N4560G1X29.262Y45.796
N4570G1X29.448Y45.921
N4580G1X29.654Y46.008
N4590G00Z5.080
N4600G1Z-2.952F60.0
N4610G1X29.879Y46.054Z-2.986
N4620G1X30.121Z-3.022
N4630G1X30.346Y46.008Z-3.056
N4640G1X30.552Y45.921Z-3.089
N4650G1X30.614Y45.880Z-3.100
N4660G1X30.552Y45.921Z-3.111
N4670G1X30.346Y46.008Z-3.144
N4680G1X30.121Y46.054Z-3.178
N4690G1X29.879Z-3.214
N4700G1X29.654Y46.008Z-3.248
N4710G1X29.879Y46.054F300.0
N4720G1X30.121
N4730G1X30.346Y46.008
N4740G1X30.552Y45.921
N4750G1X30.738Y45.796
N4760G1X30.896Y45.638
N4770G1X31.021Y45.452
N4780G1X31.109Y45.246
N4790G1X31.154Y45.021
N4800G1Y44.779
N4810G1X31.109Y44.554
N4820G1X31.021Y44.348
N4830G1X30.896Y44.162
N4840G1X30.738Y44.004
N4850G1X30.552Y43.879
N4860G1X30.346Y43.792
N4870G1X30.121Y43.746
N4880G1X29.879
N4890G1X29.654Y43.792
N4900G1X29.448Y43.879
N4910G1X29.262Y44.004
N4920G1X29.104Y44.162
N4930G1X28.979Y44.348
N4940G1X28.892Y44.554
N4950G1X28.846Y44.779
N4960G1Y45.021
N4970G1X28.892Y45.246
N4980G1X28.979Y45.452
N4990G1X29.104Y45.638
N5000G1X29.262Y45.796
N5010G1X29.448Y45.921
N5020G1X29.654Y46.008
N5030G00Z5.080
N5040G1Z-3.248F60.0
N5050G1X29.879Y46.054Z-3.282
N5060G1X30.121Z-3.317
N5070G1X30.346Y46.008Z-3.351
N5080G1X30.552Y45.921Z-3.384
N5090G1X30.614Y45.880Z-3.395
N5100G1X30.552Y45.921Z-3.406
N5110G1X30.346Y46.008Z-3.439
N5120G1X30.121Y46.054Z-3.473
N5130G1X29.879Z-3.509
N5140G1X29.654Y46.008Z-3.543
N5150G1X29.879Y46.054F300.0
N5160G1X30.121
N5170G1X30.346Y46.008
N5180G1X30.552Y45.921
N5190G1X30.738Y45.796
N5200G1X30.896Y45.638
N5210G1X31.021Y45.452
N5220G1X31.109Y45.246
N5230G1X31.154Y45.021
N5240G1Y44.779
N5250G1X31.109Y44.554
N5260G1X31.021Y44.348
N5270G1X30.896Y44.162
N5280G1X30.738Y44.004
N5290G1X30.552Y43.879
N5300G1X30.346Y43.792
N5310G1X30.121Y43.746
N5320G1X29.879
N5330G1X29.654Y43.792
N5340G1X29.448Y43.879
N5350G1X29.262Y44.004
N5360G1X29.104Y44.162
N5370G1X28.979Y44.348
N5380G1X28.892Y44.554
N5390G1X28.846Y44.779
N5400G1Y45.021
N5410G1X28.892Y45.246
N5420G1X28.979Y45.452
N5430G1X29.104Y45.638
N5440G1X29.262Y45.796
N5450G1X29.448Y45.921
N5460G1X29.654Y46.008
N5470G00Z5.080
N5480G1Z-3.543F60.0
N5490G1X29.879Y46.054Z-3.577
N5500G1X30.121Z-3.612
N5510G1X30.346Y46.008Z-3.646
N5520G1X30.552Y45.921Z-3.679
N5530G1X30.614Y45.880Z-3.690
N5540G1X30.552Y45.921Z-3.701
N5550G1X30.346Y46.008Z-3.735
N5560G1X30.121Y46.054Z-3.768
N5570G1X29.879Z-3.804
N5580G1X29.654Y46.008Z-3.838
N5590G1X29.879Y46.054F300.0
N5600G1X30.121
N5610G1X30.346Y46.008
N5620G1X30.552Y45.921
N5630G1X30.738Y45.796
N5640G1X30.896Y45.638
N5650G1X31.021Y45.452
N5660G1X31.109Y45.246
N5670G1X31.154Y45.021
N5680G1Y44.779
N5690G1X31.109Y44.554
N5700G1X31.021Y44.348
N5710G1X30.896Y44.162
N5720G1X30.738Y44.004
N5730G1X30.552Y43.879
N5740G1X30.346Y43.792
N5750G1X30.121Y43.746
N5760G1X29.879
N5770G1X29.654Y43.792
N5780G1X29.448Y43.879
N5790G1X29.262Y44.004
N5800G1X29.104Y44.162
N5810G1X28.979Y44.348
N5820G1X28.892Y44.554
N5830G1X28.846Y44.779
N5840G1Y45.021
N5850G1X28.892Y45.246
N5860G1X28.979Y45.452
N5870G1X29.104Y45.638
N5880G1X29.262Y45.796
N5890G1X29.448Y45.921
N5900G1X29.654Y46.008
N5910G00Z5.080
N5920G1Z-3.838F60.0
N5930G1X29.879Y46.054Z-3.872
N5940G1X30.121Z-3.908
N5950G1X30.346Y46.008Z-3.942
N5960G1X30.552Y45.921Z-3.975
N5970G1X30.614Y45.880Z-3.986
N5980G1X30.552Y45.921Z-3.997
N5990G1X30.346Y46.008Z-4.030
N6000G1X30.121Y46.054Z-4.064
N6010G1X29.879Z-4.099
N6020G1X29.654Y46.008Z-4.133
N6030G1X29.879Y46.054F300.0
N6040G1X30.121
N6050G1X30.346Y46.008
N6060G1X30.552Y45.921
N6070G1X30.738Y45.796
N6080G1X30.896Y45.638
N6090G1X31.021Y45.452
N6100G1X31.109Y45.246
N6110G1X31.154Y45.021
N6120G1Y44.779
N6130G1X31.109Y44.554
N6140G1X31.021Y44.348
N6150G1X30.896Y44.162
N6160G1X30.738Y44.004
N6170G1X30.552Y43.879
N6180G1X30.346Y43.792
N6190G1X30.121Y43.746
N6200G1X29.879
N6210G1X29.654Y43.792
N6220G1X29.448Y43.879
N6230G1X29.262Y44.004
N6240G1X29.104Y44.162
N6250G1X28.979Y44.348
N6260G1X28.892Y44.554
N6270G1X28.846Y44.779
N6280G1Y45.021
N6290G1X28.892Y45.246
N6300G1X28.979Y45.452
N6310G1X29.104Y45.638
N6320G1X29.262Y45.796
N6330G1X29.448Y45.921
N6340G1X29.654Y46.008
N6350G00Z5.080
N6360G1Z-4.133F60.0
N6370G1X29.879Y46.054Z-4.167
N6380G1X30.121Z-4.203
N6390G1X30.346Y46.008Z-4.237
N6400G1X30.552Y45.921Z-4.270
N6410G1X30.614Y45.880Z-4.281
N6420G1X30.552Y45.921Z-4.292
N6430G1X30.346Y46.008Z-4.325
N6440G1X30.121Y46.054Z-4.359
N6450G1X29.879Z-4.395
N6460G1X29.654Y46.008Z-4.429
N6470G1X29.879Y46.054F300.0
N6480G1X30.121
N6490G1X30.346Y46.008
N6500G1X30.552Y45.921
N6510G1X30.738Y45.796
N6520G1X30.896Y45.638
N6530G1X31.021Y45.452
N6540G1X31.109Y45.246
N6550G1X31.154Y45.021
N6560G1Y44.779
N6570G1X31.109Y44.554
N6580G1X31.021Y44.348
N6590G1X30.896Y44.162
N6600G1X30.738Y44.004
N6610G1X30.552Y43.879
N6620G1X30.346Y43.792
N6630G1X30.121Y43.746
N6640G1X29.879
N6650G1X29.654Y43.792
N6660G1X29.448Y43.879
N6670G1X29.262Y44.004
N6680G1X29.104Y44.162
N6690G1X28.979Y44.348
N6700G1X28.892Y44.554
N6710G1X28.846Y44.779
N6720G1Y45.021
N6730G1X28.892Y45.246
N6740G1X28.979Y45.452
N6750G1X29.104Y45.638
N6760G1X29.262Y45.796
N6770G1X29.448Y45.921
N6780G1X29.654Y46.008
N6790G00Z5.080
N6800G1Z-4.429F60.0
N6810G1X29.879Y46.054Z-4.462
N6820G1X30.121Z-4.498
N6830G1X30.346Y46.008Z-4.532
N6840G1X30.552Y45.921Z-4.565
N6850G1X30.614Y45.880Z-4.576
N6860G1X30.552Y45.921Z-4.587
N6870G1X30.346Y46.008Z-4.620
N6880G1X30.121Y46.054Z-4.654
N6890G1X29.879Z-4.690
N6900G1X29.654Y46.008Z-4.724
N6910G1X29.879Y46.054F300.0
N6920G1X30.121
N6930G1X30.346Y46.008
N6940G1X30.552Y45.921
N6950G1X30.738Y45.796
N6960G1X30.896Y45.638
N6970G1X31.021Y45.452
N6980G1X31.109Y45.246
N6990G1X31.154Y45.021
N7000G1Y44.779
N7010G1X31.109Y44.554
N7020G1X31.021Y44.348
N7030G1X30.896Y44.162
N7040G1X30.738Y44.004
N7050G1X30.552Y43.879
N7060G1X30.346Y43.792
N7070G1X30.121Y43.746
N7080G1X29.879
N7090G1X29.654Y43.792
N7100G1X29.448Y43.879
N7110G1X29.262Y44.004
N7120G1X29.104Y44.162
N7130G1X28.979Y44.348
N7140G1X28.892Y44.554
N7150G1X28.846Y44.779
N7160G1Y45.021
N7170G1X28.892Y45.246
N7180G1X28.979Y45.452
N7190G1X29.104Y45.638
N7200G1X29.262Y45.796
N7210G1X29.448Y45.921
N7220G1X29.654Y46.008
N7230G00Z5.080
N7240G1Z-4.724F60.0
N7250G1X29.879Y46.054Z-4.758
N7260G1X30.121Z-4.793
N7270G1X30.346Y46.008Z-4.827
N7280G1X30.552Y45.921Z-4.860
N7290G1X30.614Y45.880Z-4.871
N7300G1X30.552Y45.921Z-4.882
N7310G1X30.346Y46.008Z-4.915
N7320G1X30.121Y46.054Z-4.949
N7330G1X29.879Z-4.985
N7340G1X29.654Y46.008Z-5.019
N7350G1X29.879Y46.054F300.0
N7360G1X30.121
N7370G1X30.346Y46.008
N7380G1X30.552Y45.921
N7390G1X30.738Y45.796
N7400G1X30.896Y45.638
N7410G1X31.021Y45.452
N7420G1X31.109Y45.246
N7430G1X31.154Y45.021
N7440G1Y44.779
N7450G1X31.109Y44.554
N7460G1X31.021Y44.348
N7470G1X30.896Y44.162
N7480G1X30.738Y44.004
N7490G1X30.552Y43.879
N7500G1X30.346Y43.792
N7510G1X30.121Y43.746
N7520G1X29.879
N7530G1X29.654Y43.792
N7540G1X29.448Y43.879
N7550G1X29.262Y44.004
N7560G1X29.104Y44.162
N7570G1X28.979Y44.348
N7580G1X28.892Y44.554
N7590G1X28.846Y44.779
N7600G1Y45.021
N7610G1X28.892Y45.246
N7620G1X28.979Y45.452
N7630G1X29.104Y45.638
N7640G1X29.262Y45.796
N7650G1X29.448Y45.921
N7660G1X29.654Y46.008
N7670G00Z5.080
N7680G1Z-5.019F60.0
N7690G1X29.879Y46.054Z-5.053
N7700G1X30.121Z-5.089
N7710G1X30.346Y46.008Z-5.123
N7720G1X30.552Y45.921Z-5.156
N7730G1X30.614Y45.880Z-5.167
N7740G1X30.552Y45.921Z-5.178
N7750G1X30.346Y46.008Z-5.211
N7760G1X30.121Y46.054Z-5.245
N7770G1X29.879Z-5.280
N7780G1X29.654Y46.008Z-5.314
N7790G1X29.879Y46.054F300.0
N7800G1X30.121
N7810G1X30.346Y46.008
N7820G1X30.552Y45.921
N7830G1X30.738Y45.796
N7840G1X30.896Y45.638
N7850G1X31.021Y45.452
N7860G1X31.109Y45.246
N7870G1X31.154Y45.021
N7880G1Y44.779
N7890G1X31.109Y44.554
N7900G1X31.021Y44.348
N7910G1X30.896Y44.162
N7920G1X30.738Y44.004
N7930G1X30.552Y43.879
N7940G1X30.346Y43.792
N7950G1X30.121Y43.746
N7960G1X29.879
N7970G1X29.654Y43.792
N7980G1X29.448Y43.879
N7990G1X29.262Y44.004
N8000G1X29.104Y44.162
N8010G1X28.979Y44.348
N8020G1X28.892Y44.554
N8030G1X28.846Y44.779
N8040G1Y45.021
N8050G1X28.892Y45.246
N8060G1X28.979Y45.452
N8070G1X29.104Y45.638
N8080G1X29.262Y45.796
N8090G1X29.448Y45.921
N8100G1X29.654Y46.008
N8110G00Z5.080
N8120G1Z-5.314F60.0
N8130G1X29.879Y46.054Z-5.348
N8140G1X30.121Z-5.384
N8150G1X30.346Y46.008Z-5.418
N8160G1X30.552Y45.921Z-5.451
N8170G1X30.614Y45.880Z-5.462
N8180G1X30.552Y45.921Z-5.473
N8190G1X30.346Y46.008Z-5.506
N8200G1X30.121Y46.054Z-5.540
N8210G1X29.879Z-5.576
N8220G1X29.654Y46.008Z-5.610
N8230G1X29.879Y46.054F300.0
N8240G1X30.121
N8250G1X30.346Y46.008
N8260G1X30.552Y45.921
N8270G1X30.738Y45.796
N8280G1X30.896Y45.638
N8290G1X31.021Y45.452
N8300G1X31.109Y45.246
N8310G1X31.154Y45.021
N8320G1Y44.779
N8330G1X31.109Y44.554
N8340G1X31.021Y44.348
N8350G1X30.896Y44.162
N8360G1X30.738Y44.004
N8370G1X30.552Y43.879
N8380G1X30.346Y43.792
N8390G1X30.121Y43.746
N8400G1X29.879
N8410G1X29.654Y43.792
N8420G1X29.448Y43.879
N8430G1X29.262Y44.004
N8440G1X29.104Y44.162
N8450G1X28.979Y44.348
N8460G1X28.892Y44.554
N8470G1X28.846Y44.779
N8480G1Y45.021
N8490G1X28.892Y45.246
N8500G1X28.979Y45.452
N8510G1X29.104Y45.638
N8520G1X29.262Y45.796
N8530G1X29.448Y45.921
N8540G1X29.654Y46.008
N8550G00Z5.080
N8560G1Z-5.610F60.0
N8570G1X29.879Y46.054Z-5.643
N8580G1X30.121Z-5.679
N8590G1X30.346Y46.008Z-5.713
N8600G1X30.552Y45.921Z-5.746
N8610G1X30.614Y45.880Z-5.757
N8620G1X30.552Y45.921Z-5.768
N8630G1X30.346Y46.008Z-5.801
N8640G1X30.121Y46.054Z-5.835
N8650G1X29.879Z-5.871
N8660G1X29.654Y46.008Z-5.905
N8670G1X29.879Y46.054F300.0
N8680G1X30.121
N8690G1X30.346Y46.008
N8700G1X30.552Y45.921
N8710G1X30.738Y45.796
N8720G1X30.896Y45.638
N8730G1X31.021Y45.452
N8740G1X31.109Y45.246
N8750G1X31.154Y45.021
N8760G1Y44.779
N8770G1X31.109Y44.554
N8780G1X31.021Y44.348
N8790G1X30.896Y44.162
N8800G1X30.738Y44.004
N8810G1X30.552Y43.879
N8820G1X30.346Y43.792
N8830G1X30.121Y43.746
N8840G1X29.879
N8850G1X29.654Y43.792
N8860G1X29.448Y43.879
N8870G1X29.262Y44.004
N8880G1X29.104Y44.162
N8890G1X28.979Y44.348
N8900G1X28.892Y44.554
N8910G1X28.846Y44.779
N8920G1Y45.021
N8930G1X28.892Y45.246
N8940G1X28.979Y45.452
N8950G1X29.104Y45.638
N8960G1X29.262Y45.796
N8970G1X29.448Y45.921
N8980G1X29.654Y46.008
N8990G00Z5.080
N9000G1Z-5.905F60.0
N9010G1X29.879Y46.054Z-5.939
N9020G1X30.121Z-5.974
N9030G1X30.346Y46.008Z-6.008
N9040G1X30.552Y45.921Z-6.041
N9050G1X30.614Y45.880Z-6.052
N9060G1X30.552Y45.921Z-6.063
N9070G1X30.346Y46.008Z-6.096
N9080G1X30.121Y46.054Z-6.130
N9090G1X29.879Z-6.166
N9100G1X29.654Y46.008Z-6.200
N9110G1X29.879Y46.054F300.0
N9120G1X30.121
N9130G1X30.346Y46.008
N9140G1X30.552Y45.921
N9150G1X30.738Y45.796
N9160G1X30.896Y45.638
N9170G1X31.021Y45.452
N9180G1X31.109Y45.246
N9190G1X31.154Y45.021
N9200G1Y44.779
N9210G1X31.109Y44.554
N9220G1X31.021Y44.348
N9230G1X30.896Y44.162
N9240G1X30.738Y44.004
N9250G1X30.552Y43.879
N9260G1X30.346Y43.792
N9270G1X30.121Y43.746
N9280G1X29.879
N9290G1X29.654Y43.792
N9300G1X29.448Y43.879
N9310G1X29.262Y44.004
N9320G1X29.104Y44.162
N9330G1X28.979Y44.348
N9340G1X28.892Y44.554
N9350G1X28.846Y44.779
N9360G1Y45.021
N9370G1X28.892Y45.246
N9380G1X28.979Y45.452
N9390G1X29.104Y45.638
N9400G1X29.262Y45.796
N9410G1X29.448Y45.921
N9420G1X29.654Y46.008
N9430G00Z5.080
N9440G00X29.879Y62.054
N9450G1Z0.000F60.0
N9460G1X30.121Z-0.036
N9470G1X30.346Y62.009Z-0.070
N9480G1X30.552Y61.921Z-0.103
N9490G1X30.738Y61.796Z-0.136
N9500G1X30.795Y61.739Z-0.148
N9510G1X30.738Y61.796Z-0.160
N9520G1X30.552Y61.921Z-0.193
N9530G1X30.346Y62.009Z-0.226
N9540G1X30.121Y62.054Z-0.260
N9550G1X29.879Z-0.295
N9560G1X30.121F300.0
N9570G1X30.346Y62.009
N9580G1X30.552Y61.921
N9590G1X30.738Y61.796
N9600G1X30.896Y61.638
N9610G1X31.021Y61.452
N9620G1X31.109Y61.246
N9630G1X31.154Y61.021
N9640G1Y60.779
N9650G1X31.109Y60.554
N9660G1X31.021Y60.348
N9670G1X30.896Y60.162
N9680G1X30.738Y60.004
N9690G1X30.552Y59.879
N9700G1X30.346Y59.792
N9710G1X30.121Y59.746
N9720G1X29.879
N9730G1X29.654Y59.792
N9740G1X29.448Y59.879
N9750G1X29.262Y60.004
N9760G1X29.104Y60.162
N9770G1X28.979Y60.348
N9780G1X28.892Y60.554
N9790G1X28.846Y60.779
N9800G1Y61.021
N9810G1X28.892Y61.246
N9820G1X28.979Y61.452
N9830G1X29.104Y61.638
N9840G1X29.262Y61.796
N9850G1X29.448Y61.921
N9860G1X29.654Y62.009
N9870G1X29.879Y62.054
N9880G00Z5.080
N9890G1Z-0.295F60.0
N9900G1X30.121Z-0.331
N9910G1X30.346Y62.009Z-0.365
N9920G1X30.552Y61.921Z-0.398
N9930G1X30.738Y61.796Z-0.431
N9940G1X30.795Y61.739Z-0.443
N9950G1X30.738Y61.796Z-0.455
N9960G1X30.552Y61.921Z-0.488
N9970G1X30.346Y62.009Z-0.521
N9980G1X30.121Y62.054Z-0.555
N9990G1X29.879Z-0.590
N10000G1X30.121F300.0
N10010G1X30.346Y62.009
N10020G1X30.552Y61.921
N10030G1X30.738Y61.796
N10040G1X30.896Y61.638
N10050G1X31.021Y61.452
N10060G1X31.109Y61.246
N10070G1X31.154Y61.021
N10080G1Y60.779
N10090G1X31.109Y60.554
N10100G1X31.021Y60.348
N10110G1X30.896Y60.162
N10120G1X30.738Y60.004
N10130G1X30.552Y59.879
N10140G1X30.346Y59.792
N10150G1X30.121Y59.746
N10160G1X29.879
N10170G1X29.654Y59.792
N10180G1X29.448Y59.879
N10190G1X29.262Y60.004
N10200G1X29.104Y60.162
N10210G1X28.979Y60.348
N10220G1X28.892Y60.554
N10230G1X28.846Y60.779
N10240G1Y61.021
N10250G1X28.892Y61.246
N10260G1X28.979Y61.452
N10270G1X29.104Y61.638
N10280G1X29.262Y61.796
N10290G1X29.448Y61.921
N10300G1X29.654Y62.009
N10310G1X29.879Y62.054
N10320G00Z5.080
N10330G1Z-0.590F60.0
N10340G1X30.121Z-0.626
N10350G1X30.346Y62.009Z-0.660
N10360G1X30.552Y61.921Z-0.693
N10370G1X30.738Y61.796Z-0.726
N10380G1X30.795Y61.739Z-0.738
N10390G1X30.738Y61.796Z-0.750
N10400G1X30.552Y61.921Z-0.783
N10410G1X30.346Y62.009Z-0.816
N10420G1X30.121Y62.054Z-0.850
N10430G1X29.879Z-0.886
N10440G1X30.121F300.0
N10450G1X30.346Y62.009
N10460G1X30.552Y61.921
N10470G1X30.738Y61.796
N10480G1X30.896Y61.638
N10490G1X31.021Y61.452
N10500G1X31.109Y61.246
N10510G1X31.154Y61.021
N10520G1Y60.779
N10530G1X31.109Y60.554
N10540G1X31.021Y60.348
N10550G1X30.896Y60.162
N10560G1X30.738Y60.004
N10570G1X30.552Y59.879
N10580G1X30.346Y59.792
N10590G1X30.121Y59.746
N10600G1X29.879
N10610G1X29.654Y59.792
N10620G1X29.448Y59.879
N10630G1X29.262Y60.004
N10640G1X29.104Y60.162
N10650G1X28.979Y60.348
N10660G1X28.892Y60.554
N10670G1X28.846Y60.779
N10680G1Y61.021
N10690G1X28.892Y61.246
N10700G1X28.979Y61.452
N10710G1X29.104Y61.638
N10720G1X29.262Y61.796
N10730G1X29.448Y61.921
N10740G1X29.654Y62.009
N10750G1X29.879Y62.054
N10760G00Z5.080
N10770G1Z-0.886F60.0
N10780G1X30.121Z-0.921
N10790G1X30.346Y62.009Z-0.955
N10800G1X30.552Y61.921Z-0.988
N10810G1X30.738Y61.796Z-1.021
N10820G1X30.795Y61.739Z-1.033
N10830G1X30.738Y61.796Z-1.045
N10840G1X30.552Y61.921Z-1.078
N10850G1X30.346Y62.009Z-1.111
N10860G1X30.121Y62.054Z-1.145
N10870G1X29.879Z-1.181
N10880G1X30.121F300.0
N10890G1X30.346Y62.009
N10900G1X30.552Y61.921
N10910G1X30.738Y61.796
N10920G1X30.896Y61.638
N10930G1X31.021Y61.452
N10940G1X31.109Y61.246
N10950G1X31.154Y61.021
N10960G1Y60.779
N10970G1X31.109Y60.554
N10980G1X31.021Y60.348
N10990G1X30.896Y60.162
N11000G1X30.738Y60.004
N11010G1X30.552Y59.879
N11020G1X30.346Y59.792
N11030G1X30.121Y59.746
N11040G1X29.879
N11050G1X29.654Y59.792
N11060G1X29.448Y59.879
N11070G1X29.262Y60.004
N11080G1X29.104Y60.162
N11090G1X28.979Y60.348
N11100G1X28.892Y60.554
N11110G1X28.846Y60.779
N11120G1Y61.021
N11130G1X28.892Y61.246
N11140G1X28.979Y61.452
N11150G1X29.104Y61.638
N11160G1X29.262Y61.796
N11170G1X29.448Y61.921
N11180G1X29.654Y62.009
N11190G1X29.879Y62.054
N11200G00Z5.080
N11210G1Z-1.181F60.0
N11220G1X30.121Z-1.217
N11230G1X30.346Y62.009Z-1.251
N11240G1X30.552Y61.921Z-1.284
N11250G1X30.738Y61.796Z-1.317
N11260G1X30.795Y61.739Z-1.329
N11270G1X30.738Y61.796Z-1.340
N11280G1X30.552Y61.921Z-1.373
N11290G1X30.346Y62.009Z-1.407
N11300G1X30.121Y62.054Z-1.440
N11310G1X29.879Z-1.476
N11320G1X30.121F300.0
N11330G1X30.346Y62.009
N11340G1X30.552Y61.921
N11350G1X30.738Y61.796
N11360G1X30.896Y61.638
N11370G1X31.021Y61.452
N11380G1X31.109Y61.246
N11390G1X31.154Y61.021
N11400G1Y60.779
N11410G1X31.109Y60.554
N11420G1X31.021Y60.348
N11430G1X30.896Y60.162
N11440G1X30.738Y60.004
N11450G1X30.552Y59.879
N11460G1X30.346Y59.792
N11470G1X30.121Y59.746
N11480G1X29.879
N11490G1X29.654Y59.792
N11500G1X29.448Y59.879
N11510G1X29.262Y60.004
N11520G1X29.104Y60.162
N11530G1X28.979Y60.348
N11540G1X28.892Y60.554
N11550G1X28.846Y60.779
N11560G1Y61.021
N11570G1X28.892Y61.246
N11580G1X28.979Y61.452
N11590G1X29.104Y61.638
N11600G1X29.262Y61.796
N11610G1X29.448Y61.921
N11620G1X29.654Y62.009
N11630G1X29.879Y62.054
N11640G00Z5.080
N11650G1Z-1.476F60.0
N11660G1X30.121Z-1.512
N11670G1X30.346Y62.009Z-1.546
N11680G1X30.552Y61.921Z-1.579
N11690G1X30.738Y61.796Z-1.612
N11700G1X30.795Y61.739Z-1.624
N11710G1X30.738Y61.796Z-1.636
N11720G1X30.552Y61.921Z-1.669
N11730G1X30.346Y62.009Z-1.702
N11740G1X30.121Y62.054Z-1.736
N11750G1X29.879Z-1.771
N11760G1X30.121F300.0
N11770G1X30.346Y62.009
N11780G1X30.552Y61.921
N11790G1X30.738Y61.796
N11800G1X30.896Y61.638
N11810G1X31.021Y61.452
N11820G1X31.109Y61.246
N11830G1X31.154Y61.021
N11840G1Y60.779
N11850G1X31.109Y60.554
N11860G1X31.021Y60.348
N11870G1X30.896Y60.162
N11880G1X30.738Y60.004
N11890G1X30.552Y59.879
N11900G1X30.346Y59.792
N11910G1X30.121Y59.746
N11920G1X29.879
N11930G1X29.654Y59.792
N11940G1X29.448Y59.879
N11950G1X29.262Y60.004
N11960G1X29.104Y60.162
N11970G1X28.979Y60.348
N11980G1X28.892Y60.554
N11990G1X28.846Y60.779
N12000G1Y61.021
N12010G1X28.892Y61.246
N12020G1X28.979Y61.452
N12030G1X29.104Y61.638
N12040G1X29.262Y61.796
N12050G1X29.448Y61.921
N12060G1X29.654Y62.009
N12070G1X29.879Y62.054
N12080G00Z5.080
N12090G1Z-1.771F60.0
N12100G1X30.121Z-1.807
N12110G1X30.346Y62.009Z-1.841
N12120G1X30.552Y61.921Z-1.874
N12130G1X30.738Y61.796Z-1.907
N12140G1X30.795Y61.739Z-1.919
N12150G1X30.738Y61.796Z-1.931
N12160G1X30.552Y61.921Z-1.964
N12170G1X30.346Y62.009Z-1.997
N12180G1X30.121Y62.054Z-2.031
N12190G1X29.879Z-2.067
N12200G1X30.121F300.0
N12210G1X30.346Y62.009
N12220G1X30.552Y61.921
N12230G1X30.738Y61.796
N12240G1X30.896Y61.638
N12250G1X31.021Y61.452
N12260G1X31.109Y61.246
N12270G1X31.154Y61.021
N12280G1Y60.779
N12290G1X31.109Y60.554
N12300G1X31.021Y60.348
N12310G1X30.896Y60.162
N12320G1X30.738Y60.004
N12330G1X30.552Y59.879
N12340G1X30.346Y59.792
N12350G1X30.121Y59.746
N12360G1X29.879
N12370G1X29.654Y59.792
N12380G1X29.448Y59.879
N12390G1X29.262Y60.004
N12400G1X29.104Y60.162
N12410G1X28.979Y60.348
N12420G1X28.892Y60.554
N12430G1X28.846Y60.779
N12440G1Y61.021
N12450G1X28.892Y61.246
N12460G1X28.979Y61.452
N12470G1X29.104Y61.638
N12480G1X29.262Y61.796
N12490G1X29.448Y61.921
N12500G1X29.654Y62.009
N12510G1X29.879Y62.054
N12520G00Z5.080
N12530G1Z-2.067F60.0
N12540G1X30.121Z-2.102
N12550G1X30.346Y62.009Z-2.136
N12560G1X30.552Y61.921Z-2.169
N12570G1X30.738Y61.796Z-2.202
N12580G1X30.795Y61.739Z-2.214
N12590G1X30.738Y61.796Z-2.226
N12600G1X30.552Y61.921Z-2.259
N12610G1X30.346Y62.009Z-2.292
N12620G1X30.121Y62.054Z-2.326
N12630G1X29.879Z-2.362
N12640G1X30.121F300.0
N12650G1X30.346Y62.009
N12660G1X30.552Y61.921
N12670G1X30.738Y61.796
N12680G1X30.896Y61.638
N12690G1X31.021Y61.452
N12700G1X31.109Y61.246
N12710G1X31.154Y61.021
N12720G1Y60.779
N12730G1X31.109Y60.554
N12740G1X31.021Y60.348
N12750G1X30.896Y60.162
N12760G1X30.738Y60.004
N12770G1X30.552Y59.879
N12780G1X30.346Y59.792
N12790G1X30.121Y59.746
N12800G1X29.879
N12810G1X29.654Y59.792
N12820G1X29.448Y59.879
N12830G1X29.262Y60.004
N12840G1X29.104Y60.162
N12850G1X28.979Y60.348
N12860G1X28.892Y60.554
N12870G1X28.846Y60.779
N12880G1Y61.021
N12890G1X28.892Y61.246
N12900G1X28.979Y61.452
N12910G1X29.104Y61.638
N12920G1X29.262Y61.796
N12930G1X29.448Y61.921
N12940G1X29.654Y62.009
N12950G1X29.879Y62.054
N12960G00Z5.080
N12970G1Z-2.362F60.0
N12980G1X30.121Z-2.398
N12990G1X30.346Y62.009Z-2.432
N13000G1X30.552Y61.921Z-2.465
N13010G1X30.738Y61.796Z-2.498
N13020G1X30.795Y61.739Z-2.510
N13030G1X30.738Y61.796Z-2.521
N13040G1X30.552Y61.921Z-2.554
N13050G1X30.346Y62.009Z-2.588
N13060G1X30.121Y62.054Z-2.621
N13070G1X29.879Z-2.657
N13080G1X30.121F300.0
N13090G1X30.346Y62.009
N13100G1X30.552Y61.921
N13110G1X30.738Y61.796
N13120G1X30.896Y61.638
N13130G1X31.021Y61.452
N13140G1X31.109Y61.246
N13150G1X31.154Y61.021
N13160G1Y60.779
N13170G1X31.109Y60.554
N13180G1X31.021Y60.348
N13190G1X30.896Y60.162
N13200G1X30.738Y60.004
N13210G1X30.552Y59.879
N13220G1X30.346Y59.792
N13230G1X30.121Y59.746
N13240G1X29.879
N13250G1X29.654Y59.792
N13260G1X29.448Y59.879
N13270G1X29.262Y60.004
N13280G1X29.104Y60.162
N13290G1X28.979Y60.348
N13300G1X28.892Y60.554
N13310G1X28.846Y60.779
N13320G1Y61.021
N13330G1X28.892Y61.246
N13340G1X28.979Y61.452
N13350G1X29.104Y61.638
N13360G1X29.262Y61.796
N13370G1X29.448Y61.921
N13380G1X29.654Y62.009
N13390G1X29.879Y62.054
N13400G00Z5.080
N13410G1Z-2.657F60.0
N13420G1X30.121Z-2.693
N13430G1X30.346Y62.009Z-2.727
N13440G1X30.552Y61.921Z-2.760
N13450G1X30.738Y61.796Z-2.793
N13460G1X30.795Y61.739Z-2.805
N13470G1X30.738Y61.796Z-2.817
N13480G1X30.552Y61.921Z-2.850
N13490G1X30.346Y62.009Z-2.883
N13500G1X30.121Y62.054Z-2.917
N13510G1X29.879Z-2.952
N13520G1X30.121F300.0
N13530G1X30.346Y62.009
N13540G1X30.552Y61.921
N13550G1X30.738Y61.796
N13560G1X30.896Y61.638
N13570G1X31.021Y61.452
N13580G1X31.109Y61.246
N13590G1X31.154Y61.021
N13600G1Y60.779
N13610G1X31.109Y60.554
N13620G1X31.021Y60.348
N13630G1X30.896Y60.162
N13640G1X30.738Y60.004
N13650G1X30.552Y59.879
N13660G1X30.346Y59.792
N13670G1X30.121Y59.746
N13680G1X29.879
N13690G1X29.654Y59.792
N13700G1X29.448Y59.879
N13710G1X29.262Y60.004
N13720G1X29.104Y60.162
N13730G1X28.979Y60.348
N13740G1X28.892Y60.554
N13750G1X28.846Y60.779
N13760G1Y61.021
N13770G1X28.892Y61.246
N13780G1X28.979Y61.452
N13790G1X29.104Y61.638
N13800G1X29.262Y61.796
N13810G1X29.448Y61.921
N13820G1X29.654Y62.009
N13830G1X29.879Y62.054
N13840G00Z5.080
N13850G1Z-2.952F60.0
N13860G1X30.121Z-2.988
N13870G1X30.346Y62.009Z-3.022
N13880G1X30.552Y61.921Z-3.055
N13890G1X30.738Y61.796Z-3.088
N13900G1X30.795Y61.739Z-3.100
N13910G1X30.738Y61.796Z-3.112
N13920G1X30.552Y61.921Z-3.145
N13930G1X30.346Y62.009Z-3.178
N13940G1X30.121Y62.054Z-3.212
N13950G1X29.879Z-3.248
N13960G1X30.121F300.0
N13970G1X30.346Y62.009
N13980G1X30.552Y61.921
N13990G1X30.738Y61.796
N14000G1X30.896Y61.638
N14010G1X31.021Y61.452
N14020G1X31.109Y61.246
N14030G1X31.154Y61.021
N14040G1Y60.779
N14050G1X31.109Y60.554
N14060G1X31.021Y60.348
N14070G1X30.896Y60.162
N14080G1X30.738Y60.004
N14090G1X30.552Y59.879
N14100G1X30.346Y59.792
N14110G1X30.121Y59.746
N14120G1X29.879
N14130G1X29.654Y59.792
N14140G1X29.448Y59.879
N14150G1X29.262Y60.004
N14160G1X29.104Y60.162
N14170G1X28.979Y60.348
N14180G1X28.892Y60.554
N14190G1X28.846Y60.779
N14200G1Y61.021
N14210G1X28.892Y61.246
N14220G1X28.979Y61.452
N14230G1X29.104Y61.638
N14240G1X29.262Y61.796
N14250G1X29.448Y61.921
N14260G1X29.654Y62.009
N14270G1X29.879Y62.054
N14280G00Z5.080
N14290G1Z-3.248F60.0
N14300G1X30.121Z-3.283
N14310G1X30.346Y62.009Z-3.317
N14320G1X30.552Y61.921Z-3.350
N14330G1X30.738Y61.796Z-3.383
N14340G1X30.795Y61.739Z-3.395
N14350G1X30.738Y61.796Z-3.407
N14360G1X30.552Y61.921Z-3.440
N14370G1X30.346Y62.009Z-3.473
N14380G1X30.121Y62.054Z-3.507
N14390G1X29.879Z-3.543
N14400G1X30.121F300.0
N14410G1X30.346Y62.009
N14420G1X30.552Y61.921
N14430G1X30.738Y61.796
N14440G1X30.896Y61.638
N14450G1X31.021Y61.452
N14460G1X31.109Y61.246
N14470G1X31.154Y61.021
N14480G1Y60.779
N14490G1X31.109Y60.554
N14500G1X31.021Y60.348
N14510G1X30.896Y60.162
N14520G1X30.738Y60.004
N14530G1X30.552Y59.879
N14540G1X30.346Y59.792
N14550G1X30.121Y59.746
N14560G1X29.879
N14570G1X29.654Y59.792
N14580G1X29.448Y59.879
N14590G1X29.262Y60.004
N14600G1X29.104Y60.162
N14610G1X28.979Y60.348
N14620G1X28.892Y60.554
N14630G1X28.846Y60.779
N14640G1Y61.021
N14650G1X28.892Y61.246
N14660G1X28.979Y61.452
N14670G1X29.104Y61.638
N14680G1X29.262Y61.796
N14690G1X29.448Y61.921
N14700G1X29.654Y62.009
N14710G1X29.879Y62.054
N14720G00Z5.080
N14730G1Z-3.543F60.0
N14740G1X30.121Z-3.579
N14750G1X30.346Y62.009Z-3.612
N14760G1X30.552Y61.921Z-3.646
N14770G1X30.738Y61.796Z-3.679
N14780G1X30.795Y61.739Z-3.690
N14790G1X30.738Y61.796Z-3.702
N14800G1X30.552Y61.921Z-3.735
N14810G1X30.346Y62.009Z-3.768
N14820G1X30.121Y62.054Z-3.802
N14830G1X29.879Z-3.838
N14840G1X30.121F300.0
N14850G1X30.346Y62.009
N14860G1X30.552Y61.921
N14870G1X30.738Y61.796
N14880G1X30.896Y61.638
N14890G1X31.021Y61.452
N14900G1X31.109Y61.246
N14910G1X31.154Y61.021
N14920G1Y60.779
N14930G1X31.109Y60.554
N14940G1X31.021Y60.348
N14950G1X30.896Y60.162
N14960G1X30.738Y60.004
N14970G1X30.552Y59.879
N14980G1X30.346Y59.792
N14990G1X30.121Y59.746
N15000G1X29.879
N15010G1X29.654Y59.792
N15020G1X29.448Y59.879
N15030G1X29.262Y60.004
N15040G1X29.104Y60.162
N15050G1X28.979Y60.348
N15060G1X28.892Y60.554
N15070G1X28.846Y60.779
N15080G1Y61.021
N15090G1X28.892Y61.246
N15100G1X28.979Y61.452
N15110G1X29.104Y61.638
N15120G1X29.262Y61.796
N15130G1X29.448Y61.921
N15140G1X29.654Y62.009
N15150G1X29.879Y62.054
N15160G00Z5.080
N15170G1Z-3.838F60.0
N15180G1X30.121Z-3.874
N15190G1X30.346Y62.009Z-3.908
N15200G1X30.552Y61.921Z-3.941
N15210G1X30.738Y61.796Z-3.974
N15220G1X30.795Y61.739Z-3.986
N15230G1X30.738Y61.796Z-3.998
N15240G1X30.552Y61.921Z-4.031
N15250G1X30.346Y62.009Z-4.064
N15260G1X30.121Y62.054Z-4.098
N15270G1X29.879Z-4.133
N15280G1X30.121F300.0
N15290G1X30.346Y62.009
N15300G1X30.552Y61.921
N15310G1X30.738Y61.796
N15320G1X30.896Y61.638
N15330G1X31.021Y61.452
N15340G1X31.109Y61.246
N15350G1X31.154Y61.021
N15360G1Y60.779
N15370G1X31.109Y60.554
N15380G1X31.021Y60.348
N15390G1X30.896Y60.162
N15400G1X30.738Y60.004
N15410G1X30.552Y59.879
N15420G1X30.346Y59.792
N15430G1X30.121Y59.746
N15440G1X29.879
N15450G1X29.654Y59.792
N15460G1X29.448Y59.879
N15470G1X29.262Y60.004
N15480G1X29.104Y60.162
N15490G1X28.979Y60.348
N15500G1X28.892Y60.554
N15510G1X28.846Y60.779
N15520G1Y61.021
N15530G1X28.892Y61.246
N15540G1X28.979Y61.452
N15550G1X29.104Y61.638
N15560G1X29.262Y61.796
N15570G1X29.448Y61.921
N15580G1X29.654Y62.009
N15590G1X29.879Y62.054
N15600G00Z5.080
N15610G1Z-4.133F60.0
N15620G1X30.121Z-4.169
N15630G1X30.346Y62.009Z-4.203
N15640G1X30.552Y61.921Z-4.236
N15650G1X30.738Y61.796Z-4.269
N15660G1X30.795Y61.739Z-4.281
N15670G1X30.738Y61.796Z-4.293
N15680G1X30.552Y61.921Z-4.326
N15690G1X30.346Y62.009Z-4.359
N15700G1X30.121Y62.054Z-4.393
N15710G1X29.879Z-4.429
N15720G1X30.121F300.0
N15730G1X30.346Y62.009
N15740G1X30.552Y61.921
N15750G1X30.738Y61.796
N15760G1X30.896Y61.638
N15770G1X31.021Y61.452
N15780G1X31.109Y61.246
N15790G1X31.154Y61.021
N15800G1Y60.779
N15810G1X31.109Y60.554
N15820G1X31.021Y60.348
N15830G1X30.896Y60.162
N15840G1X30.738Y60.004
N15850G1X30.552Y59.879
N15860G1X30.346Y59.792
N15870G1X30.121Y59.746
N15880G1X29.879
N15890G1X29.654Y59.792
N15900G1X29.448Y59.879
N15910G1X29.262Y60.004
N15920G1X29.104Y60.162
N15930G1X28.979Y60.348
N15940G1X28.892Y60.554
N15950G1X28.846Y60.779
N15960G1Y61.021
N15970G1X28.892Y61.246
N15980G1X28.979Y61.452
N15990G1X29.104Y61.638
N16000G1X29.262Y61.796
N16010G1X29.448Y61.921
N16020G1X29.654Y62.009
N16030G1X29.879Y62.054
N16040G00Z5.080
N16050G1Z-4.429F60.0
N16060G1X30.121Z-4.464
N16070G1X30.346Y62.009Z-4.498
N16080G1X30.552Y61.921Z-4.531
N16090G1X30.738Y61.796Z-4.564
N16100G1X30.795Y61.739Z-4.576
N16110G1X30.738Y61.796Z-4.588
N16120G1X30.552Y61.921Z-4.621
N16130G1X30.346Y62.009Z-4.654
N16140G1X30.121Y62.054Z-4.688
N16150G1X29.879Z-4.724
N16160G1X30.121F300.0
N16170G1X30.346Y62.009
N16180G1X30.552Y61.921
N16190G1X30.738Y61.796
N16200G1X30.896Y61.638
N16210G1X31.021Y61.452
N16220G1X31.109Y61.246
N16230G1X31.154Y61.021
N16240G1Y60.779
N16250G1X31.109Y60.554
N16260G1X31.021Y60.348
N16270G1X30.896Y60.162
N16280G1X30.738Y60.004
N16290G1X30.552Y59.879
N16300G1X30.346Y59.792
N16310G1X30.121Y59.746
N16320G1X29.879
N16330G1X29.654Y59.792
N16340G1X29.448Y59.879
N16350G1X29.262Y60.004
N16360G1X29.104Y60.162
N16370G1X28.979Y60.348
N16380G1X28.892Y60.554
N16390G1X28.846Y60.779
N16400G1Y61.021
N16410G1X28.892Y61.246
N16420G1X28.979Y61.452
N16430G1X29.104Y61.638
N16440G1X29.262Y61.796
N16450G1X29.448Y61.921
N16460G1X29.654Y62.009
N16470G1X29.879Y62.054
N16480G00Z5.080
N16490G1Z-4.724F60.0
N16500G1X30.121Z-4.760
N16510G1X30.346Y62.009Z-4.793
N16520G1X30.552Y61.921Z-4.827
N16530G1X30.738Y61.796Z-4.860
N16540G1X30.795Y61.739Z-4.871
N16550G1X30.738Y61.796Z-4.883
N16560G1X30.552Y61.921Z-4.916
N16570G1X30.346Y62.009Z-4.949
N16580G1X30.121Y62.054Z-4.983
N16590G1X29.879Z-5.019
N16600G1X30.121F300.0
N16610G1X30.346Y62.009
N16620G1X30.552Y61.921
N16630G1X30.738Y61.796
N16640G1X30.896Y61.638
N16650G1X31.021Y61.452
N16660G1X31.109Y61.246
N16670G1X31.154Y61.021
N16680G1Y60.779
N16690G1X31.109Y60.554
N16700G1X31.021Y60.348
N16710G1X30.896Y60.162
N16720G1X30.738Y60.004
N16730G1X30.552Y59.879
N16740G1X30.346Y59.792
N16750G1X30.121Y59.746
N16760G1X29.879
N16770G1X29.654Y59.792
N16780G1X29.448Y59.879
N16790G1X29.262Y60.004
N16800G1X29.104Y60.162
N16810G1X28.979Y60.348
N16820G1X28.892Y60.554
N16830G1X28.846Y60.779
N16840G1Y61.021
N16850G1X28.892Y61.246
N16860G1X28.979Y61.452
N16870G1X29.104Y61.638
N16880G1X29.262Y61.796
N16890G1X29.448Y61.921
N16900G1X29.654Y62.009
N16910G1X29.879Y62.054
N16920G00Z5.080
N16930G1Z-5.019F60.0
N16940G1X30.121Z-5.055
N16950G1X30.346Y62.009Z-5.089
N16960G1X30.552Y61.921Z-5.122
N16970G1X30.738Y61.796Z-5.155
N16980G1X30.795Y61.739Z-5.167
N16990G1X30.738Y61.796Z-5.179
N17000G1X30.552Y61.921Z-5.212
N17010G1X30.346Y62.009Z-5.245
N17020G1X30.121Y62.054Z-5.279
N17030G1X29.879Z-5.314
N17040G1X30.121F300.0
N17050G1X30.346Y62.009
N17060G1X30.552Y61.921
N17070G1X30.738Y61.796
N17080G1X30.896Y61.638
N17090G1X31.021Y61.452
N17100G1X31.109Y61.246
N17110G1X31.154Y61.021
N17120G1Y60.779
N17130G1X31.109Y60.554
N17140G1X31.021Y60.348
N17150G1X30.896Y60.162
N17160G1X30.738Y60.004
N17170G1X30.552Y59.879
N17180G1X30.346Y59.792
N17190G1X30.121Y59.746
N17200G1X29.879
N17210G1X29.654Y59.792
N17220G1X29.448Y59.879
N17230G1X29.262Y60.004
N17240G1X29.104Y60.162
N17250G1X28.979Y60.348
N17260G1X28.892Y60.554
N17270G1X28.846Y60.779
N17280G1Y61.021
N17290G1X28.892Y61.246
N17300G1X28.979Y61.452
N17310G1X29.104Y61.638
N17320G1X29.262Y61.796
N17330G1X29.448Y61.921
N17340G1X29.654Y62.009
N17350G1X29.879Y62.054
N17360G00Z5.080
N17370G1Z-5.314F60.0
N17380G1X30.121Z-5.350
N17390G1X30.346Y62.009Z-5.384
N17400G1X30.552Y61.921Z-5.417
N17410G1X30.738Y61.796Z-5.450
N17420G1X30.795Y61.739Z-5.462
N17430G1X30.738Y61.796Z-5.474
N17440G1X30.552Y61.921Z-5.507
N17450G1X30.346Y62.009Z-5.540
N17460G1X30.121Y62.054Z-5.574
N17470G1X29.879Z-5.610
N17480G1X30.121F300.0
N17490G1X30.346Y62.009
N17500G1X30.552Y61.921
N17510G1X30.738Y61.796
N17520G1X30.896Y61.638
N17530G1X31.021Y61.452
N17540G1X31.109Y61.246
N17550G1X31.154Y61.021
N17560G1Y60.779
N17570G1X31.109Y60.554
N17580G1X31.021Y60.348
N17590G1X30.896Y60.162
N17600G1X30.738Y60.004
N17610G1X30.552Y59.879
N17620G1X30.346Y59.792
N17630G1X30.121Y59.746
N17640G1X29.879
N17650G1X29.654Y59.792
N17660G1X29.448Y59.879
N17670G1X29.262Y60.004
N17680G1X29.104Y60.162
N17690G1X28.979Y60.348
N17700G1X28.892Y60.554
N17710G1X28.846Y60.779
N17720G1Y61.021
N17730G1X28.892Y61.246
N17740G1X28.979Y61.452
N17750G1X29.104Y61.638
N17760G1X29.262Y61.796
N17770G1X29.448Y61.921
N17780G1X29.654Y62.009
N17790G1X29.879Y62.054
N17800G00Z5.080
N17810G1Z-5.610F60.0
N17820G1X30.121Z-5.645
N17830G1X30.346Y62.009Z-5.679
N17840G1X30.552Y61.921Z-5.712
N17850G1X30.738Y61.796Z-5.745
N17860G1X30.795Y61.739Z-5.757
N17870G1X30.738Y61.796Z-5.769
N17880G1X30.552Y61.921Z-5.802
N17890G1X30.346Y62.009Z-5.835
N17900G1X30.121Y62.054Z-5.869
N17910G1X29.879Z-5.905
N17920G1X30.121F300.0
N17930G1X30.346Y62.009
N17940G1X30.552Y61.921
N17950G1X30.738Y61.796
N17960G1X30.896Y61.638
N17970G1X31.021Y61.452
N17980G1X31.109Y61.246
N17990G1X31.154Y61.021
N18000G1Y60.779
N18010G1X31.109Y60.554
N18020G1X31.021Y60.348
N18030G1X30.896Y60.162
N18040G1X30.738Y60.004
N18050G1X30.552Y59.879
N18060G1X30.346Y59.792
N18070G1X30.121Y59.746
N18080G1X29.879
N18090G1X29.654Y59.792
N18100G1X29.448Y59.879
N18110G1X29.262Y60.004
N18120G1X29.104Y60.162
N18130G1X28.979Y60.348
N18140G1X28.892Y60.554
N18150G1X28.846Y60.779
N18160G1Y61.021
N18170G1X28.892Y61.246
N18180G1X28.979Y61.452
N18190G1X29.104Y61.638
N18200G1X29.262Y61.796
N18210G1X29.448Y61.921
N18220G1X29.654Y62.009
N18230G1X29.879Y62.054
N18240G00Z5.080
N18250G1Z-5.905F60.0
N18260G1X30.121Z-5.940
N18270G1X30.346Y62.009Z-5.974
N18280G1X30.552Y61.921Z-6.007
N18290G1X30.738Y61.796Z-6.040
N18300G1X30.795Y61.739Z-6.052
N18310G1X30.738Y61.796Z-6.064
N18320G1X30.552Y61.921Z-6.097
N18330G1X30.346Y62.009Z-6.130
N18340G1X30.121Y62.054Z-6.164
N18350G1X29.879Z-6.200
N18360G1X30.121F300.0
N18370G1X30.346Y62.009
N18380G1X30.552Y61.921
N18390G1X30.738Y61.796
N18400G1X30.896Y61.638
N18410G1X31.021Y61.452
N18420G1X31.109Y61.246
N18430G1X31.154Y61.021
N18440G1Y60.779
N18450G1X31.109Y60.554
N18460G1X31.021Y60.348
N18470G1X30.896Y60.162
N18480G1X30.738Y60.004
N18490G1X30.552Y59.879
N18500G1X30.346Y59.792
N18510G1X30.121Y59.746
N18520G1X29.879
N18530G1X29.654Y59.792
N18540G1X29.448Y59.879
N18550G1X29.262Y60.004
N18560G1X29.104Y60.162
N18570G1X28.979Y60.348
N18580G1X28.892Y60.554
N18590G1X28.846Y60.779
N18600G1Y61.021
N18610G1X28.892Y61.246
N18620G1X28.979Y61.452
N18630G1X29.104Y61.638
N18640G1X29.262Y61.796
N18650G1X29.448Y61.921
N18660G1X29.654Y62.009
N18670G1X29.879Y62.054
N18680G00Z5.080
N18690G00X9.879Y46.054
N18700G1Z0.000F60.0
N18710G1Z-0.295
N18720G1X10.121F300.0
N18730G1X10.346Y46.008
N18740G1X10.552Y45.921
N18750G1X10.738Y45.796
N18760G1X10.896Y45.638
N18770G1X11.021Y45.452
N18780G1X11.109Y45.246
N18790G1X11.154Y45.021
N18800G1Y44.779
N18810G1X11.109Y44.554
N18820G1X11.021Y44.348
N18830G1X10.896Y44.162
N18840G1X10.738Y44.004
N18850G1X10.552Y43.879
N18860G1X10.346Y43.792
N18870G1X10.121Y43.746
N18880G1X9.879
N18890G1X9.654Y43.792
N18900G1X9.448Y43.879
N18910G1X9.262Y44.004
N18920G1X9.104Y44.162
N18930G1X8.979Y44.348
N18940G1X8.892Y44.554
N18950G1X8.846Y44.779
N18960G1Y45.021
N18970G1X8.892Y45.246
N18980G1X8.979Y45.452
N18990G1X9.104Y45.638
N19000G1X9.262Y45.796
N19010G1X9.448Y45.921
N19020G1X9.654Y46.008
N19030G1X9.879Y46.054
N19040G00Z5.080
N19050G1Z-0.295F60.0
N19060G1Z-0.590
N19070G1X10.121F300.0
N19080G1X10.346Y46.008
N19090G1X10.552Y45.921
N19100G1X10.738Y45.796
N19110G1X10.896Y45.638
N19120G1X11.021Y45.452
N19130G1X11.109Y45.246
N19140G1X11.154Y45.021
N19150G1Y44.779
N19160G1X11.109Y44.554
N19170G1X11.021Y44.348
N19180G1X10.896Y44.162
N19190G1X10.738Y44.004
N19200G1X10.552Y43.879
N19210G1X10.346Y43.792
N19220G1X10.121Y43.746
N19230G1X9.879
N19240G1X9.654Y43.792
N19250G1X9.448Y43.879
N19260G1X9.262Y44.004
N19270G1X9.104Y44.162
N19280G1X8.979Y44.348
N19290G1X8.892Y44.554
N19300G1X8.846Y44.779
N19310G1Y45.021
N19320G1X8.892Y45.246
N19330G1X8.979Y45.452
N19340G1X9.104Y45.638
N19350G1X9.262Y45.796
N19360G1X9.448Y45.921
N19370G1X9.654Y46.008
N19380G1X9.879Y46.054
N19390G00Z5.080
N19400G1Z-0.590F60.0
N19410G1Z-0.886
N19420G1X10.121F300.0
N19430G1X10.346Y46.008
N19440G1X10.552Y45.921
N19450G1X10.738Y45.796
N19460G1X10.896Y45.638
N19470G1X11.021Y45.452
N19480G1X11.109Y45.246
N19490G1X11.154Y45.021
N19500G1Y44.779
N19510G1X11.109Y44.554
N19520G1X11.021Y44.348
N19530G1X10.896Y44.162
N19540G1X10.738Y44.004
N19550G1X10.552Y43.879
N19560G1X10.346Y43.792
N19570G1X10.121Y43.746
N19580G1X9.879
N19590G1X9.654Y43.792
N19600G1X9.448Y43.879
N19610G1X9.262Y44.004
N19620G1X9.104Y44.162
N19630G1X8.979Y44.348
N19640G1X8.892Y44.554
N19650G1X8.846Y44.779
N19660G1Y45.021
N19670G1X8.892Y45.246
N19680G1X8.979Y45.452
N19690G1X9.104Y45.638
N19700G1X9.262Y45.796
N19710G1X9.448Y45.921
N19720G1X9.654Y46.008
N19730G1X9.879Y46.054
N19740G00Z5.080
N19750G1Z-0.886F60.0
N19760G1Z-1.181
N19770G1X10.121F300.0
N19780G1X10.346Y46.008
N19790G1X10.552Y45.921
N19800G1X10.738Y45.796
N19810G1X10.896Y45.638
N19820G1X11.021Y45.452
N19830G1X11.109Y45.246
N19840G1X11.154Y45.021
N19850G1Y44.779
N19860G1X11.109Y44.554
N19870G1X11.021Y44.348
N19880G1X10.896Y44.162
N19890G1X10.738Y44.004
N19900G1X10.552Y43.879
N19910G1X10.346Y43.792
N19920G1X10.121Y43.746
N19930G1X9.879
N19940G1X9.654Y43.792
N19950G1X9.448Y43.879
N19960G1X9.262Y44.004
N19970G1X9.104Y44.162
N19980G1X8.979Y44.348
N19990G1X8.892Y44.554
N20000G1X8.846Y44.779
N20010G1Y45.021
N20020G1X8.892Y45.246
N20030G1X8.979Y45.452
N20040G1X9.104Y45.638
N20050G1X9.262Y45.796
N20060G1X9.448Y45.921
N20070G1X9.654Y46.008
N20080G1X9.879Y46.054
N20090G00Z5.080
N20100G1Z-1.181F60.0
N20110G1Z-1.476
N20120G1X10.121F300.0
N20130G1X10.346Y46.008
N20140G1X10.552Y45.921
N20150G1X10.738Y45.796
N20160G1X10.896Y45.638
N20170G1X11.021Y45.452
N20180G1X11.109Y45.246
N20190G1X11.154Y45.021
N20200G1Y44.779
N20210G1X11.109Y44.554
N20220G1X11.021Y44.348
N20230G1X10.896Y44.162
N20240G1X10.738Y44.004
N20250G1X10.552Y43.879
N20260G1X10.346Y43.792
N20270G1X10.121Y43.746
N20280G1X9.879
N20290G1X9.654Y43.792
N20300G1X9.448Y43.879
N20310G1X9.262Y44.004
N20320G1X9.104Y44.162
N20330G1X8.979Y44.348
N20340G1X8.892Y44.554
N20350G1X8.846Y44.779
N20360G1Y45.021
N20370G1X8.892Y45.246
N20380G1X8.979Y45.452
N20390G1X9.104Y45.638
N20400G1X9.262Y45.796
N20410G1X9.448Y45.921
N20420G1X9.654Y46.008
N20430G1X9.879Y46.054
N20440G00Z5.080
N20450G1Z-1.476F60.0
N20460G1Z-1.771
N20470G1X10.121F300.0
N20480G1X10.346Y46.008
N20490G1X10.552Y45.921
N20500G1X10.738Y45.796
N20510G1X10.896Y45.638
N20520G1X11.021Y45.452
N20530G1X11.109Y45.246
N20540G1X11.154Y45.021
N20550G1Y44.779
N20560G1X11.109Y44.554
N20570G1X11.021Y44.348
N20580G1X10.896Y44.162
N20590G1X10.738Y44.004
N20600G1X10.552Y43.879
N20610G1X10.346Y43.792
N20620G1X10.121Y43.746
N20630G1X9.879
N20640G1X9.654Y43.792
N20650G1X9.448Y43.879
N20660G1X9.262Y44.004
N20670G1X9.104Y44.162
N20680G1X8.979Y44.348
N20690G1X8.892Y44.554
N20700G1X8.846Y44.779
N20710G1Y45.021
N20720G1X8.892Y45.246
N20730G1X8.979Y45.452
N20740G1X9.104Y45.638
N20750G1X9.262Y45.796
N20760G1X9.448Y45.921
N20770G1X9.654Y46.008
N20780G1X9.879Y46.054
N20790G00Z5.080
N20800G1Z-1.771F60.0
N20810G1Z-2.067
N20820G1X10.121F300.0
N20830G1X10.346Y46.008
N20840G1X10.552Y45.921
N20850G1X10.738Y45.796
N20860G1X10.896Y45.638
N20870G1X11.021Y45.452
N20880G1X11.109Y45.246
N20890G1X11.154Y45.021
N20900G1Y44.779
N20910G1X11.109Y44.554
N20920G1X11.021Y44.348
N20930G1X10.896Y44.162
N20940G1X10.738Y44.004
N20950G1X10.552Y43.879
N20960G1X10.346Y43.792
N20970G1X10.121Y43.746
N20980G1X9.879
N20990G1X9.654Y43.792
N21000G1X9.448Y43.879
N21010G1X9.262Y44.004
N21020G1X9.104Y44.162
N21030G1X8.979Y44.348
N21040G1X8.892Y44.554
N21050G1X8.846Y44.779
N21060G1Y45.021
N21070G1X8.892Y45.246
N21080G1X8.979Y45.452
N21090G1X9.104Y45.638
N21100G1X9.262Y45.796
N21110G1X9.448Y45.921
N21120G1X9.654Y46.008
N21130G1X9.879Y46.054
N21140G00Z5.080
N21150G1Z-2.067F60.0
N21160G1Z-2.362
N21170G1X10.121F300.0
N21180G1X10.346Y46.008
N21190G1X10.552Y45.921
N21200G1X10.738Y45.796
N21210G1X10.896Y45.638
N21220G1X11.021Y45.452
N21230G1X11.109Y45.246
N21240G1X11.154Y45.021
N21250G1Y44.779
N21260G1X11.109Y44.554
N21270G1X11.021Y44.348
N21280G1X10.896Y44.162
N21290G1X10.738Y44.004
N21300G1X10.552Y43.879
N21310G1X10.346Y43.792
N21320G1X10.121Y43.746
N21330G1X9.879
N21340G1X9.654Y43.792
N21350G1X9.448Y43.879
N21360G1X9.262Y44.004
N21370G1X9.104Y44.162
N21380G1X8.979Y44.348
N21390G1X8.892Y44.554
N21400G1X8.846Y44.779
N21410G1Y45.021
N21420G1X8.892Y45.246
N21430G1X8.979Y45.452
N21440G1X9.104Y45.638
N21450G1X9.262Y45.796
N21460G1X9.448Y45.921
N21470G1X9.654Y46.008
N21480G1X9.879Y46.054
N21490G00Z5.080
N21500G1Z-2.362F60.0
N21510G1Z-2.657
N21520G1X10.121F300.0
N21530G1X10.346Y46.008
N21540G1X10.552Y45.921
N21550G1X10.738Y45.796
N21560G1X10.896Y45.638
N21570G1X11.021Y45.452
N21580G1X11.109Y45.246
N21590G1X11.154Y45.021
N21600G1Y44.779
N21610G1X11.109Y44.554
N21620G1X11.021Y44.348
N21630G1X10.896Y44.162
N21640G1X10.738Y44.004
N21650G1X10.552Y43.879
N21660G1X10.346Y43.792
N21670G1X10.121Y43.746
N21680G1X9.879
N21690G1X9.654Y43.792
N21700G1X9.448Y43.879
N21710G1X9.262Y44.004
N21720G1X9.104Y44.162
N21730G1X8.979Y44.348
N21740G1X8.892Y44.554
N21750G1X8.846Y44.779
N21760G1Y45.021
N21770G1X8.892Y45.246
N21780G1X8.979Y45.452
N21790G1X9.104Y45.638
N21800G1X9.262Y45.796
N21810G1X9.448Y45.921
N21820G1X9.654Y46.008
N21830G1X9.879Y46.054
N21840G00Z5.080
N21850G1Z-2.657F60.0
N21860G1Z-2.952
N21870G1X10.121F300.0
N21880G1X10.346Y46.008
N21890G1X10.552Y45.921
N21900G1X10.738Y45.796
N21910G1X10.896Y45.638
N21920G1X11.021Y45.452
N21930G1X11.109Y45.246
N21940G1X11.154Y45.021
N21950G1Y44.779
N21960G1X11.109Y44.554
N21970G1X11.021Y44.348
N21980G1X10.896Y44.162
N21990G1X10.738Y44.004
N22000G1X10.552Y43.879
N22010G1X10.346Y43.792
N22020G1X10.121Y43.746
N22030G1X9.879
N22040G1X9.654Y43.792
N22050G1X9.448Y43.879
N22060G1X9.262Y44.004
N22070G1X9.104Y44.162
N22080G1X8.979Y44.348
N22090G1X8.892Y44.554
N22100G1X8.846Y44.779
N22110G1Y45.021
N22120G1X8.892Y45.246
N22130G1X8.979Y45.452
N22140G1X9.104Y45.638
N22150G1X9.262Y45.796
N22160G1X9.448Y45.921
N22170G1X9.654Y46.008
N22180G1X9.879Y46.054
N22190G00Z5.080
N22200G1Z-2.952F60.0
N22210G1Z-3.248
N22220G1X10.121F300.0
N22230G1X10.346Y46.008
N22240G1X10.552Y45.921
N22250G1X10.738Y45.796
N22260G1X10.896Y45.638
N22270G1X11.021Y45.452
N22280G1X11.109Y45.246
N22290G1X11.154Y45.021
N22300G1Y44.779
N22310G1X11.109Y44.554
N22320G1X11.021Y44.348
N22330G1X10.896Y44.162
N22340G1X10.738Y44.004
N22350G1X10.552Y43.879
N22360G1X10.346Y43.792
N22370G1X10.121Y43.746
N22380G1X9.879
N22390G1X9.654Y43.792
N22400G1X9.448Y43.879
N22410G1X9.262Y44.004
N22420G1X9.104Y44.162
N22430G1X8.979Y44.348
N22440G1X8.892Y44.554
N22450G1X8.846Y44.779
N22460G1Y45.021
N22470G1X8.892Y45.246
N22480G1X8.979Y45.452
N22490G1X9.104Y45.638
N22500G1X9.262Y45.796
N22510G1X9.448Y45.921
N22520G1X9.654Y46.008
N22530G1X9.879Y46.054
N22540G00Z5.080
N22550G1Z-3.248F60.0
N22560G1Z-3.543
N22570G1X10.121F300.0
N22580G1X10.346Y46.008
N22590G1X10.552Y45.921
N22600G1X10.738Y45.796
N22610G1X10.896Y45.638
N22620G1X11.021Y45.452
N22630G1X11.109Y45.246
N22640G1X11.154Y45.021
N22650G1Y44.779
N22660G1X11.109Y44.554
N22670G1X11.021Y44.348
N22680G1X10.896Y44.162
N22690G1X10.738Y44.004
N22700G1X10.552Y43.879
N22710G1X10.346Y43.792
N22720G1X10.121Y43.746
N22730G1X9.879
N22740G1X9.654Y43.792
N22750G1X9.448Y43.879
N22760G1X9.262Y44.004
N22770G1X9.104Y44.162
N22780G1X8.979Y44.348
N22790G1X8.892Y44.554
N22800G1X8.846Y44.779
N22810G1Y45.021
N22820G1X8.892Y45.246
N22830G1X8.979Y45.452
N22840G1X9.104Y45.638
N22850G1X9.262Y45.796
N22860G1X9.448Y45.921
N22870G1X9.654Y46.008
N22880G1X9.879Y46.054
N22890G00Z5.080
N22900G1Z-3.543F60.0
N22910G1Z-3.838
N22920G1X10.121F300.0
N22930G1X10.346Y46.008
N22940G1X10.552Y45.921
N22950G1X10.738Y45.796
N22960G1X10.896Y45.638
N22970G1X11.021Y45.452
N22980G1X11.109Y45.246
N22990G1X11.154Y45.021
N23000G1Y44.779
N23010G1X11.109Y44.554
N23020G1X11.021Y44.348
N23030G1X10.896Y44.162
N23040G1X10.738Y44.004
N23050G1X10.552Y43.879
N23060G1X10.346Y43.792
N23070G1X10.121Y43.746
N23080G1X9.879
N23090G1X9.654Y43.792
N23100G1X9.448Y43.879
N23110G1X9.262Y44.004
N23120G1X9.104Y44.162
N23130G1X8.979Y44.348
N23140G1X8.892Y44.554
N23150G1X8.846Y44.779
N23160G1Y45.021
N23170G1X8.892Y45.246
N23180G1X8.979Y45.452
N23190G1X9.104Y45.638
N23200G1X9.262Y45.796
N23210G1X9.448Y45.921
N23220G1X9.654Y46.008
N23230G1X9.879Y46.054
N23240G00Z5.080
N23250G1Z-3.838F60.0
N23260G1Z-4.133
N23270G1X10.121F300.0
N23280G1X10.346Y46.008
N23290G1X10.552Y45.921
N23300G1X10.738Y45.796
N23310G1X10.896Y45.638
N23320G1X11.021Y45.452
N23330G1X11.109Y45.246
N23340G1X11.154Y45.021
N23350G1Y44.779
N23360G1X11.109Y44.554
N23370G1X11.021Y44.348
N23380G1X10.896Y44.162
N23390G1X10.738Y44.004
N23400G1X10.552Y43.879
N23410G1X10.346Y43.792
N23420G1X10.121Y43.746
N23430G1X9.879
N23440G1X9.654Y43.792
N23450G1X9.448Y43.879
N23460G1X9.262Y44.004
N23470G1X9.104Y44.162
N23480G1X8.979Y44.348
N23490G1X8.892Y44.554
N23500G1X8.846Y44.779
N23510G1Y45.021
N23520G1X8.892Y45.246
N23530G1X8.979Y45.452
N23540G1X9.104Y45.638
N23550G1X9.262Y45.796
N23560G1X9.448Y45.921
N23570G1X9.654Y46.008
N23580G1X9.879Y46.054
N23590G00Z5.080
N23600G1Z-4.133F60.0
N23610G1Z-4.429
N23620G1X10.121F300.0
N23630G1X10.346Y46.008
N23640G1X10.552Y45.921
N23650G1X10.738Y45.796
N23660G1X10.896Y45.638
N23670G1X11.021Y45.452
N23680G1X11.109Y45.246
N23690G1X11.154Y45.021
N23700G1Y44.779
N23710G1X11.109Y44.554
N23720G1X11.021Y44.348
N23730G1X10.896Y44.162
N23740G1X10.738Y44.004
N23750G1X10.552Y43.879
N23760G1X10.346Y43.792
N23770G1X10.121Y43.746
N23780G1X9.879
N23790G1X9.654Y43.792
N23800G1X9.448Y43.879
N23810G1X9.262Y44.004
N23820G1X9.104Y44.162
N23830G1X8.979Y44.348
N23840G1X8.892Y44.554
N23850G1X8.846Y44.779
N23860G1Y45.021
N23870G1X8.892Y45.246
N23880G1X8.979Y45.452
N23890G1X9.104Y45.638
N23900G1X9.262Y45.796
N23910G1X9.448Y45.921
N23920G1X9.654Y46.008
N23930G1X9.879Y46.054
N23940G00Z5.080
N23950G1Z-4.429F60.0
N23960G1Z-4.724
N23970G1X10.121F300.0
N23980G1X10.346Y46.008
N23990G1X10.552Y45.921
N24000G1X10.738Y45.796
N24010G1X10.896Y45.638
N24020G1X11.021Y45.452
N24030G1X11.109Y45.246
N24040G1X11.154Y45.021
N24050G1Y44.779
N24060G1X11.109Y44.554
N24070G1X11.021Y44.348
N24080G1X10.896Y44.162
N24090G1X10.738Y44.004
N24100G1X10.552Y43.879
N24110G1X10.346Y43.792
N24120G1X10.121Y43.746
N24130G1X9.879
N24140G1X9.654Y43.792
N24150G1X9.448Y43.879
N24160G1X9.262Y44.004
N24170G1X9.104Y44.162
N24180G1X8.979Y44.348
N24190G1X8.892Y44.554
N24200G1X8.846Y44.779
N24210G1Y45.021
N24220G1X8.892Y45.246
N24230G1X8.979Y45.452
N24240G1X9.104Y45.638
N24250G1X9.262Y45.796
N24260G1X9.448Y45.921
N24270G1X9.654Y46.008
N24280G1X9.879Y46.054
N24290G00Z5.080
N24300G1Z-4.724F60.0
N24310G1Z-5.019
N24320G1X10.121F300.0
N24330G1X10.346Y46.008
N24340G1X10.552Y45.921
N24350G1X10.738Y45.796
N24360G1X10.896Y45.638
N24370G1X11.021Y45.452
N24380G1X11.109Y45.246
N24390G1X11.154Y45.021
N24400G1Y44.779
N24410G1X11.109Y44.554
N24420G1X11.021Y44.348
N24430G1X10.896Y44.162
N24440G1X10.738Y44.004
N24450G1X10.552Y43.879
N24460G1X10.346Y43.792
N24470G1X10.121Y43.746
N24480G1X9.879
N24490G1X9.654Y43.792
N24500G1X9.448Y43.879
N24510G1X9.262Y44.004
N24520G1X9.104Y44.162
N24530G1X8.979Y44.348
N24540G1X8.892Y44.554
N24550G1X8.846Y44.779
N24560G1Y45.021
N24570G1X8.892Y45.246
N24580G1X8.979Y45.452
N24590G1X9.104Y45.638
N24600G1X9.262Y45.796
N24610G1X9.448Y45.921
N24620G1X9.654Y46.008
N24630G1X9.879Y46.054
N24640G00Z5.080
N24650G1Z-5.019F60.0
N24660G1Z-5.314
N24670G1X10.121F300.0
N24680G1X10.346Y46.008
N24690G1X10.552Y45.921
N24700G1X10.738Y45.796
N24710G1X10.896Y45.638
N24720G1X11.021Y45.452
N24730G1X11.109Y45.246
N24740G1X11.154Y45.021
N24750G1Y44.779
N24760G1X11.109Y44.554
N24770G1X11.021Y44.348
N24780G1X10.896Y44.162
N24790G1X10.738Y44.004
N24800G1X10.552Y43.879
N24810G1X10.346Y43.792
N24820G1X10.121Y43.746
N24830G1X9.879
N24840G1X9.654Y43.792
N24850G1X9.448Y43.879
N24860G1X9.262Y44.004
N24870G1X9.104Y44.162
N24880G1X8.979Y44.348
N24890G1X8.892Y44.554
N24900G1X8.846Y44.779
N24910G1Y45.021
N24920G1X8.892Y45.246
N24930G1X8.979Y45.452
N24940G1X9.104Y45.638
N24950G1X9.262Y45.796
N24960G1X9.448Y45.921
N24970G1X9.654Y46.008
N24980G1X9.879Y46.054
N24990G00Z5.080
N25000G1Z-5.314F60.0
N25010G1Z-5.610
N25020G1X10.121F300.0
N25030G1X10.346Y46.008
N25040G1X10.552Y45.921
N25050G1X10.738Y45.796
N25060G1X10.896Y45.638
N25070G1X11.021Y45.452
N25080G1X11.109Y45.246
N25090G1X11.154Y45.021
N25100G1Y44.779
N25110G1X11.109Y44.554
N25120G1X11.021Y44.348
N25130G1X10.896Y44.162
N25140G1X10.738Y44.004
N25150G1X10.552Y43.879
N25160G1X10.346Y43.792
N25170G1X10.121Y43.746
N25180G1X9.879
N25190G1X9.654Y43.792
N25200G1X9.448Y43.879
N25210G1X9.262Y44.004
N25220G1X9.104Y44.162
N25230G1X8.979Y44.348
N25240G1X8.892Y44.554
N25250G1X8.846Y44.779
N25260G1Y45.021
N25270G1X8.892Y45.246
N25280G1X8.979Y45.452
N25290G1X9.104Y45.638
N25300G1X9.262Y45.796
N25310G1X9.448Y45.921
N25320G1X9.654Y46.008
N25330G1X9.879Y46.054
N25340G00Z5.080
N25350G1Z-5.610F60.0
N25360G1Z-5.905
N25370G1X10.121F300.0
N25380G1X10.346Y46.008
N25390G1X10.552Y45.921
N25400G1X10.738Y45.796
N25410G1X10.896Y45.638
N25420G1X11.021Y45.452
N25430G1X11.109Y45.246
N25440G1X11.154Y45.021
N25450G1Y44.779
N25460G1X11.109Y44.554
N25470G1X11.021Y44.348
N25480G1X10.896Y44.162
N25490G1X10.738Y44.004
N25500G1X10.552Y43.879
N25510G1X10.346Y43.792
N25520G1X10.121Y43.746
N25530G1X9.879
N25540G1X9.654Y43.792
N25550G1X9.448Y43.879
N25560G1X9.262Y44.004
N25570G1X9.104Y44.162
N25580G1X8.979Y44.348
N25590G1X8.892Y44.554
N25600G1X8.846Y44.779
N25610G1Y45.021
N25620G1X8.892Y45.246
N25630G1X8.979Y45.452
N25640G1X9.104Y45.638
N25650G1X9.262Y45.796
N25660G1X9.448Y45.921
N25670G1X9.654Y46.008
N25680G1X9.879Y46.054
N25690G00Z5.080
N25700G1Z-5.905F60.0
N25710G1Z-6.200
N25720G1X10.121F300.0
N25730G1X10.346Y46.008
N25740G1X10.552Y45.921
N25750G1X10.738Y45.796
N25760G1X10.896Y45.638
N25770G1X11.021Y45.452
N25780G1X11.109Y45.246
N25790G1X11.154Y45.021
N25800G1Y44.779
N25810G1X11.109Y44.554
N25820G1X11.021Y44.348
N25830G1X10.896Y44.162
N25840G1X10.738Y44.004
N25850G1X10.552Y43.879
N25860G1X10.346Y43.792
N25870G1X10.121Y43.746
N25880G1X9.879
N25890G1X9.654Y43.792
N25900G1X9.448Y43.879
N25910G1X9.262Y44.004
N25920G1X9.104Y44.162
N25930G1X8.979Y44.348
N25940G1X8.892Y44.554
N25950G1X8.846Y44.779
N25960G1Y45.021
N25970G1X8.892Y45.246
N25980G1X8.979Y45.452
N25990G1X9.104Y45.638
N26000G1X9.262Y45.796
N26010G1X9.448Y45.921
N26020G1X9.654Y46.008
N26030G1X9.879Y46.054
N26040G00Z5.080
N26050G00Z20.320
N26060G00X0.000Y0.000
N26070M09
N26080M30
%
