( Profile 1 )
( File created: Friday July 02 2021 - 04:05 PM)
( USBCNC Postprocessor )
( Material Size)
( X= 140.000, Y= 46.000, Z= 6.000)
()
(Toolpaths used in this file:)
(Profile 1)
(Tools used in this file: )
(1 = End Mill {3 mm})
N100G00G21G17G90G40G49
N110G80
N120 (End Mill {3 mm})
N130G00G43Z20.320H1
N140S12000M03
N150(Toolpath:- Profile 1)
N160()
N170G94
N180X0.000Y0.000F300.0
N190G00X-1.500Y-1.500Z5.080
N200G1Z-0.517F1200.0
N210G1X41.154F300.0
N220G1X48.154
N230G1X107.567
N240G1X114.567
N250G1X141.500
N260G1Y18.945
N270G1Y25.945
N280G1Y47.500
N290G1X113.123
N300G1X106.123
N310G1X47.994
N320G1X40.994
N330G1X-1.500
N340G1Y24.822
N350G1Y17.822
N360G1Y-1.500
N370G1Z-1.033F1200.0
N380G1X41.154F300.0
N390G1X48.154
N400G1X107.567
N410G1X114.567
N420G1X141.500
N430G1Y18.945
N440G1Y25.945
N450G1Y47.500
N460G1X113.123
N470G1X106.123
N480G1X47.994
N490G1X40.994
N500G1X-1.500
N510G1Y24.822
N520G1Y17.822
N530G1Y-1.500
N540G1Z-1.550F1200.0
N550G1X41.154F300.0
N560G1X48.154
N570G1X107.567
N580G1X114.567
N590G1X141.500
N600G1Y18.945
N610G1Y25.945
N620G1Y47.500
N630G1X113.123
N640G1X106.123
N650G1X47.994
N660G1X40.994
N670G1X-1.500
N680G1Y24.822
N690G1Y17.822
N700G1Y-1.500
N710G1Z-2.067F1200.0
N720G1X41.154F300.0
N730G1X48.154
N740G1X107.567
N750G1X114.567
N760G1X141.500
N770G1Y18.945
N780G1Y25.945
N790G1Y47.500
N800G1X113.123
N810G1X106.123
N820G1X47.994
N830G1X40.994
N840G1X-1.500
N850G1Y24.822
N860G1Y17.822
N870G1Y-1.500
N880G1Z-2.583F1200.0
N890G1X41.154F300.0
N900G1X48.154
N910G1X107.567
N920G1X114.567
N930G1X141.500
N940G1Y18.945
N950G1Y25.945
N960G1Y47.500
N970G1X113.123
N980G1X106.123
N990G1X47.994
N1000G1X40.994
N1010G1X-1.500
N1020G1Y24.822
N1030G1Y17.822
N1040G1Y-1.500
N1050G1Z-3.100F1200.0
N1060G1X41.154F300.0
N1070G1X48.154
N1080G1X107.567
N1090G1X114.567
N1100G1X141.500
N1110G1Y18.945
N1120G1Y25.945
N1130G1Y47.500
N1140G1X113.123
N1150G1X106.123
N1160G1X47.994
N1170G1X40.994
N1180G1X-1.500
N1190G1Y24.822
N1200G1Y17.822
N1210G1Y-1.500
N1220G1Z-3.617F1200.0
N1230G1X41.154F300.0
N1240G1X48.154
N1250G1X107.567
N1260G1X114.567
N1270G1X141.500
N1280G1Y18.945
N1290G1Y25.945
N1300G1Y47.500
N1310G1X113.123
N1320G1X106.123
N1330G1X47.994
N1340G1X40.994
N1350G1X-1.500
N1360G1Y24.822
N1370G1Y17.822
N1380G1Y-1.500
N1390G1Z-4.133F1200.0
N1400G1X41.154F300.0
N1410G1X48.154
N1420G1X107.567
N1430G1X114.567
N1440G1X141.500
N1450G1Y18.945
N1460G1Y25.945
N1470G1Y47.500
N1480G1X113.123
N1490G1X106.123
N1500G1X47.994
N1510G1X40.994
N1520G1X-1.500
N1530G1Y24.822
N1540G1Y17.822
N1550G1Y-1.500
N1560G1Z-4.650F1200.0
N1570G1X41.154F300.0
N1580G1X48.154
N1590G1X107.567
N1600G1X114.567
N1610G1X141.500
N1620G1Y18.945
N1630G1Y25.945
N1640G1Y47.500
N1650G1X113.123
N1660G1X106.123
N1670G1X47.994
N1680G1X40.994
N1690G1X-1.500
N1700G1Y24.822
N1710G1Y17.822
N1720G1Y-1.500
N1730G1Z-5.167F1200.0
N1740G1X41.154F300.0
N1750G1X48.154
N1760G1X107.567
N1770G1X114.567
N1780G1X141.500
N1790G1Y18.945
N1800G1Y25.945
N1810G1Y47.500
N1820G1X113.123
N1830G1X106.123
N1840G1X47.994
N1850G1X40.994
N1860G1X-1.500
N1870G1Y24.822
N1880G1Y17.822
N1890G1Y-1.500
N1900G1Z-5.683F1200.0
N1910G1X41.154F300.0
N1920G1X48.154
N1930G1X107.567
N1940G1X114.567
N1950G1X141.500
N1960G1Y18.945
N1970G1Y25.945
N1980G1Y47.500
N1990G1X113.123
N2000G1X106.123
N2010G1X47.994
N2020G1X40.994
N2030G1X-1.500
N2040G1Y24.822
N2050G1Y17.822
N2060G1Y-1.500
N2070G1Z-6.200F1200.0
N2080G1X41.154F300.0
N2090G1Z-5.900
N2100G1X48.154
N2110G1Z-6.200F1200.0
N2120G1X107.567F300.0
N2130G1Z-5.900
N2140G1X114.567
N2150G1Z-6.200F1200.0
N2160G1X141.500F300.0
N2170G1Y18.945
N2180G1Z-5.900
N2190G1Y25.945
N2200G1Z-6.200F1200.0
N2210G1Y47.500F300.0
N2220G1X113.123
N2230G1Z-5.900
N2240G1X106.123
N2250G1Z-6.200F1200.0
N2260G1X47.994F300.0
N2270G1Z-5.900
N2280G1X40.994
N2290G1Z-6.200F1200.0
N2300G1X-1.500F300.0
N2310G1Y24.822
N2320G1Z-5.900
N2330G1Y17.822
N2340G1Z-6.200F1200.0
N2350G1Y-1.500F300.0
N2360G00Z5.080
N2370G00Z20.320
N2380G00X0.000Y0.000
N2390M09
N2400M30
%
