( y-plate-pocket )
( File created: Monday July 12 2021 - 12:45 PM)
( USBCNC Postprocessor )
( Material Size)
( X= 123.640, Y= 130.646, Z= 6.200)
()
(Toolpaths used in this file:)
(Pocket 1)
(Tools used in this file: )
(1 = End Mill {3 mm})
N100G00G21G17G90G40G49
N110G80
N120 (End Mill {3 mm})
N130G00G43Z20.000H1
N140S16868M03
N150(Toolpath:- Pocket 1)
N160()
N170G94
N180X0.000Y0.000F516.0
N190G00X53.000Y7.536Z6.000
N200G1Z-0.471F172.0
N210G2X51.850Y8.686I0.000J1.150F516.0
N220G2X53.000Y9.836I1.150J0.000
N230G2X54.150Y8.686I0.000J-1.150
N240G2X53.000Y7.536I-1.150J0.000
N250G00Z6.000
N260G1Z-0.943F172.0
N270G2X51.850Y8.686I0.000J1.150F516.0
N280G2X53.000Y9.836I1.150J0.000
N290G2X54.150Y8.686I0.000J-1.150
N300G2X53.000Y7.536I-1.150J0.000
N310G00Z6.000
N320G1Z-1.414F172.0
N330G2X51.850Y8.686I0.000J1.150F516.0
N340G2X53.000Y9.836I1.150J0.000
N350G2X54.150Y8.686I0.000J-1.150
N360G2X53.000Y7.536I-1.150J0.000
N370G00Z6.000
N380G1Z-1.886F172.0
N390G2X51.850Y8.686I0.000J1.150F516.0
N400G2X53.000Y9.836I1.150J0.000
N410G2X54.150Y8.686I0.000J-1.150
N420G2X53.000Y7.536I-1.150J0.000
N430G00Z6.000
N440G1Z-2.357F172.0
N450G2X51.850Y8.686I0.000J1.150F516.0
N460G2X53.000Y9.836I1.150J0.000
N470G2X54.150Y8.686I0.000J-1.150
N480G2X53.000Y7.536I-1.150J0.000
N490G00Z6.000
N500G1Z-2.829F172.0
N510G2X51.850Y8.686I0.000J1.150F516.0
N520G2X53.000Y9.836I1.150J0.000
N530G2X54.150Y8.686I0.000J-1.150
N540G2X53.000Y7.536I-1.150J0.000
N550G00Z6.000
N560G1Z-3.300F172.0
N570G2X51.850Y8.686I0.000J1.150F516.0
N580G2X53.000Y9.836I1.150J0.000
N590G2X54.150Y8.686I0.000J-1.150
N600G2X53.000Y7.536I-1.150J0.000
N610G00Z6.000
N620G1Z-3.771F172.0
N630G2X51.850Y8.686I0.000J1.150F516.0
N640G2X53.000Y9.836I1.150J0.000
N650G2X54.150Y8.686I0.000J-1.150
N660G2X53.000Y7.536I-1.150J0.000
N670G00Z6.000
N680G1Z-4.243F172.0
N690G2X51.850Y8.686I0.000J1.150F516.0
N700G2X53.000Y9.836I1.150J0.000
N710G2X54.150Y8.686I0.000J-1.150
N720G2X53.000Y7.536I-1.150J0.000
N730G00Z6.000
N740G1Z-4.714F172.0
N750G2X51.850Y8.686I0.000J1.150F516.0
N760G2X53.000Y9.836I1.150J0.000
N770G2X54.150Y8.686I0.000J-1.150
N780G2X53.000Y7.536I-1.150J0.000
N790G00Z6.000
N800G1Z-5.186F172.0
N810G2X51.850Y8.686I0.000J1.150F516.0
N820G2X53.000Y9.836I1.150J0.000
N830G2X54.150Y8.686I0.000J-1.150
N840G2X53.000Y7.536I-1.150J0.000
N850G00Z6.000
N860G1Z-5.657F172.0
N870G2X51.850Y8.686I0.000J1.150F516.0
N880G2X53.000Y9.836I1.150J0.000
N890G2X54.150Y8.686I0.000J-1.150
N900G2X53.000Y7.536I-1.150J0.000
N910G00Z6.000
N920G1Z-6.129F172.0
N930G2X51.850Y8.686I0.000J1.150F516.0
N940G2X53.000Y9.836I1.150J0.000
N950G2X54.150Y8.686I0.000J-1.150
N960G2X53.000Y7.536I-1.150J0.000
N970G00Z6.000
N980G1Z-6.600F172.0
N990G2X51.850Y8.686I0.000J1.150F516.0
N1000G2X53.000Y9.836I1.150J0.000
N1010G2X54.150Y8.686I0.000J-1.150
N1020G2X53.000Y7.536I-1.150J0.000
N1030G00Z6.000
N1040G00X83.320Y24.400
N1050G1Z-0.471F172.0
N1060G2X82.720Y25.000I0.000J0.600F516.0
N1070G2X83.320Y25.600I0.600J0.000
N1080G2X83.920Y25.000I0.000J-0.600
N1090G2X83.320Y24.400I-0.600J0.000
N1100G00Z6.000
N1110G1Z-0.943F172.0
N1120G2X82.720Y25.000I0.000J0.600F516.0
N1130G2X83.320Y25.600I0.600J0.000
N1140G2X83.920Y25.000I0.000J-0.600
N1150G2X83.320Y24.400I-0.600J0.000
N1160G00Z6.000
N1170G1Z-1.414F172.0
N1180G2X82.720Y25.000I0.000J0.600F516.0
N1190G2X83.320Y25.600I0.600J0.000
N1200G2X83.920Y25.000I0.000J-0.600
N1210G2X83.320Y24.400I-0.600J0.000
N1220G00Z6.000
N1230G1Z-1.886F172.0
N1240G2X82.720Y25.000I0.000J0.600F516.0
N1250G2X83.320Y25.600I0.600J0.000
N1260G2X83.920Y25.000I0.000J-0.600
N1270G2X83.320Y24.400I-0.600J0.000
N1280G00Z6.000
N1290G1Z-2.357F172.0
N1300G2X82.720Y25.000I0.000J0.600F516.0
N1310G2X83.320Y25.600I0.600J0.000
N1320G2X83.920Y25.000I0.000J-0.600
N1330G2X83.320Y24.400I-0.600J0.000
N1340G00Z6.000
N1350G1Z-2.829F172.0
N1360G2X82.720Y25.000I0.000J0.600F516.0
N1370G2X83.320Y25.600I0.600J0.000
N1380G2X83.920Y25.000I0.000J-0.600
N1390G2X83.320Y24.400I-0.600J0.000
N1400G00Z6.000
N1410G1Z-3.300F172.0
N1420G2X82.720Y25.000I0.000J0.600F516.0
N1430G2X83.320Y25.600I0.600J0.000
N1440G2X83.920Y25.000I0.000J-0.600
N1450G2X83.320Y24.400I-0.600J0.000
N1460G00Z6.000
N1470G1Z-3.771F172.0
N1480G2X82.720Y25.000I0.000J0.600F516.0
N1490G2X83.320Y25.600I0.600J0.000
N1500G2X83.920Y25.000I0.000J-0.600
N1510G2X83.320Y24.400I-0.600J0.000
N1520G00Z6.000
N1530G1Z-4.243F172.0
N1540G2X82.720Y25.000I0.000J0.600F516.0
N1550G2X83.320Y25.600I0.600J0.000
N1560G2X83.920Y25.000I0.000J-0.600
N1570G2X83.320Y24.400I-0.600J0.000
N1580G00Z6.000
N1590G1Z-4.714F172.0
N1600G2X82.720Y25.000I0.000J0.600F516.0
N1610G2X83.320Y25.600I0.600J0.000
N1620G2X83.920Y25.000I0.000J-0.600
N1630G2X83.320Y24.400I-0.600J0.000
N1640G00Z6.000
N1650G1Z-5.186F172.0
N1660G2X82.720Y25.000I0.000J0.600F516.0
N1670G2X83.320Y25.600I0.600J0.000
N1680G2X83.920Y25.000I0.000J-0.600
N1690G2X83.320Y24.400I-0.600J0.000
N1700G00Z6.000
N1710G1Z-5.657F172.0
N1720G2X82.720Y25.000I0.000J0.600F516.0
N1730G2X83.320Y25.600I0.600J0.000
N1740G2X83.920Y25.000I0.000J-0.600
N1750G2X83.320Y24.400I-0.600J0.000
N1760G00Z6.000
N1770G1Z-6.129F172.0
N1780G2X82.720Y25.000I0.000J0.600F516.0
N1790G2X83.320Y25.600I0.600J0.000
N1800G2X83.920Y25.000I0.000J-0.600
N1810G2X83.320Y24.400I-0.600J0.000
N1820G00Z6.000
N1830G1Z-6.600F172.0
N1840G2X82.720Y25.000I0.000J0.600F516.0
N1850G2X83.320Y25.600I0.600J0.000
N1860G2X83.920Y25.000I0.000J-0.600
N1870G2X83.320Y24.400I-0.600J0.000
N1880G00Z6.000
N1890G00X113.640Y7.536
N1900G1Z-0.471F172.0
N1910G2X112.490Y8.686I0.000J1.150F516.0
N1920G2X113.640Y9.836I1.150J0.000
N1930G2X114.790Y8.686I0.000J-1.150
N1940G2X113.640Y7.536I-1.150J0.000
N1950G00Z6.000
N1960G1Z-0.943F172.0
N1970G2X112.490Y8.686I0.000J1.150F516.0
N1980G2X113.640Y9.836I1.150J0.000
N1990G2X114.790Y8.686I0.000J-1.150
N2000G2X113.640Y7.536I-1.150J0.000
N2010G00Z6.000
N2020G1Z-1.414F172.0
N2030G2X112.490Y8.686I0.000J1.150F516.0
N2040G2X113.640Y9.836I1.150J0.000
N2050G2X114.790Y8.686I0.000J-1.150
N2060G2X113.640Y7.536I-1.150J0.000
N2070G00Z6.000
N2080G1Z-1.886F172.0
N2090G2X112.490Y8.686I0.000J1.150F516.0
N2100G2X113.640Y9.836I1.150J0.000
N2110G2X114.790Y8.686I0.000J-1.150
N2120G2X113.640Y7.536I-1.150J0.000
N2130G00Z6.000
N2140G1Z-2.357F172.0
N2150G2X112.490Y8.686I0.000J1.150F516.0
N2160G2X113.640Y9.836I1.150J0.000
N2170G2X114.790Y8.686I0.000J-1.150
N2180G2X113.640Y7.536I-1.150J0.000
N2190G00Z6.000
N2200G1Z-2.829F172.0
N2210G2X112.490Y8.686I0.000J1.150F516.0
N2220G2X113.640Y9.836I1.150J0.000
N2230G2X114.790Y8.686I0.000J-1.150
N2240G2X113.640Y7.536I-1.150J0.000
N2250G00Z6.000
N2260G1Z-3.300F172.0
N2270G2X112.490Y8.686I0.000J1.150F516.0
N2280G2X113.640Y9.836I1.150J0.000
N2290G2X114.790Y8.686I0.000J-1.150
N2300G2X113.640Y7.536I-1.150J0.000
N2310G00Z6.000
N2320G1Z-3.771F172.0
N2330G2X112.490Y8.686I0.000J1.150F516.0
N2340G2X113.640Y9.836I1.150J0.000
N2350G2X114.790Y8.686I0.000J-1.150
N2360G2X113.640Y7.536I-1.150J0.000
N2370G00Z6.000
N2380G1Z-4.243F172.0
N2390G2X112.490Y8.686I0.000J1.150F516.0
N2400G2X113.640Y9.836I1.150J0.000
N2410G2X114.790Y8.686I0.000J-1.150
N2420G2X113.640Y7.536I-1.150J0.000
N2430G00Z6.000
N2440G1Z-4.714F172.0
N2450G2X112.490Y8.686I0.000J1.150F516.0
N2460G2X113.640Y9.836I1.150J0.000
N2470G2X114.790Y8.686I0.000J-1.150
N2480G2X113.640Y7.536I-1.150J0.000
N2490G00Z6.000
N2500G1Z-5.186F172.0
N2510G2X112.490Y8.686I0.000J1.150F516.0
N2520G2X113.640Y9.836I1.150J0.000
N2530G2X114.790Y8.686I0.000J-1.150
N2540G2X113.640Y7.536I-1.150J0.000
N2550G00Z6.000
N2560G1Z-5.657F172.0
N2570G2X112.490Y8.686I0.000J1.150F516.0
N2580G2X113.640Y9.836I1.150J0.000
N2590G2X114.790Y8.686I0.000J-1.150
N2600G2X113.640Y7.536I-1.150J0.000
N2610G00Z6.000
N2620G1Z-6.129F172.0
N2630G2X112.490Y8.686I0.000J1.150F516.0
N2640G2X113.640Y9.836I1.150J0.000
N2650G2X114.790Y8.686I0.000J-1.150
N2660G2X113.640Y7.536I-1.150J0.000
N2670G00Z6.000
N2680G1Z-6.600F172.0
N2690G2X112.490Y8.686I0.000J1.150F516.0
N2700G2X113.640Y9.836I1.150J0.000
N2710G2X114.790Y8.686I0.000J-1.150
N2720G2X113.640Y7.536I-1.150J0.000
N2730G00Z6.000
N2740G00Y69.586
N2750G1Z-0.471F172.0
N2760G2X114.540Y68.686I0.000J-0.900F516.0
N2770G2X113.640Y67.786I-0.900J0.000
N2780G2X112.740Y68.686I0.000J0.900
N2790G2X113.640Y69.586I0.900J0.000
N2800G1Y70.786
N2810G2X115.740Y68.686I0.000J-2.100
N2820G2X113.640Y66.586I-2.100J0.000
N2830G2X111.540Y68.686I0.000J2.100
N2840G2X113.640Y70.786I2.100J0.000
N2850G00Z6.000
N2860G00Y69.586
N2870G1Z-0.943F172.0
N2880G2X114.540Y68.686I0.000J-0.900F516.0
N2890G2X113.640Y67.786I-0.900J0.000
N2900G2X112.740Y68.686I0.000J0.900
N2910G2X113.640Y69.586I0.900J0.000
N2920G1Y70.786
N2930G2X115.740Y68.686I0.000J-2.100
N2940G2X113.640Y66.586I-2.100J0.000
N2950G2X111.540Y68.686I0.000J2.100
N2960G2X113.640Y70.786I2.100J0.000
N2970G00Z6.000
N2980G00Y69.586
N2990G1Z-1.414F172.0
N3000G2X114.540Y68.686I0.000J-0.900F516.0
N3010G2X113.640Y67.786I-0.900J0.000
N3020G2X112.740Y68.686I0.000J0.900
N3030G2X113.640Y69.586I0.900J0.000
N3040G1Y70.786
N3050G2X115.740Y68.686I0.000J-2.100
N3060G2X113.640Y66.586I-2.100J0.000
N3070G2X111.540Y68.686I0.000J2.100
N3080G2X113.640Y70.786I2.100J0.000
N3090G00Z6.000
N3100G00Y69.586
N3110G1Z-1.886F172.0
N3120G2X114.540Y68.686I0.000J-0.900F516.0
N3130G2X113.640Y67.786I-0.900J0.000
N3140G2X112.740Y68.686I0.000J0.900
N3150G2X113.640Y69.586I0.900J0.000
N3160G1Y70.786
N3170G2X115.740Y68.686I0.000J-2.100
N3180G2X113.640Y66.586I-2.100J0.000
N3190G2X111.540Y68.686I0.000J2.100
N3200G2X113.640Y70.786I2.100J0.000
N3210G00Z6.000
N3220G00Y69.586
N3230G1Z-2.357F172.0
N3240G2X114.540Y68.686I0.000J-0.900F516.0
N3250G2X113.640Y67.786I-0.900J0.000
N3260G2X112.740Y68.686I0.000J0.900
N3270G2X113.640Y69.586I0.900J0.000
N3280G1Y70.786
N3290G2X115.740Y68.686I0.000J-2.100
N3300G2X113.640Y66.586I-2.100J0.000
N3310G2X111.540Y68.686I0.000J2.100
N3320G2X113.640Y70.786I2.100J0.000
N3330G00Z6.000
N3340G00Y69.586
N3350G1Z-2.829F172.0
N3360G2X114.540Y68.686I0.000J-0.900F516.0
N3370G2X113.640Y67.786I-0.900J0.000
N3380G2X112.740Y68.686I0.000J0.900
N3390G2X113.640Y69.586I0.900J0.000
N3400G1Y70.786
N3410G2X115.740Y68.686I0.000J-2.100
N3420G2X113.640Y66.586I-2.100J0.000
N3430G2X111.540Y68.686I0.000J2.100
N3440G2X113.640Y70.786I2.100J0.000
N3450G00Z6.000
N3460G00Y69.586
N3470G1Z-3.300F172.0
N3480G2X114.540Y68.686I0.000J-0.900F516.0
N3490G2X113.640Y67.786I-0.900J0.000
N3500G2X112.740Y68.686I0.000J0.900
N3510G2X113.640Y69.586I0.900J0.000
N3520G1Y70.786
N3530G2X115.740Y68.686I0.000J-2.100
N3540G2X113.640Y66.586I-2.100J0.000
N3550G2X111.540Y68.686I0.000J2.100
N3560G2X113.640Y70.786I2.100J0.000
N3570G00Z6.000
N3580G00Y69.586
N3590G1Z-3.771F172.0
N3600G2X114.540Y68.686I0.000J-0.900F516.0
N3610G2X113.640Y67.786I-0.900J0.000
N3620G2X112.740Y68.686I0.000J0.900
N3630G2X113.640Y69.586I0.900J0.000
N3640G1Y70.786
N3650G2X115.740Y68.686I0.000J-2.100
N3660G2X113.640Y66.586I-2.100J0.000
N3670G2X111.540Y68.686I0.000J2.100
N3680G2X113.640Y70.786I2.100J0.000
N3690G00Z6.000
N3700G00Y69.586
N3710G1Z-4.243F172.0
N3720G2X114.540Y68.686I0.000J-0.900F516.0
N3730G2X113.640Y67.786I-0.900J0.000
N3740G2X112.740Y68.686I0.000J0.900
N3750G2X113.640Y69.586I0.900J0.000
N3760G1Y70.786
N3770G2X115.740Y68.686I0.000J-2.100
N3780G2X113.640Y66.586I-2.100J0.000
N3790G2X111.540Y68.686I0.000J2.100
N3800G2X113.640Y70.786I2.100J0.000
N3810G00Z6.000
N3820G00Y69.586
N3830G1Z-4.714F172.0
N3840G2X114.540Y68.686I0.000J-0.900F516.0
N3850G2X113.640Y67.786I-0.900J0.000
N3860G2X112.740Y68.686I0.000J0.900
N3870G2X113.640Y69.586I0.900J0.000
N3880G1Y70.786
N3890G2X115.740Y68.686I0.000J-2.100
N3900G2X113.640Y66.586I-2.100J0.000
N3910G2X111.540Y68.686I0.000J2.100
N3920G2X113.640Y70.786I2.100J0.000
N3930G00Z6.000
N3940G00Y69.586
N3950G1Z-5.186F172.0
N3960G2X114.540Y68.686I0.000J-0.900F516.0
N3970G2X113.640Y67.786I-0.900J0.000
N3980G2X112.740Y68.686I0.000J0.900
N3990G2X113.640Y69.586I0.900J0.000
N4000G1Y70.786
N4010G2X115.740Y68.686I0.000J-2.100
N4020G2X113.640Y66.586I-2.100J0.000
N4030G2X111.540Y68.686I0.000J2.100
N4040G2X113.640Y70.786I2.100J0.000
N4050G00Z6.000
N4060G00Y69.586
N4070G1Z-5.657F172.0
N4080G2X114.540Y68.686I0.000J-0.900F516.0
N4090G2X113.640Y67.786I-0.900J0.000
N4100G2X112.740Y68.686I0.000J0.900
N4110G2X113.640Y69.586I0.900J0.000
N4120G1Y70.786
N4130G2X115.740Y68.686I0.000J-2.100
N4140G2X113.640Y66.586I-2.100J0.000
N4150G2X111.540Y68.686I0.000J2.100
N4160G2X113.640Y70.786I2.100J0.000
N4170G00Z6.000
N4180G00Y69.586
N4190G1Z-6.129F172.0
N4200G2X114.540Y68.686I0.000J-0.900F516.0
N4210G2X113.640Y67.786I-0.900J0.000
N4220G2X112.740Y68.686I0.000J0.900
N4230G2X113.640Y69.586I0.900J0.000
N4240G1Y70.786
N4250G2X115.740Y68.686I0.000J-2.100
N4260G2X113.640Y66.586I-2.100J0.000
N4270G2X111.540Y68.686I0.000J2.100
N4280G2X113.640Y70.786I2.100J0.000
N4290G00Z6.000
N4300G00Y69.586
N4310G1Z-6.600F172.0
N4320G2X114.540Y68.686I0.000J-0.900F516.0
N4330G2X113.640Y67.786I-0.900J0.000
N4340G2X112.740Y68.686I0.000J0.900
N4350G2X113.640Y69.586I0.900J0.000
N4360G1Y70.786
N4370G2X115.740Y68.686I0.000J-2.100
N4380G2X113.640Y66.586I-2.100J0.000
N4390G2X111.540Y68.686I0.000J2.100
N4400G2X113.640Y70.786I2.100J0.000
N4410G00Z6.000
N4420G00X98.820Y69.086
N4430G1Z-0.471F172.0
N4440G2X98.720Y69.186I0.000J0.100F516.0
N4450G2X98.820Y69.286I0.100J0.000
N4460G2X98.920Y69.186I0.000J-0.100
N4470G2X98.820Y69.086I-0.100J0.000
N4480G00Z6.000
N4490G1Z-0.943F172.0
N4500G2X98.720Y69.186I0.000J0.100F516.0
N4510G2X98.820Y69.286I0.100J0.000
N4520G2X98.920Y69.186I0.000J-0.100
N4530G2X98.820Y69.086I-0.100J0.000
N4540G00Z6.000
N4550G1Z-1.414F172.0
N4560G2X98.720Y69.186I0.000J0.100F516.0
N4570G2X98.820Y69.286I0.100J0.000
N4580G2X98.920Y69.186I0.000J-0.100
N4590G2X98.820Y69.086I-0.100J0.000
N4600G00Z6.000
N4610G1Z-1.886F172.0
N4620G2X98.720Y69.186I0.000J0.100F516.0
N4630G2X98.820Y69.286I0.100J0.000
N4640G2X98.920Y69.186I0.000J-0.100
N4650G2X98.820Y69.086I-0.100J0.000
N4660G00Z6.000
N4670G1Z-2.357F172.0
N4680G2X98.720Y69.186I0.000J0.100F516.0
N4690G2X98.820Y69.286I0.100J0.000
N4700G2X98.920Y69.186I0.000J-0.100
N4710G2X98.820Y69.086I-0.100J0.000
N4720G00Z6.000
N4730G1Z-2.829F172.0
N4740G2X98.720Y69.186I0.000J0.100F516.0
N4750G2X98.820Y69.286I0.100J0.000
N4760G2X98.920Y69.186I0.000J-0.100
N4770G2X98.820Y69.086I-0.100J0.000
N4780G00Z6.000
N4790G1Z-3.300F172.0
N4800G2X98.720Y69.186I0.000J0.100F516.0
N4810G2X98.820Y69.286I0.100J0.000
N4820G2X98.920Y69.186I0.000J-0.100
N4830G2X98.820Y69.086I-0.100J0.000
N4840G00Z6.000
N4850G1Z-3.771F172.0
N4860G2X98.720Y69.186I0.000J0.100F516.0
N4870G2X98.820Y69.286I0.100J0.000
N4880G2X98.920Y69.186I0.000J-0.100
N4890G2X98.820Y69.086I-0.100J0.000
N4900G00Z6.000
N4910G1Z-4.243F172.0
N4920G2X98.720Y69.186I0.000J0.100F516.0
N4930G2X98.820Y69.286I0.100J0.000
N4940G2X98.920Y69.186I0.000J-0.100
N4950G2X98.820Y69.086I-0.100J0.000
N4960G00Z6.000
N4970G1Z-4.714F172.0
N4980G2X98.720Y69.186I0.000J0.100F516.0
N4990G2X98.820Y69.286I0.100J0.000
N5000G2X98.920Y69.186I0.000J-0.100
N5010G2X98.820Y69.086I-0.100J0.000
N5020G00Z6.000
N5030G1Z-5.186F172.0
N5040G2X98.720Y69.186I0.000J0.100F516.0
N5050G2X98.820Y69.286I0.100J0.000
N5060G2X98.920Y69.186I0.000J-0.100
N5070G2X98.820Y69.086I-0.100J0.000
N5080G00Z6.000
N5090G1Z-5.657F172.0
N5100G2X98.720Y69.186I0.000J0.100F516.0
N5110G2X98.820Y69.286I0.100J0.000
N5120G2X98.920Y69.186I0.000J-0.100
N5130G2X98.820Y69.086I-0.100J0.000
N5140G00Z6.000
N5150G1Z-6.129F172.0
N5160G2X98.720Y69.186I0.000J0.100F516.0
N5170G2X98.820Y69.286I0.100J0.000
N5180G2X98.920Y69.186I0.000J-0.100
N5190G2X98.820Y69.086I-0.100J0.000
N5200G00Z6.000
N5210G1Z-6.600F172.0
N5220G2X98.720Y69.186I0.000J0.100F516.0
N5230G2X98.820Y69.286I0.100J0.000
N5240G2X98.920Y69.186I0.000J-0.100
N5250G2X98.820Y69.086I-0.100J0.000
N5260G00Z6.000
N5270G00X83.320Y84.886
N5280G1Z-0.471F172.0
N5290G2X83.520Y84.686I0.000J-0.200F516.0
N5300G2X83.320Y84.486I-0.200J0.000
N5310G2X83.120Y84.686I0.000J0.200
N5320G2X83.320Y84.886I0.200J0.000
N5330G1Y86.086
N5340G2X84.720Y84.686I0.000J-1.400
N5350G2X83.320Y83.286I-1.400J0.000
N5360G2X81.920Y84.686I0.000J1.400
N5370G2X83.320Y86.086I1.400J0.000
N5380G1Y87.286
N5390G2X85.920Y84.686I0.000J-2.600
N5400G2X83.320Y82.086I-2.600J0.000
N5410G2X80.720Y84.686I0.000J2.600
N5420G2X83.320Y87.286I2.600J0.000
N5430G1Y88.486
N5440G2X87.120Y84.686I0.000J-3.800
N5450G2X83.320Y80.886I-3.800J0.000
N5460G2X79.520Y84.686I0.000J3.800
N5470G2X83.320Y88.486I3.800J0.000
N5480G1Y89.686
N5490G2X88.320Y84.686I0.000J-5.000
N5500G2X83.320Y79.686I-5.000J0.000
N5510G2X78.320Y84.686I0.000J5.000
N5520G2X83.320Y89.686I5.000J0.000
N5530G1Y90.886
N5540G2X89.520Y84.686I0.000J-6.200
N5550G2X83.320Y78.486I-6.200J0.000
N5560G2X77.120Y84.686I0.000J6.200
N5570G2X83.320Y90.886I6.200J0.000
N5580G1Y92.086
N5590G2X90.720Y84.686I0.000J-7.400
N5600G2X83.320Y77.286I-7.400J0.000
N5610G2X75.920Y84.686I0.000J7.400
N5620G2X83.320Y92.086I7.400J0.000
N5630G1Y93.286
N5640G2X91.920Y84.686I0.000J-8.600
N5650G2X83.320Y76.086I-8.600J0.000
N5660G2X74.720Y84.686I0.000J8.600
N5670G2X83.320Y93.286I8.600J0.000
N5680G1Y94.486
N5690G2X93.120Y84.686I0.000J-9.800
N5700G2X83.320Y74.886I-9.800J0.000
N5710G2X73.520Y84.686I0.000J9.800
N5720G2X83.320Y94.486I9.800J0.000
N5730G1Y95.686
N5740G2X94.320Y84.686I0.000J-11.000
N5750G2X83.320Y73.686I-11.000J0.000
N5760G2X72.320Y84.686I0.000J11.000
N5770G2X83.320Y95.686I11.000J0.000
N5780G00Z6.000
N5790G00Y84.886
N5800G1Z-0.943F172.0
N5810G2X83.520Y84.686I0.000J-0.200F516.0
N5820G2X83.320Y84.486I-0.200J0.000
N5830G2X83.120Y84.686I0.000J0.200
N5840G2X83.320Y84.886I0.200J0.000
N5850G1Y86.086
N5860G2X84.720Y84.686I0.000J-1.400
N5870G2X83.320Y83.286I-1.400J0.000
N5880G2X81.920Y84.686I0.000J1.400
N5890G2X83.320Y86.086I1.400J0.000
N5900G1Y87.286
N5910G2X85.920Y84.686I0.000J-2.600
N5920G2X83.320Y82.086I-2.600J0.000
N5930G2X80.720Y84.686I0.000J2.600
N5940G2X83.320Y87.286I2.600J0.000
N5950G1Y88.486
N5960G2X87.120Y84.686I0.000J-3.800
N5970G2X83.320Y80.886I-3.800J0.000
N5980G2X79.520Y84.686I0.000J3.800
N5990G2X83.320Y88.486I3.800J0.000
N6000G1Y89.686
N6010G2X88.320Y84.686I0.000J-5.000
N6020G2X83.320Y79.686I-5.000J0.000
N6030G2X78.320Y84.686I0.000J5.000
N6040G2X83.320Y89.686I5.000J0.000
N6050G1Y90.886
N6060G2X89.520Y84.686I0.000J-6.200
N6070G2X83.320Y78.486I-6.200J0.000
N6080G2X77.120Y84.686I0.000J6.200
N6090G2X83.320Y90.886I6.200J0.000
N6100G1Y92.086
N6110G2X90.720Y84.686I0.000J-7.400
N6120G2X83.320Y77.286I-7.400J0.000
N6130G2X75.920Y84.686I0.000J7.400
N6140G2X83.320Y92.086I7.400J0.000
N6150G1Y93.286
N6160G2X91.920Y84.686I0.000J-8.600
N6170G2X83.320Y76.086I-8.600J0.000
N6180G2X74.720Y84.686I0.000J8.600
N6190G2X83.320Y93.286I8.600J0.000
N6200G1Y94.486
N6210G2X93.120Y84.686I0.000J-9.800
N6220G2X83.320Y74.886I-9.800J0.000
N6230G2X73.520Y84.686I0.000J9.800
N6240G2X83.320Y94.486I9.800J0.000
N6250G1Y95.686
N6260G2X94.320Y84.686I0.000J-11.000
N6270G2X83.320Y73.686I-11.000J0.000
N6280G2X72.320Y84.686I0.000J11.000
N6290G2X83.320Y95.686I11.000J0.000
N6300G00Z6.000
N6310G00Y84.886
N6320G1Z-1.414F172.0
N6330G2X83.520Y84.686I0.000J-0.200F516.0
N6340G2X83.320Y84.486I-0.200J0.000
N6350G2X83.120Y84.686I0.000J0.200
N6360G2X83.320Y84.886I0.200J0.000
N6370G1Y86.086
N6380G2X84.720Y84.686I0.000J-1.400
N6390G2X83.320Y83.286I-1.400J0.000
N6400G2X81.920Y84.686I0.000J1.400
N6410G2X83.320Y86.086I1.400J0.000
N6420G1Y87.286
N6430G2X85.920Y84.686I0.000J-2.600
N6440G2X83.320Y82.086I-2.600J0.000
N6450G2X80.720Y84.686I0.000J2.600
N6460G2X83.320Y87.286I2.600J0.000
N6470G1Y88.486
N6480G2X87.120Y84.686I0.000J-3.800
N6490G2X83.320Y80.886I-3.800J0.000
N6500G2X79.520Y84.686I0.000J3.800
N6510G2X83.320Y88.486I3.800J0.000
N6520G1Y89.686
N6530G2X88.320Y84.686I0.000J-5.000
N6540G2X83.320Y79.686I-5.000J0.000
N6550G2X78.320Y84.686I0.000J5.000
N6560G2X83.320Y89.686I5.000J0.000
N6570G1Y90.886
N6580G2X89.520Y84.686I0.000J-6.200
N6590G2X83.320Y78.486I-6.200J0.000
N6600G2X77.120Y84.686I0.000J6.200
N6610G2X83.320Y90.886I6.200J0.000
N6620G1Y92.086
N6630G2X90.720Y84.686I0.000J-7.400
N6640G2X83.320Y77.286I-7.400J0.000
N6650G2X75.920Y84.686I0.000J7.400
N6660G2X83.320Y92.086I7.400J0.000
N6670G1Y93.286
N6680G2X91.920Y84.686I0.000J-8.600
N6690G2X83.320Y76.086I-8.600J0.000
N6700G2X74.720Y84.686I0.000J8.600
N6710G2X83.320Y93.286I8.600J0.000
N6720G1Y94.486
N6730G2X93.120Y84.686I0.000J-9.800
N6740G2X83.320Y74.886I-9.800J0.000
N6750G2X73.520Y84.686I0.000J9.800
N6760G2X83.320Y94.486I9.800J0.000
N6770G1Y95.686
N6780G2X94.320Y84.686I0.000J-11.000
N6790G2X83.320Y73.686I-11.000J0.000
N6800G2X72.320Y84.686I0.000J11.000
N6810G2X83.320Y95.686I11.000J0.000
N6820G00Z6.000
N6830G00Y84.886
N6840G1Z-1.886F172.0
N6850G2X83.520Y84.686I0.000J-0.200F516.0
N6860G2X83.320Y84.486I-0.200J0.000
N6870G2X83.120Y84.686I0.000J0.200
N6880G2X83.320Y84.886I0.200J0.000
N6890G1Y86.086
N6900G2X84.720Y84.686I0.000J-1.400
N6910G2X83.320Y83.286I-1.400J0.000
N6920G2X81.920Y84.686I0.000J1.400
N6930G2X83.320Y86.086I1.400J0.000
N6940G1Y87.286
N6950G2X85.920Y84.686I0.000J-2.600
N6960G2X83.320Y82.086I-2.600J0.000
N6970G2X80.720Y84.686I0.000J2.600
N6980G2X83.320Y87.286I2.600J0.000
N6990G1Y88.486
N7000G2X87.120Y84.686I0.000J-3.800
N7010G2X83.320Y80.886I-3.800J0.000
N7020G2X79.520Y84.686I0.000J3.800
N7030G2X83.320Y88.486I3.800J0.000
N7040G1Y89.686
N7050G2X88.320Y84.686I0.000J-5.000
N7060G2X83.320Y79.686I-5.000J0.000
N7070G2X78.320Y84.686I0.000J5.000
N7080G2X83.320Y89.686I5.000J0.000
N7090G1Y90.886
N7100G2X89.520Y84.686I0.000J-6.200
N7110G2X83.320Y78.486I-6.200J0.000
N7120G2X77.120Y84.686I0.000J6.200
N7130G2X83.320Y90.886I6.200J0.000
N7140G1Y92.086
N7150G2X90.720Y84.686I0.000J-7.400
N7160G2X83.320Y77.286I-7.400J0.000
N7170G2X75.920Y84.686I0.000J7.400
N7180G2X83.320Y92.086I7.400J0.000
N7190G1Y93.286
N7200G2X91.920Y84.686I0.000J-8.600
N7210G2X83.320Y76.086I-8.600J0.000
N7220G2X74.720Y84.686I0.000J8.600
N7230G2X83.320Y93.286I8.600J0.000
N7240G1Y94.486
N7250G2X93.120Y84.686I0.000J-9.800
N7260G2X83.320Y74.886I-9.800J0.000
N7270G2X73.520Y84.686I0.000J9.800
N7280G2X83.320Y94.486I9.800J0.000
N7290G1Y95.686
N7300G2X94.320Y84.686I0.000J-11.000
N7310G2X83.320Y73.686I-11.000J0.000
N7320G2X72.320Y84.686I0.000J11.000
N7330G2X83.320Y95.686I11.000J0.000
N7340G00Z6.000
N7350G00Y84.886
N7360G1Z-2.357F172.0
N7370G2X83.520Y84.686I0.000J-0.200F516.0
N7380G2X83.320Y84.486I-0.200J0.000
N7390G2X83.120Y84.686I0.000J0.200
N7400G2X83.320Y84.886I0.200J0.000
N7410G1Y86.086
N7420G2X84.720Y84.686I0.000J-1.400
N7430G2X83.320Y83.286I-1.400J0.000
N7440G2X81.920Y84.686I0.000J1.400
N7450G2X83.320Y86.086I1.400J0.000
N7460G1Y87.286
N7470G2X85.920Y84.686I0.000J-2.600
N7480G2X83.320Y82.086I-2.600J0.000
N7490G2X80.720Y84.686I0.000J2.600
N7500G2X83.320Y87.286I2.600J0.000
N7510G1Y88.486
N7520G2X87.120Y84.686I0.000J-3.800
N7530G2X83.320Y80.886I-3.800J0.000
N7540G2X79.520Y84.686I0.000J3.800
N7550G2X83.320Y88.486I3.800J0.000
N7560G1Y89.686
N7570G2X88.320Y84.686I0.000J-5.000
N7580G2X83.320Y79.686I-5.000J0.000
N7590G2X78.320Y84.686I0.000J5.000
N7600G2X83.320Y89.686I5.000J0.000
N7610G1Y90.886
N7620G2X89.520Y84.686I0.000J-6.200
N7630G2X83.320Y78.486I-6.200J0.000
N7640G2X77.120Y84.686I0.000J6.200
N7650G2X83.320Y90.886I6.200J0.000
N7660G1Y92.086
N7670G2X90.720Y84.686I0.000J-7.400
N7680G2X83.320Y77.286I-7.400J0.000
N7690G2X75.920Y84.686I0.000J7.400
N7700G2X83.320Y92.086I7.400J0.000
N7710G1Y93.286
N7720G2X91.920Y84.686I0.000J-8.600
N7730G2X83.320Y76.086I-8.600J0.000
N7740G2X74.720Y84.686I0.000J8.600
N7750G2X83.320Y93.286I8.600J0.000
N7760G1Y94.486
N7770G2X93.120Y84.686I0.000J-9.800
N7780G2X83.320Y74.886I-9.800J0.000
N7790G2X73.520Y84.686I0.000J9.800
N7800G2X83.320Y94.486I9.800J0.000
N7810G1Y95.686
N7820G2X94.320Y84.686I0.000J-11.000
N7830G2X83.320Y73.686I-11.000J0.000
N7840G2X72.320Y84.686I0.000J11.000
N7850G2X83.320Y95.686I11.000J0.000
N7860G00Z6.000
N7870G00Y84.886
N7880G1Z-2.829F172.0
N7890G2X83.520Y84.686I0.000J-0.200F516.0
N7900G2X83.320Y84.486I-0.200J0.000
N7910G2X83.120Y84.686I0.000J0.200
N7920G2X83.320Y84.886I0.200J0.000
N7930G1Y86.086
N7940G2X84.720Y84.686I0.000J-1.400
N7950G2X83.320Y83.286I-1.400J0.000
N7960G2X81.920Y84.686I0.000J1.400
N7970G2X83.320Y86.086I1.400J0.000
N7980G1Y87.286
N7990G2X85.920Y84.686I0.000J-2.600
N8000G2X83.320Y82.086I-2.600J0.000
N8010G2X80.720Y84.686I0.000J2.600
N8020G2X83.320Y87.286I2.600J0.000
N8030G1Y88.486
N8040G2X87.120Y84.686I0.000J-3.800
N8050G2X83.320Y80.886I-3.800J0.000
N8060G2X79.520Y84.686I0.000J3.800
N8070G2X83.320Y88.486I3.800J0.000
N8080G1Y89.686
N8090G2X88.320Y84.686I0.000J-5.000
N8100G2X83.320Y79.686I-5.000J0.000
N8110G2X78.320Y84.686I0.000J5.000
N8120G2X83.320Y89.686I5.000J0.000
N8130G1Y90.886
N8140G2X89.520Y84.686I0.000J-6.200
N8150G2X83.320Y78.486I-6.200J0.000
N8160G2X77.120Y84.686I0.000J6.200
N8170G2X83.320Y90.886I6.200J0.000
N8180G1Y92.086
N8190G2X90.720Y84.686I0.000J-7.400
N8200G2X83.320Y77.286I-7.400J0.000
N8210G2X75.920Y84.686I0.000J7.400
N8220G2X83.320Y92.086I7.400J0.000
N8230G1Y93.286
N8240G2X91.920Y84.686I0.000J-8.600
N8250G2X83.320Y76.086I-8.600J0.000
N8260G2X74.720Y84.686I0.000J8.600
N8270G2X83.320Y93.286I8.600J0.000
N8280G1Y94.486
N8290G2X93.120Y84.686I0.000J-9.800
N8300G2X83.320Y74.886I-9.800J0.000
N8310G2X73.520Y84.686I0.000J9.800
N8320G2X83.320Y94.486I9.800J0.000
N8330G1Y95.686
N8340G2X94.320Y84.686I0.000J-11.000
N8350G2X83.320Y73.686I-11.000J0.000
N8360G2X72.320Y84.686I0.000J11.000
N8370G2X83.320Y95.686I11.000J0.000
N8380G00Z6.000
N8390G00Y84.886
N8400G1Z-3.300F172.0
N8410G2X83.520Y84.686I0.000J-0.200F516.0
N8420G2X83.320Y84.486I-0.200J0.000
N8430G2X83.120Y84.686I0.000J0.200
N8440G2X83.320Y84.886I0.200J0.000
N8450G1Y86.086
N8460G2X84.720Y84.686I0.000J-1.400
N8470G2X83.320Y83.286I-1.400J0.000
N8480G2X81.920Y84.686I0.000J1.400
N8490G2X83.320Y86.086I1.400J0.000
N8500G1Y87.286
N8510G2X85.920Y84.686I0.000J-2.600
N8520G2X83.320Y82.086I-2.600J0.000
N8530G2X80.720Y84.686I0.000J2.600
N8540G2X83.320Y87.286I2.600J0.000
N8550G1Y88.486
N8560G2X87.120Y84.686I0.000J-3.800
N8570G2X83.320Y80.886I-3.800J0.000
N8580G2X79.520Y84.686I0.000J3.800
N8590G2X83.320Y88.486I3.800J0.000
N8600G1Y89.686
N8610G2X88.320Y84.686I0.000J-5.000
N8620G2X83.320Y79.686I-5.000J0.000
N8630G2X78.320Y84.686I0.000J5.000
N8640G2X83.320Y89.686I5.000J0.000
N8650G1Y90.886
N8660G2X89.520Y84.686I0.000J-6.200
N8670G2X83.320Y78.486I-6.200J0.000
N8680G2X77.120Y84.686I0.000J6.200
N8690G2X83.320Y90.886I6.200J0.000
N8700G1Y92.086
N8710G2X90.720Y84.686I0.000J-7.400
N8720G2X83.320Y77.286I-7.400J0.000
N8730G2X75.920Y84.686I0.000J7.400
N8740G2X83.320Y92.086I7.400J0.000
N8750G1Y93.286
N8760G2X91.920Y84.686I0.000J-8.600
N8770G2X83.320Y76.086I-8.600J0.000
N8780G2X74.720Y84.686I0.000J8.600
N8790G2X83.320Y93.286I8.600J0.000
N8800G1Y94.486
N8810G2X93.120Y84.686I0.000J-9.800
N8820G2X83.320Y74.886I-9.800J0.000
N8830G2X73.520Y84.686I0.000J9.800
N8840G2X83.320Y94.486I9.800J0.000
N8850G1Y95.686
N8860G2X94.320Y84.686I0.000J-11.000
N8870G2X83.320Y73.686I-11.000J0.000
N8880G2X72.320Y84.686I0.000J11.000
N8890G2X83.320Y95.686I11.000J0.000
N8900G00Z6.000
N8910G00Y84.886
N8920G1Z-3.771F172.0
N8930G2X83.520Y84.686I0.000J-0.200F516.0
N8940G2X83.320Y84.486I-0.200J0.000
N8950G2X83.120Y84.686I0.000J0.200
N8960G2X83.320Y84.886I0.200J0.000
N8970G1Y86.086
N8980G2X84.720Y84.686I0.000J-1.400
N8990G2X83.320Y83.286I-1.400J0.000
N9000G2X81.920Y84.686I0.000J1.400
N9010G2X83.320Y86.086I1.400J0.000
N9020G1Y87.286
N9030G2X85.920Y84.686I0.000J-2.600
N9040G2X83.320Y82.086I-2.600J0.000
N9050G2X80.720Y84.686I0.000J2.600
N9060G2X83.320Y87.286I2.600J0.000
N9070G1Y88.486
N9080G2X87.120Y84.686I0.000J-3.800
N9090G2X83.320Y80.886I-3.800J0.000
N9100G2X79.520Y84.686I0.000J3.800
N9110G2X83.320Y88.486I3.800J0.000
N9120G1Y89.686
N9130G2X88.320Y84.686I0.000J-5.000
N9140G2X83.320Y79.686I-5.000J0.000
N9150G2X78.320Y84.686I0.000J5.000
N9160G2X83.320Y89.686I5.000J0.000
N9170G1Y90.886
N9180G2X89.520Y84.686I0.000J-6.200
N9190G2X83.320Y78.486I-6.200J0.000
N9200G2X77.120Y84.686I0.000J6.200
N9210G2X83.320Y90.886I6.200J0.000
N9220G1Y92.086
N9230G2X90.720Y84.686I0.000J-7.400
N9240G2X83.320Y77.286I-7.400J0.000
N9250G2X75.920Y84.686I0.000J7.400
N9260G2X83.320Y92.086I7.400J0.000
N9270G1Y93.286
N9280G2X91.920Y84.686I0.000J-8.600
N9290G2X83.320Y76.086I-8.600J0.000
N9300G2X74.720Y84.686I0.000J8.600
N9310G2X83.320Y93.286I8.600J0.000
N9320G1Y94.486
N9330G2X93.120Y84.686I0.000J-9.800
N9340G2X83.320Y74.886I-9.800J0.000
N9350G2X73.520Y84.686I0.000J9.800
N9360G2X83.320Y94.486I9.800J0.000
N9370G1Y95.686
N9380G2X94.320Y84.686I0.000J-11.000
N9390G2X83.320Y73.686I-11.000J0.000
N9400G2X72.320Y84.686I0.000J11.000
N9410G2X83.320Y95.686I11.000J0.000
N9420G00Z6.000
N9430G00Y84.886
N9440G1Z-4.243F172.0
N9450G2X83.520Y84.686I0.000J-0.200F516.0
N9460G2X83.320Y84.486I-0.200J0.000
N9470G2X83.120Y84.686I0.000J0.200
N9480G2X83.320Y84.886I0.200J0.000
N9490G1Y86.086
N9500G2X84.720Y84.686I0.000J-1.400
N9510G2X83.320Y83.286I-1.400J0.000
N9520G2X81.920Y84.686I0.000J1.400
N9530G2X83.320Y86.086I1.400J0.000
N9540G1Y87.286
N9550G2X85.920Y84.686I0.000J-2.600
N9560G2X83.320Y82.086I-2.600J0.000
N9570G2X80.720Y84.686I0.000J2.600
N9580G2X83.320Y87.286I2.600J0.000
N9590G1Y88.486
N9600G2X87.120Y84.686I0.000J-3.800
N9610G2X83.320Y80.886I-3.800J0.000
N9620G2X79.520Y84.686I0.000J3.800
N9630G2X83.320Y88.486I3.800J0.000
N9640G1Y89.686
N9650G2X88.320Y84.686I0.000J-5.000
N9660G2X83.320Y79.686I-5.000J0.000
N9670G2X78.320Y84.686I0.000J5.000
N9680G2X83.320Y89.686I5.000J0.000
N9690G1Y90.886
N9700G2X89.520Y84.686I0.000J-6.200
N9710G2X83.320Y78.486I-6.200J0.000
N9720G2X77.120Y84.686I0.000J6.200
N9730G2X83.320Y90.886I6.200J0.000
N9740G1Y92.086
N9750G2X90.720Y84.686I0.000J-7.400
N9760G2X83.320Y77.286I-7.400J0.000
N9770G2X75.920Y84.686I0.000J7.400
N9780G2X83.320Y92.086I7.400J0.000
N9790G1Y93.286
N9800G2X91.920Y84.686I0.000J-8.600
N9810G2X83.320Y76.086I-8.600J0.000
N9820G2X74.720Y84.686I0.000J8.600
N9830G2X83.320Y93.286I8.600J0.000
N9840G1Y94.486
N9850G2X93.120Y84.686I0.000J-9.800
N9860G2X83.320Y74.886I-9.800J0.000
N9870G2X73.520Y84.686I0.000J9.800
N9880G2X83.320Y94.486I9.800J0.000
N9890G1Y95.686
N9900G2X94.320Y84.686I0.000J-11.000
N9910G2X83.320Y73.686I-11.000J0.000
N9920G2X72.320Y84.686I0.000J11.000
N9930G2X83.320Y95.686I11.000J0.000
N9940G00Z6.000
N9950G00Y84.886
N9960G1Z-4.714F172.0
N9970G2X83.520Y84.686I0.000J-0.200F516.0
N9980G2X83.320Y84.486I-0.200J0.000
N9990G2X83.120Y84.686I0.000J0.200
N10000G2X83.320Y84.886I0.200J0.000
N10010G1Y86.086
N10020G2X84.720Y84.686I0.000J-1.400
N10030G2X83.320Y83.286I-1.400J0.000
N10040G2X81.920Y84.686I0.000J1.400
N10050G2X83.320Y86.086I1.400J0.000
N10060G1Y87.286
N10070G2X85.920Y84.686I0.000J-2.600
N10080G2X83.320Y82.086I-2.600J0.000
N10090G2X80.720Y84.686I0.000J2.600
N10100G2X83.320Y87.286I2.600J0.000
N10110G1Y88.486
N10120G2X87.120Y84.686I0.000J-3.800
N10130G2X83.320Y80.886I-3.800J0.000
N10140G2X79.520Y84.686I0.000J3.800
N10150G2X83.320Y88.486I3.800J0.000
N10160G1Y89.686
N10170G2X88.320Y84.686I0.000J-5.000
N10180G2X83.320Y79.686I-5.000J0.000
N10190G2X78.320Y84.686I0.000J5.000
N10200G2X83.320Y89.686I5.000J0.000
N10210G1Y90.886
N10220G2X89.520Y84.686I0.000J-6.200
N10230G2X83.320Y78.486I-6.200J0.000
N10240G2X77.120Y84.686I0.000J6.200
N10250G2X83.320Y90.886I6.200J0.000
N10260G1Y92.086
N10270G2X90.720Y84.686I0.000J-7.400
N10280G2X83.320Y77.286I-7.400J0.000
N10290G2X75.920Y84.686I0.000J7.400
N10300G2X83.320Y92.086I7.400J0.000
N10310G1Y93.286
N10320G2X91.920Y84.686I0.000J-8.600
N10330G2X83.320Y76.086I-8.600J0.000
N10340G2X74.720Y84.686I0.000J8.600
N10350G2X83.320Y93.286I8.600J0.000
N10360G1Y94.486
N10370G2X93.120Y84.686I0.000J-9.800
N10380G2X83.320Y74.886I-9.800J0.000
N10390G2X73.520Y84.686I0.000J9.800
N10400G2X83.320Y94.486I9.800J0.000
N10410G1Y95.686
N10420G2X94.320Y84.686I0.000J-11.000
N10430G2X83.320Y73.686I-11.000J0.000
N10440G2X72.320Y84.686I0.000J11.000
N10450G2X83.320Y95.686I11.000J0.000
N10460G00Z6.000
N10470G00Y84.886
N10480G1Z-5.186F172.0
N10490G2X83.520Y84.686I0.000J-0.200F516.0
N10500G2X83.320Y84.486I-0.200J0.000
N10510G2X83.120Y84.686I0.000J0.200
N10520G2X83.320Y84.886I0.200J0.000
N10530G1Y86.086
N10540G2X84.720Y84.686I0.000J-1.400
N10550G2X83.320Y83.286I-1.400J0.000
N10560G2X81.920Y84.686I0.000J1.400
N10570G2X83.320Y86.086I1.400J0.000
N10580G1Y87.286
N10590G2X85.920Y84.686I0.000J-2.600
N10600G2X83.320Y82.086I-2.600J0.000
N10610G2X80.720Y84.686I0.000J2.600
N10620G2X83.320Y87.286I2.600J0.000
N10630G1Y88.486
N10640G2X87.120Y84.686I0.000J-3.800
N10650G2X83.320Y80.886I-3.800J0.000
N10660G2X79.520Y84.686I0.000J3.800
N10670G2X83.320Y88.486I3.800J0.000
N10680G1Y89.686
N10690G2X88.320Y84.686I0.000J-5.000
N10700G2X83.320Y79.686I-5.000J0.000
N10710G2X78.320Y84.686I0.000J5.000
N10720G2X83.320Y89.686I5.000J0.000
N10730G1Y90.886
N10740G2X89.520Y84.686I0.000J-6.200
N10750G2X83.320Y78.486I-6.200J0.000
N10760G2X77.120Y84.686I0.000J6.200
N10770G2X83.320Y90.886I6.200J0.000
N10780G1Y92.086
N10790G2X90.720Y84.686I0.000J-7.400
N10800G2X83.320Y77.286I-7.400J0.000
N10810G2X75.920Y84.686I0.000J7.400
N10820G2X83.320Y92.086I7.400J0.000
N10830G1Y93.286
N10840G2X91.920Y84.686I0.000J-8.600
N10850G2X83.320Y76.086I-8.600J0.000
N10860G2X74.720Y84.686I0.000J8.600
N10870G2X83.320Y93.286I8.600J0.000
N10880G1Y94.486
N10890G2X93.120Y84.686I0.000J-9.800
N10900G2X83.320Y74.886I-9.800J0.000
N10910G2X73.520Y84.686I0.000J9.800
N10920G2X83.320Y94.486I9.800J0.000
N10930G1Y95.686
N10940G2X94.320Y84.686I0.000J-11.000
N10950G2X83.320Y73.686I-11.000J0.000
N10960G2X72.320Y84.686I0.000J11.000
N10970G2X83.320Y95.686I11.000J0.000
N10980G00Z6.000
N10990G00Y84.886
N11000G1Z-5.657F172.0
N11010G2X83.520Y84.686I0.000J-0.200F516.0
N11020G2X83.320Y84.486I-0.200J0.000
N11030G2X83.120Y84.686I0.000J0.200
N11040G2X83.320Y84.886I0.200J0.000
N11050G1Y86.086
N11060G2X84.720Y84.686I0.000J-1.400
N11070G2X83.320Y83.286I-1.400J0.000
N11080G2X81.920Y84.686I0.000J1.400
N11090G2X83.320Y86.086I1.400J0.000
N11100G1Y87.286
N11110G2X85.920Y84.686I0.000J-2.600
N11120G2X83.320Y82.086I-2.600J0.000
N11130G2X80.720Y84.686I0.000J2.600
N11140G2X83.320Y87.286I2.600J0.000
N11150G1Y88.486
N11160G2X87.120Y84.686I0.000J-3.800
N11170G2X83.320Y80.886I-3.800J0.000
N11180G2X79.520Y84.686I0.000J3.800
N11190G2X83.320Y88.486I3.800J0.000
N11200G1Y89.686
N11210G2X88.320Y84.686I0.000J-5.000
N11220G2X83.320Y79.686I-5.000J0.000
N11230G2X78.320Y84.686I0.000J5.000
N11240G2X83.320Y89.686I5.000J0.000
N11250G1Y90.886
N11260G2X89.520Y84.686I0.000J-6.200
N11270G2X83.320Y78.486I-6.200J0.000
N11280G2X77.120Y84.686I0.000J6.200
N11290G2X83.320Y90.886I6.200J0.000
N11300G1Y92.086
N11310G2X90.720Y84.686I0.000J-7.400
N11320G2X83.320Y77.286I-7.400J0.000
N11330G2X75.920Y84.686I0.000J7.400
N11340G2X83.320Y92.086I7.400J0.000
N11350G1Y93.286
N11360G2X91.920Y84.686I0.000J-8.600
N11370G2X83.320Y76.086I-8.600J0.000
N11380G2X74.720Y84.686I0.000J8.600
N11390G2X83.320Y93.286I8.600J0.000
N11400G1Y94.486
N11410G2X93.120Y84.686I0.000J-9.800
N11420G2X83.320Y74.886I-9.800J0.000
N11430G2X73.520Y84.686I0.000J9.800
N11440G2X83.320Y94.486I9.800J0.000
N11450G1Y95.686
N11460G2X94.320Y84.686I0.000J-11.000
N11470G2X83.320Y73.686I-11.000J0.000
N11480G2X72.320Y84.686I0.000J11.000
N11490G2X83.320Y95.686I11.000J0.000
N11500G00Z6.000
N11510G00Y84.886
N11520G1Z-6.129F172.0
N11530G2X83.520Y84.686I0.000J-0.200F516.0
N11540G2X83.320Y84.486I-0.200J0.000
N11550G2X83.120Y84.686I0.000J0.200
N11560G2X83.320Y84.886I0.200J0.000
N11570G1Y86.086
N11580G2X84.720Y84.686I0.000J-1.400
N11590G2X83.320Y83.286I-1.400J0.000
N11600G2X81.920Y84.686I0.000J1.400
N11610G2X83.320Y86.086I1.400J0.000
N11620G1Y87.286
N11630G2X85.920Y84.686I0.000J-2.600
N11640G2X83.320Y82.086I-2.600J0.000
N11650G2X80.720Y84.686I0.000J2.600
N11660G2X83.320Y87.286I2.600J0.000
N11670G1Y88.486
N11680G2X87.120Y84.686I0.000J-3.800
N11690G2X83.320Y80.886I-3.800J0.000
N11700G2X79.520Y84.686I0.000J3.800
N11710G2X83.320Y88.486I3.800J0.000
N11720G1Y89.686
N11730G2X88.320Y84.686I0.000J-5.000
N11740G2X83.320Y79.686I-5.000J0.000
N11750G2X78.320Y84.686I0.000J5.000
N11760G2X83.320Y89.686I5.000J0.000
N11770G1Y90.886
N11780G2X89.520Y84.686I0.000J-6.200
N11790G2X83.320Y78.486I-6.200J0.000
N11800G2X77.120Y84.686I0.000J6.200
N11810G2X83.320Y90.886I6.200J0.000
N11820G1Y92.086
N11830G2X90.720Y84.686I0.000J-7.400
N11840G2X83.320Y77.286I-7.400J0.000
N11850G2X75.920Y84.686I0.000J7.400
N11860G2X83.320Y92.086I7.400J0.000
N11870G1Y93.286
N11880G2X91.920Y84.686I0.000J-8.600
N11890G2X83.320Y76.086I-8.600J0.000
N11900G2X74.720Y84.686I0.000J8.600
N11910G2X83.320Y93.286I8.600J0.000
N11920G1Y94.486
N11930G2X93.120Y84.686I0.000J-9.800
N11940G2X83.320Y74.886I-9.800J0.000
N11950G2X73.520Y84.686I0.000J9.800
N11960G2X83.320Y94.486I9.800J0.000
N11970G1Y95.686
N11980G2X94.320Y84.686I0.000J-11.000
N11990G2X83.320Y73.686I-11.000J0.000
N12000G2X72.320Y84.686I0.000J11.000
N12010G2X83.320Y95.686I11.000J0.000
N12020G00Z6.000
N12030G00Y84.886
N12040G1Z-6.600F172.0
N12050G2X83.520Y84.686I0.000J-0.200F516.0
N12060G2X83.320Y84.486I-0.200J0.000
N12070G2X83.120Y84.686I0.000J0.200
N12080G2X83.320Y84.886I0.200J0.000
N12090G1Y86.086
N12100G2X84.720Y84.686I0.000J-1.400
N12110G2X83.320Y83.286I-1.400J0.000
N12120G2X81.920Y84.686I0.000J1.400
N12130G2X83.320Y86.086I1.400J0.000
N12140G1Y87.286
N12150G2X85.920Y84.686I0.000J-2.600
N12160G2X83.320Y82.086I-2.600J0.000
N12170G2X80.720Y84.686I0.000J2.600
N12180G2X83.320Y87.286I2.600J0.000
N12190G1Y88.486
N12200G2X87.120Y84.686I0.000J-3.800
N12210G2X83.320Y80.886I-3.800J0.000
N12220G2X79.520Y84.686I0.000J3.800
N12230G2X83.320Y88.486I3.800J0.000
N12240G1Y89.686
N12250G2X88.320Y84.686I0.000J-5.000
N12260G2X83.320Y79.686I-5.000J0.000
N12270G2X78.320Y84.686I0.000J5.000
N12280G2X83.320Y89.686I5.000J0.000
N12290G1Y90.886
N12300G2X89.520Y84.686I0.000J-6.200
N12310G2X83.320Y78.486I-6.200J0.000
N12320G2X77.120Y84.686I0.000J6.200
N12330G2X83.320Y90.886I6.200J0.000
N12340G1Y92.086
N12350G2X90.720Y84.686I0.000J-7.400
N12360G2X83.320Y77.286I-7.400J0.000
N12370G2X75.920Y84.686I0.000J7.400
N12380G2X83.320Y92.086I7.400J0.000
N12390G1Y93.286
N12400G2X91.920Y84.686I0.000J-8.600
N12410G2X83.320Y76.086I-8.600J0.000
N12420G2X74.720Y84.686I0.000J8.600
N12430G2X83.320Y93.286I8.600J0.000
N12440G1Y94.486
N12450G2X93.120Y84.686I0.000J-9.800
N12460G2X83.320Y74.886I-9.800J0.000
N12470G2X73.520Y84.686I0.000J9.800
N12480G2X83.320Y94.486I9.800J0.000
N12490G1Y95.686
N12500G2X94.320Y84.686I0.000J-11.000
N12510G2X83.320Y73.686I-11.000J0.000
N12520G2X72.320Y84.686I0.000J11.000
N12530G2X83.320Y95.686I11.000J0.000
N12540G00Z6.000
N12550G00X98.820Y100.286
N12560G1Z-0.471F172.0
N12570G2X98.920Y100.186I0.000J-0.100F516.0
N12580G2X98.820Y100.086I-0.100J0.000
N12590G2X98.720Y100.186I0.000J0.100
N12600G2X98.820Y100.286I0.100J0.000
N12610G00Z6.000
N12620G1Z-0.943F172.0
N12630G2X98.920Y100.186I0.000J-0.100F516.0
N12640G2X98.820Y100.086I-0.100J0.000
N12650G2X98.720Y100.186I0.000J0.100
N12660G2X98.820Y100.286I0.100J0.000
N12670G00Z6.000
N12680G1Z-1.414F172.0
N12690G2X98.920Y100.186I0.000J-0.100F516.0
N12700G2X98.820Y100.086I-0.100J0.000
N12710G2X98.720Y100.186I0.000J0.100
N12720G2X98.820Y100.286I0.100J0.000
N12730G00Z6.000
N12740G1Z-1.886F172.0
N12750G2X98.920Y100.186I0.000J-0.100F516.0
N12760G2X98.820Y100.086I-0.100J0.000
N12770G2X98.720Y100.186I0.000J0.100
N12780G2X98.820Y100.286I0.100J0.000
N12790G00Z6.000
N12800G1Z-2.357F172.0
N12810G2X98.920Y100.186I0.000J-0.100F516.0
N12820G2X98.820Y100.086I-0.100J0.000
N12830G2X98.720Y100.186I0.000J0.100
N12840G2X98.820Y100.286I0.100J0.000
N12850G00Z6.000
N12860G1Z-2.829F172.0
N12870G2X98.920Y100.186I0.000J-0.100F516.0
N12880G2X98.820Y100.086I-0.100J0.000
N12890G2X98.720Y100.186I0.000J0.100
N12900G2X98.820Y100.286I0.100J0.000
N12910G00Z6.000
N12920G1Z-3.300F172.0
N12930G2X98.920Y100.186I0.000J-0.100F516.0
N12940G2X98.820Y100.086I-0.100J0.000
N12950G2X98.720Y100.186I0.000J0.100
N12960G2X98.820Y100.286I0.100J0.000
N12970G00Z6.000
N12980G1Z-3.771F172.0
N12990G2X98.920Y100.186I0.000J-0.100F516.0
N13000G2X98.820Y100.086I-0.100J0.000
N13010G2X98.720Y100.186I0.000J0.100
N13020G2X98.820Y100.286I0.100J0.000
N13030G00Z6.000
N13040G1Z-4.243F172.0
N13050G2X98.920Y100.186I0.000J-0.100F516.0
N13060G2X98.820Y100.086I-0.100J0.000
N13070G2X98.720Y100.186I0.000J0.100
N13080G2X98.820Y100.286I0.100J0.000
N13090G00Z6.000
N13100G1Z-4.714F172.0
N13110G2X98.920Y100.186I0.000J-0.100F516.0
N13120G2X98.820Y100.086I-0.100J0.000
N13130G2X98.720Y100.186I0.000J0.100
N13140G2X98.820Y100.286I0.100J0.000
N13150G00Z6.000
N13160G1Z-5.186F172.0
N13170G2X98.920Y100.186I0.000J-0.100F516.0
N13180G2X98.820Y100.086I-0.100J0.000
N13190G2X98.720Y100.186I0.000J0.100
N13200G2X98.820Y100.286I0.100J0.000
N13210G00Z6.000
N13220G1Z-5.657F172.0
N13230G2X98.920Y100.186I0.000J-0.100F516.0
N13240G2X98.820Y100.086I-0.100J0.000
N13250G2X98.720Y100.186I0.000J0.100
N13260G2X98.820Y100.286I0.100J0.000
N13270G00Z6.000
N13280G1Z-6.129F172.0
N13290G2X98.920Y100.186I0.000J-0.100F516.0
N13300G2X98.820Y100.086I-0.100J0.000
N13310G2X98.720Y100.186I0.000J0.100
N13320G2X98.820Y100.286I0.100J0.000
N13330G00Z6.000
N13340G1Z-6.600F172.0
N13350G2X98.920Y100.186I0.000J-0.100F516.0
N13360G2X98.820Y100.086I-0.100J0.000
N13370G2X98.720Y100.186I0.000J0.100
N13380G2X98.820Y100.286I0.100J0.000
N13390G00Z6.000
N13400G00X93.640Y121.836
N13410G1Z-0.471F172.0
N13420G2X94.790Y120.686I0.000J-1.150F516.0
N13430G2X93.640Y119.536I-1.150J0.000
N13440G2X92.490Y120.686I0.000J1.150
N13450G2X93.640Y121.836I1.150J0.000
N13460G00Z6.000
N13470G1Z-0.943F172.0
N13480G2X94.790Y120.686I0.000J-1.150F516.0
N13490G2X93.640Y119.536I-1.150J0.000
N13500G2X92.490Y120.686I0.000J1.150
N13510G2X93.640Y121.836I1.150J0.000
N13520G00Z6.000
N13530G1Z-1.414F172.0
N13540G2X94.790Y120.686I0.000J-1.150F516.0
N13550G2X93.640Y119.536I-1.150J0.000
N13560G2X92.490Y120.686I0.000J1.150
N13570G2X93.640Y121.836I1.150J0.000
N13580G00Z6.000
N13590G1Z-1.886F172.0
N13600G2X94.790Y120.686I0.000J-1.150F516.0
N13610G2X93.640Y119.536I-1.150J0.000
N13620G2X92.490Y120.686I0.000J1.150
N13630G2X93.640Y121.836I1.150J0.000
N13640G00Z6.000
N13650G1Z-2.357F172.0
N13660G2X94.790Y120.686I0.000J-1.150F516.0
N13670G2X93.640Y119.536I-1.150J0.000
N13680G2X92.490Y120.686I0.000J1.150
N13690G2X93.640Y121.836I1.150J0.000
N13700G00Z6.000
N13710G1Z-2.829F172.0
N13720G2X94.790Y120.686I0.000J-1.150F516.0
N13730G2X93.640Y119.536I-1.150J0.000
N13740G2X92.490Y120.686I0.000J1.150
N13750G2X93.640Y121.836I1.150J0.000
N13760G00Z6.000
N13770G1Z-3.300F172.0
N13780G2X94.790Y120.686I0.000J-1.150F516.0
N13790G2X93.640Y119.536I-1.150J0.000
N13800G2X92.490Y120.686I0.000J1.150
N13810G2X93.640Y121.836I1.150J0.000
N13820G00Z6.000
N13830G1Z-3.771F172.0
N13840G2X94.790Y120.686I0.000J-1.150F516.0
N13850G2X93.640Y119.536I-1.150J0.000
N13860G2X92.490Y120.686I0.000J1.150
N13870G2X93.640Y121.836I1.150J0.000
N13880G00Z6.000
N13890G1Z-4.243F172.0
N13900G2X94.790Y120.686I0.000J-1.150F516.0
N13910G2X93.640Y119.536I-1.150J0.000
N13920G2X92.490Y120.686I0.000J1.150
N13930G2X93.640Y121.836I1.150J0.000
N13940G00Z6.000
N13950G1Z-4.714F172.0
N13960G2X94.790Y120.686I0.000J-1.150F516.0
N13970G2X93.640Y119.536I-1.150J0.000
N13980G2X92.490Y120.686I0.000J1.150
N13990G2X93.640Y121.836I1.150J0.000
N14000G00Z6.000
N14010G1Z-5.186F172.0
N14020G2X94.790Y120.686I0.000J-1.150F516.0
N14030G2X93.640Y119.536I-1.150J0.000
N14040G2X92.490Y120.686I0.000J1.150
N14050G2X93.640Y121.836I1.150J0.000
N14060G00Z6.000
N14070G1Z-5.657F172.0
N14080G2X94.790Y120.686I0.000J-1.150F516.0
N14090G2X93.640Y119.536I-1.150J0.000
N14100G2X92.490Y120.686I0.000J1.150
N14110G2X93.640Y121.836I1.150J0.000
N14120G00Z6.000
N14130G1Z-6.129F172.0
N14140G2X94.790Y120.686I0.000J-1.150F516.0
N14150G2X93.640Y119.536I-1.150J0.000
N14160G2X92.490Y120.686I0.000J1.150
N14170G2X93.640Y121.836I1.150J0.000
N14180G00Z6.000
N14190G1Z-6.600F172.0
N14200G2X94.790Y120.686I0.000J-1.150F516.0
N14210G2X93.640Y119.536I-1.150J0.000
N14220G2X92.490Y120.686I0.000J1.150
N14230G2X93.640Y121.836I1.150J0.000
N14240G00Z6.000
N14250G00X113.640
N14260G1Z-0.471F172.0
N14270G2X114.790Y120.686I0.000J-1.150F516.0
N14280G2X113.640Y119.536I-1.150J0.000
N14290G2X112.490Y120.686I0.000J1.150
N14300G2X113.640Y121.836I1.150J0.000
N14310G00Z6.000
N14320G1Z-0.943F172.0
N14330G2X114.790Y120.686I0.000J-1.150F516.0
N14340G2X113.640Y119.536I-1.150J0.000
N14350G2X112.490Y120.686I0.000J1.150
N14360G2X113.640Y121.836I1.150J0.000
N14370G00Z6.000
N14380G1Z-1.414F172.0
N14390G2X114.790Y120.686I0.000J-1.150F516.0
N14400G2X113.640Y119.536I-1.150J0.000
N14410G2X112.490Y120.686I0.000J1.150
N14420G2X113.640Y121.836I1.150J0.000
N14430G00Z6.000
N14440G1Z-1.886F172.0
N14450G2X114.790Y120.686I0.000J-1.150F516.0
N14460G2X113.640Y119.536I-1.150J0.000
N14470G2X112.490Y120.686I0.000J1.150
N14480G2X113.640Y121.836I1.150J0.000
N14490G00Z6.000
N14500G1Z-2.357F172.0
N14510G2X114.790Y120.686I0.000J-1.150F516.0
N14520G2X113.640Y119.536I-1.150J0.000
N14530G2X112.490Y120.686I0.000J1.150
N14540G2X113.640Y121.836I1.150J0.000
N14550G00Z6.000
N14560G1Z-2.829F172.0
N14570G2X114.790Y120.686I0.000J-1.150F516.0
N14580G2X113.640Y119.536I-1.150J0.000
N14590G2X112.490Y120.686I0.000J1.150
N14600G2X113.640Y121.836I1.150J0.000
N14610G00Z6.000
N14620G1Z-3.300F172.0
N14630G2X114.790Y120.686I0.000J-1.150F516.0
N14640G2X113.640Y119.536I-1.150J0.000
N14650G2X112.490Y120.686I0.000J1.150
N14660G2X113.640Y121.836I1.150J0.000
N14670G00Z6.000
N14680G1Z-3.771F172.0
N14690G2X114.790Y120.686I0.000J-1.150F516.0
N14700G2X113.640Y119.536I-1.150J0.000
N14710G2X112.490Y120.686I0.000J1.150
N14720G2X113.640Y121.836I1.150J0.000
N14730G00Z6.000
N14740G1Z-4.243F172.0
N14750G2X114.790Y120.686I0.000J-1.150F516.0
N14760G2X113.640Y119.536I-1.150J0.000
N14770G2X112.490Y120.686I0.000J1.150
N14780G2X113.640Y121.836I1.150J0.000
N14790G00Z6.000
N14800G1Z-4.714F172.0
N14810G2X114.790Y120.686I0.000J-1.150F516.0
N14820G2X113.640Y119.536I-1.150J0.000
N14830G2X112.490Y120.686I0.000J1.150
N14840G2X113.640Y121.836I1.150J0.000
N14850G00Z6.000
N14860G1Z-5.186F172.0
N14870G2X114.790Y120.686I0.000J-1.150F516.0
N14880G2X113.640Y119.536I-1.150J0.000
N14890G2X112.490Y120.686I0.000J1.150
N14900G2X113.640Y121.836I1.150J0.000
N14910G00Z6.000
N14920G1Z-5.657F172.0
N14930G2X114.790Y120.686I0.000J-1.150F516.0
N14940G2X113.640Y119.536I-1.150J0.000
N14950G2X112.490Y120.686I0.000J1.150
N14960G2X113.640Y121.836I1.150J0.000
N14970G00Z6.000
N14980G1Z-6.129F172.0
N14990G2X114.790Y120.686I0.000J-1.150F516.0
N15000G2X113.640Y119.536I-1.150J0.000
N15010G2X112.490Y120.686I0.000J1.150
N15020G2X113.640Y121.836I1.150J0.000
N15030G00Z6.000
N15040G1Z-6.600F172.0
N15050G2X114.790Y120.686I0.000J-1.150F516.0
N15060G2X113.640Y119.536I-1.150J0.000
N15070G2X112.490Y120.686I0.000J1.150
N15080G2X113.640Y121.836I1.150J0.000
N15090G00Z6.000
N15100G00X67.820Y69.286
N15110G1Z-0.471F172.0
N15120G2X67.920Y69.186I0.000J-0.100F516.0
N15130G2X67.820Y69.086I-0.100J0.000
N15140G2X67.720Y69.186I0.000J0.100
N15150G2X67.820Y69.286I0.100J0.000
N15160G00Z6.000
N15170G1Z-0.943F172.0
N15180G2X67.920Y69.186I0.000J-0.100F516.0
N15190G2X67.820Y69.086I-0.100J0.000
N15200G2X67.720Y69.186I0.000J0.100
N15210G2X67.820Y69.286I0.100J0.000
N15220G00Z6.000
N15230G1Z-1.414F172.0
N15240G2X67.920Y69.186I0.000J-0.100F516.0
N15250G2X67.820Y69.086I-0.100J0.000
N15260G2X67.720Y69.186I0.000J0.100
N15270G2X67.820Y69.286I0.100J0.000
N15280G00Z6.000
N15290G1Z-1.886F172.0
N15300G2X67.920Y69.186I0.000J-0.100F516.0
N15310G2X67.820Y69.086I-0.100J0.000
N15320G2X67.720Y69.186I0.000J0.100
N15330G2X67.820Y69.286I0.100J0.000
N15340G00Z6.000
N15350G1Z-2.357F172.0
N15360G2X67.920Y69.186I0.000J-0.100F516.0
N15370G2X67.820Y69.086I-0.100J0.000
N15380G2X67.720Y69.186I0.000J0.100
N15390G2X67.820Y69.286I0.100J0.000
N15400G00Z6.000
N15410G1Z-2.829F172.0
N15420G2X67.920Y69.186I0.000J-0.100F516.0
N15430G2X67.820Y69.086I-0.100J0.000
N15440G2X67.720Y69.186I0.000J0.100
N15450G2X67.820Y69.286I0.100J0.000
N15460G00Z6.000
N15470G1Z-3.300F172.0
N15480G2X67.920Y69.186I0.000J-0.100F516.0
N15490G2X67.820Y69.086I-0.100J0.000
N15500G2X67.720Y69.186I0.000J0.100
N15510G2X67.820Y69.286I0.100J0.000
N15520G00Z6.000
N15530G1Z-3.771F172.0
N15540G2X67.920Y69.186I0.000J-0.100F516.0
N15550G2X67.820Y69.086I-0.100J0.000
N15560G2X67.720Y69.186I0.000J0.100
N15570G2X67.820Y69.286I0.100J0.000
N15580G00Z6.000
N15590G1Z-4.243F172.0
N15600G2X67.920Y69.186I0.000J-0.100F516.0
N15610G2X67.820Y69.086I-0.100J0.000
N15620G2X67.720Y69.186I0.000J0.100
N15630G2X67.820Y69.286I0.100J0.000
N15640G00Z6.000
N15650G1Z-4.714F172.0
N15660G2X67.920Y69.186I0.000J-0.100F516.0
N15670G2X67.820Y69.086I-0.100J0.000
N15680G2X67.720Y69.186I0.000J0.100
N15690G2X67.820Y69.286I0.100J0.000
N15700G00Z6.000
N15710G1Z-5.186F172.0
N15720G2X67.920Y69.186I0.000J-0.100F516.0
N15730G2X67.820Y69.086I-0.100J0.000
N15740G2X67.720Y69.186I0.000J0.100
N15750G2X67.820Y69.286I0.100J0.000
N15760G00Z6.000
N15770G1Z-5.657F172.0
N15780G2X67.920Y69.186I0.000J-0.100F516.0
N15790G2X67.820Y69.086I-0.100J0.000
N15800G2X67.720Y69.186I0.000J0.100
N15810G2X67.820Y69.286I0.100J0.000
N15820G00Z6.000
N15830G1Z-6.129F172.0
N15840G2X67.920Y69.186I0.000J-0.100F516.0
N15850G2X67.820Y69.086I-0.100J0.000
N15860G2X67.720Y69.186I0.000J0.100
N15870G2X67.820Y69.286I0.100J0.000
N15880G00Z6.000
N15890G1Z-6.600F172.0
N15900G2X67.920Y69.186I0.000J-0.100F516.0
N15910G2X67.820Y69.086I-0.100J0.000
N15920G2X67.720Y69.186I0.000J0.100
N15930G2X67.820Y69.286I0.100J0.000
N15940G00Z6.000
N15950G00X53.000Y69.586
N15960G1Z-0.471F172.0
N15970G2X53.900Y68.686I0.000J-0.900F516.0
N15980G2X53.000Y67.786I-0.900J0.000
N15990G2X52.100Y68.686I0.000J0.900
N16000G2X53.000Y69.586I0.900J0.000
N16010G1Y70.786
N16020G2X55.100Y68.686I0.000J-2.100
N16030G2X53.000Y66.586I-2.100J0.000
N16040G2X50.900Y68.686I0.000J2.100
N16050G2X53.000Y70.786I2.100J0.000
N16060G00Z6.000
N16070G00Y69.586
N16080G1Z-0.943F172.0
N16090G2X53.900Y68.686I0.000J-0.900F516.0
N16100G2X53.000Y67.786I-0.900J0.000
N16110G2X52.100Y68.686I0.000J0.900
N16120G2X53.000Y69.586I0.900J0.000
N16130G1Y70.786
N16140G2X55.100Y68.686I0.000J-2.100
N16150G2X53.000Y66.586I-2.100J0.000
N16160G2X50.900Y68.686I0.000J2.100
N16170G2X53.000Y70.786I2.100J0.000
N16180G00Z6.000
N16190G00Y69.586
N16200G1Z-1.414F172.0
N16210G2X53.900Y68.686I0.000J-0.900F516.0
N16220G2X53.000Y67.786I-0.900J0.000
N16230G2X52.100Y68.686I0.000J0.900
N16240G2X53.000Y69.586I0.900J0.000
N16250G1Y70.786
N16260G2X55.100Y68.686I0.000J-2.100
N16270G2X53.000Y66.586I-2.100J0.000
N16280G2X50.900Y68.686I0.000J2.100
N16290G2X53.000Y70.786I2.100J0.000
N16300G00Z6.000
N16310G00Y69.586
N16320G1Z-1.886F172.0
N16330G2X53.900Y68.686I0.000J-0.900F516.0
N16340G2X53.000Y67.786I-0.900J0.000
N16350G2X52.100Y68.686I0.000J0.900
N16360G2X53.000Y69.586I0.900J0.000
N16370G1Y70.786
N16380G2X55.100Y68.686I0.000J-2.100
N16390G2X53.000Y66.586I-2.100J0.000
N16400G2X50.900Y68.686I0.000J2.100
N16410G2X53.000Y70.786I2.100J0.000
N16420G00Z6.000
N16430G00Y69.586
N16440G1Z-2.357F172.0
N16450G2X53.900Y68.686I0.000J-0.900F516.0
N16460G2X53.000Y67.786I-0.900J0.000
N16470G2X52.100Y68.686I0.000J0.900
N16480G2X53.000Y69.586I0.900J0.000
N16490G1Y70.786
N16500G2X55.100Y68.686I0.000J-2.100
N16510G2X53.000Y66.586I-2.100J0.000
N16520G2X50.900Y68.686I0.000J2.100
N16530G2X53.000Y70.786I2.100J0.000
N16540G00Z6.000
N16550G00Y69.586
N16560G1Z-2.829F172.0
N16570G2X53.900Y68.686I0.000J-0.900F516.0
N16580G2X53.000Y67.786I-0.900J0.000
N16590G2X52.100Y68.686I0.000J0.900
N16600G2X53.000Y69.586I0.900J0.000
N16610G1Y70.786
N16620G2X55.100Y68.686I0.000J-2.100
N16630G2X53.000Y66.586I-2.100J0.000
N16640G2X50.900Y68.686I0.000J2.100
N16650G2X53.000Y70.786I2.100J0.000
N16660G00Z6.000
N16670G00Y69.586
N16680G1Z-3.300F172.0
N16690G2X53.900Y68.686I0.000J-0.900F516.0
N16700G2X53.000Y67.786I-0.900J0.000
N16710G2X52.100Y68.686I0.000J0.900
N16720G2X53.000Y69.586I0.900J0.000
N16730G1Y70.786
N16740G2X55.100Y68.686I0.000J-2.100
N16750G2X53.000Y66.586I-2.100J0.000
N16760G2X50.900Y68.686I0.000J2.100
N16770G2X53.000Y70.786I2.100J0.000
N16780G00Z6.000
N16790G00Y69.586
N16800G1Z-3.771F172.0
N16810G2X53.900Y68.686I0.000J-0.900F516.0
N16820G2X53.000Y67.786I-0.900J0.000
N16830G2X52.100Y68.686I0.000J0.900
N16840G2X53.000Y69.586I0.900J0.000
N16850G1Y70.786
N16860G2X55.100Y68.686I0.000J-2.100
N16870G2X53.000Y66.586I-2.100J0.000
N16880G2X50.900Y68.686I0.000J2.100
N16890G2X53.000Y70.786I2.100J0.000
N16900G00Z6.000
N16910G00Y69.586
N16920G1Z-4.243F172.0
N16930G2X53.900Y68.686I0.000J-0.900F516.0
N16940G2X53.000Y67.786I-0.900J0.000
N16950G2X52.100Y68.686I0.000J0.900
N16960G2X53.000Y69.586I0.900J0.000
N16970G1Y70.786
N16980G2X55.100Y68.686I0.000J-2.100
N16990G2X53.000Y66.586I-2.100J0.000
N17000G2X50.900Y68.686I0.000J2.100
N17010G2X53.000Y70.786I2.100J0.000
N17020G00Z6.000
N17030G00Y69.586
N17040G1Z-4.714F172.0
N17050G2X53.900Y68.686I0.000J-0.900F516.0
N17060G2X53.000Y67.786I-0.900J0.000
N17070G2X52.100Y68.686I0.000J0.900
N17080G2X53.000Y69.586I0.900J0.000
N17090G1Y70.786
N17100G2X55.100Y68.686I0.000J-2.100
N17110G2X53.000Y66.586I-2.100J0.000
N17120G2X50.900Y68.686I0.000J2.100
N17130G2X53.000Y70.786I2.100J0.000
N17140G00Z6.000
N17150G00Y69.586
N17160G1Z-5.186F172.0
N17170G2X53.900Y68.686I0.000J-0.900F516.0
N17180G2X53.000Y67.786I-0.900J0.000
N17190G2X52.100Y68.686I0.000J0.900
N17200G2X53.000Y69.586I0.900J0.000
N17210G1Y70.786
N17220G2X55.100Y68.686I0.000J-2.100
N17230G2X53.000Y66.586I-2.100J0.000
N17240G2X50.900Y68.686I0.000J2.100
N17250G2X53.000Y70.786I2.100J0.000
N17260G00Z6.000
N17270G00Y69.586
N17280G1Z-5.657F172.0
N17290G2X53.900Y68.686I0.000J-0.900F516.0
N17300G2X53.000Y67.786I-0.900J0.000
N17310G2X52.100Y68.686I0.000J0.900
N17320G2X53.000Y69.586I0.900J0.000
N17330G1Y70.786
N17340G2X55.100Y68.686I0.000J-2.100
N17350G2X53.000Y66.586I-2.100J0.000
N17360G2X50.900Y68.686I0.000J2.100
N17370G2X53.000Y70.786I2.100J0.000
N17380G00Z6.000
N17390G00Y69.586
N17400G1Z-6.129F172.0
N17410G2X53.900Y68.686I0.000J-0.900F516.0
N17420G2X53.000Y67.786I-0.900J0.000
N17430G2X52.100Y68.686I0.000J0.900
N17440G2X53.000Y69.586I0.900J0.000
N17450G1Y70.786
N17460G2X55.100Y68.686I0.000J-2.100
N17470G2X53.000Y66.586I-2.100J0.000
N17480G2X50.900Y68.686I0.000J2.100
N17490G2X53.000Y70.786I2.100J0.000
N17500G00Z6.000
N17510G00Y69.586
N17520G1Z-6.600F172.0
N17530G2X53.900Y68.686I0.000J-0.900F516.0
N17540G2X53.000Y67.786I-0.900J0.000
N17550G2X52.100Y68.686I0.000J0.900
N17560G2X53.000Y69.586I0.900J0.000
N17570G1Y70.786
N17580G2X55.100Y68.686I0.000J-2.100
N17590G2X53.000Y66.586I-2.100J0.000
N17600G2X50.900Y68.686I0.000J2.100
N17610G2X53.000Y70.786I2.100J0.000
N17620G00Z6.000
N17630G00X30.000Y74.436
N17640G1Z-0.471F172.0
N17650G2X30.600Y73.836I0.000J-0.600F516.0
N17660G2X30.000Y73.236I-0.600J0.000
N17670G2X29.400Y73.836I0.000J0.600
N17680G2X30.000Y74.436I0.600J0.000
N17690G00Z6.000
N17700G1Z-0.943F172.0
N17710G2X30.600Y73.836I0.000J-0.600F516.0
N17720G2X30.000Y73.236I-0.600J0.000
N17730G2X29.400Y73.836I0.000J0.600
N17740G2X30.000Y74.436I0.600J0.000
N17750G00Z6.000
N17760G1Z-1.414F172.0
N17770G2X30.600Y73.836I0.000J-0.600F516.0
N17780G2X30.000Y73.236I-0.600J0.000
N17790G2X29.400Y73.836I0.000J0.600
N17800G2X30.000Y74.436I0.600J0.000
N17810G00Z6.000
N17820G1Z-1.886F172.0
N17830G2X30.600Y73.836I0.000J-0.600F516.0
N17840G2X30.000Y73.236I-0.600J0.000
N17850G2X29.400Y73.836I0.000J0.600
N17860G2X30.000Y74.436I0.600J0.000
N17870G00Z6.000
N17880G1Z-2.357F172.0
N17890G2X30.600Y73.836I0.000J-0.600F516.0
N17900G2X30.000Y73.236I-0.600J0.000
N17910G2X29.400Y73.836I0.000J0.600
N17920G2X30.000Y74.436I0.600J0.000
N17930G00Z6.000
N17940G1Z-2.829F172.0
N17950G2X30.600Y73.836I0.000J-0.600F516.0
N17960G2X30.000Y73.236I-0.600J0.000
N17970G2X29.400Y73.836I0.000J0.600
N17980G2X30.000Y74.436I0.600J0.000
N17990G00Z6.000
N18000G1Z-3.300F172.0
N18010G2X30.600Y73.836I0.000J-0.600F516.0
N18020G2X30.000Y73.236I-0.600J0.000
N18030G2X29.400Y73.836I0.000J0.600
N18040G2X30.000Y74.436I0.600J0.000
N18050G00Z6.000
N18060G1Z-3.771F172.0
N18070G2X30.600Y73.836I0.000J-0.600F516.0
N18080G2X30.000Y73.236I-0.600J0.000
N18090G2X29.400Y73.836I0.000J0.600
N18100G2X30.000Y74.436I0.600J0.000
N18110G00Z6.000
N18120G1Z-4.243F172.0
N18130G2X30.600Y73.836I0.000J-0.600F516.0
N18140G2X30.000Y73.236I-0.600J0.000
N18150G2X29.400Y73.836I0.000J0.600
N18160G2X30.000Y74.436I0.600J0.000
N18170G00Z6.000
N18180G1Z-4.714F172.0
N18190G2X30.600Y73.836I0.000J-0.600F516.0
N18200G2X30.000Y73.236I-0.600J0.000
N18210G2X29.400Y73.836I0.000J0.600
N18220G2X30.000Y74.436I0.600J0.000
N18230G00Z6.000
N18240G1Z-5.186F172.0
N18250G2X30.600Y73.836I0.000J-0.600F516.0
N18260G2X30.000Y73.236I-0.600J0.000
N18270G2X29.400Y73.836I0.000J0.600
N18280G2X30.000Y74.436I0.600J0.000
N18290G00Z6.000
N18300G1Z-5.657F172.0
N18310G2X30.600Y73.836I0.000J-0.600F516.0
N18320G2X30.000Y73.236I-0.600J0.000
N18330G2X29.400Y73.836I0.000J0.600
N18340G2X30.000Y74.436I0.600J0.000
N18350G00Z6.000
N18360G1Z-6.129F172.0
N18370G2X30.600Y73.836I0.000J-0.600F516.0
N18380G2X30.000Y73.236I-0.600J0.000
N18390G2X29.400Y73.836I0.000J0.600
N18400G2X30.000Y74.436I0.600J0.000
N18410G00Z6.000
N18420G1Z-6.600F172.0
N18430G2X30.600Y73.836I0.000J-0.600F516.0
N18440G2X30.000Y73.236I-0.600J0.000
N18450G2X29.400Y73.836I0.000J0.600
N18460G2X30.000Y74.436I0.600J0.000
N18470G00Z6.000
N18480G00X10.000Y74.986
N18490G1Z-0.471F172.0
N18500G2X11.150Y73.836I0.000J-1.150F516.0
N18510G2X10.000Y72.686I-1.150J0.000
N18520G2X8.850Y73.836I0.000J1.150
N18530G2X10.000Y74.986I1.150J0.000
N18540G00Z6.000
N18550G1Z-0.943F172.0
N18560G2X11.150Y73.836I0.000J-1.150F516.0
N18570G2X10.000Y72.686I-1.150J0.000
N18580G2X8.850Y73.836I0.000J1.150
N18590G2X10.000Y74.986I1.150J0.000
N18600G00Z6.000
N18610G1Z-1.414F172.0
N18620G2X11.150Y73.836I0.000J-1.150F516.0
N18630G2X10.000Y72.686I-1.150J0.000
N18640G2X8.850Y73.836I0.000J1.150
N18650G2X10.000Y74.986I1.150J0.000
N18660G00Z6.000
N18670G1Z-1.886F172.0
N18680G2X11.150Y73.836I0.000J-1.150F516.0
N18690G2X10.000Y72.686I-1.150J0.000
N18700G2X8.850Y73.836I0.000J1.150
N18710G2X10.000Y74.986I1.150J0.000
N18720G00Z6.000
N18730G1Z-2.357F172.0
N18740G2X11.150Y73.836I0.000J-1.150F516.0
N18750G2X10.000Y72.686I-1.150J0.000
N18760G2X8.850Y73.836I0.000J1.150
N18770G2X10.000Y74.986I1.150J0.000
N18780G00Z6.000
N18790G1Z-2.829F172.0
N18800G2X11.150Y73.836I0.000J-1.150F516.0
N18810G2X10.000Y72.686I-1.150J0.000
N18820G2X8.850Y73.836I0.000J1.150
N18830G2X10.000Y74.986I1.150J0.000
N18840G00Z6.000
N18850G1Z-3.300F172.0
N18860G2X11.150Y73.836I0.000J-1.150F516.0
N18870G2X10.000Y72.686I-1.150J0.000
N18880G2X8.850Y73.836I0.000J1.150
N18890G2X10.000Y74.986I1.150J0.000
N18900G00Z6.000
N18910G1Z-3.771F172.0
N18920G2X11.150Y73.836I0.000J-1.150F516.0
N18930G2X10.000Y72.686I-1.150J0.000
N18940G2X8.850Y73.836I0.000J1.150
N18950G2X10.000Y74.986I1.150J0.000
N18960G00Z6.000
N18970G1Z-4.243F172.0
N18980G2X11.150Y73.836I0.000J-1.150F516.0
N18990G2X10.000Y72.686I-1.150J0.000
N19000G2X8.850Y73.836I0.000J1.150
N19010G2X10.000Y74.986I1.150J0.000
N19020G00Z6.000
N19030G1Z-4.714F172.0
N19040G2X11.150Y73.836I0.000J-1.150F516.0
N19050G2X10.000Y72.686I-1.150J0.000
N19060G2X8.850Y73.836I0.000J1.150
N19070G2X10.000Y74.986I1.150J0.000
N19080G00Z6.000
N19090G1Z-5.186F172.0
N19100G2X11.150Y73.836I0.000J-1.150F516.0
N19110G2X10.000Y72.686I-1.150J0.000
N19120G2X8.850Y73.836I0.000J1.150
N19130G2X10.000Y74.986I1.150J0.000
N19140G00Z6.000
N19150G1Z-5.657F172.0
N19160G2X11.150Y73.836I0.000J-1.150F516.0
N19170G2X10.000Y72.686I-1.150J0.000
N19180G2X8.850Y73.836I0.000J1.150
N19190G2X10.000Y74.986I1.150J0.000
N19200G00Z6.000
N19210G1Z-6.129F172.0
N19220G2X11.150Y73.836I0.000J-1.150F516.0
N19230G2X10.000Y72.686I-1.150J0.000
N19240G2X8.850Y73.836I0.000J1.150
N19250G2X10.000Y74.986I1.150J0.000
N19260G00Z6.000
N19270G1Z-6.600F172.0
N19280G2X11.150Y73.836I0.000J-1.150F516.0
N19290G2X10.000Y72.686I-1.150J0.000
N19300G2X8.850Y73.836I0.000J1.150
N19310G2X10.000Y74.986I1.150J0.000
N19320G00Z6.000
N19330G00Y84.146
N19340G1Z-0.471F172.0
N19350G2X10.310Y83.836I0.000J-0.310F516.0
N19360G2X10.000Y83.526I-0.310J0.000
N19370G2X9.690Y83.836I0.000J0.310
N19380G2X10.000Y84.146I0.310J0.000
N19390G1Y85.346
N19400G2X11.510Y83.836I0.000J-1.510
N19410G2X10.000Y82.326I-1.510J0.000
N19420G2X8.490Y83.836I0.000J1.510
N19430G2X10.000Y85.346I1.510J0.000
N19440G1Y86.546
N19450G2X12.710Y83.836I0.000J-2.710
N19460G2X10.000Y81.126I-2.710J0.000
N19470G2X7.290Y83.836I0.000J2.710
N19480G2X10.000Y86.546I2.710J0.000
N19490G00Z6.000
N19500G00Y84.146
N19510G1Z-0.943F172.0
N19520G2X10.310Y83.836I0.000J-0.310F516.0
N19530G2X10.000Y83.526I-0.310J0.000
N19540G2X9.690Y83.836I0.000J0.310
N19550G2X10.000Y84.146I0.310J0.000
N19560G1Y85.346
N19570G2X11.510Y83.836I0.000J-1.510
N19580G2X10.000Y82.326I-1.510J0.000
N19590G2X8.490Y83.836I0.000J1.510
N19600G2X10.000Y85.346I1.510J0.000
N19610G1Y86.546
N19620G2X12.710Y83.836I0.000J-2.710
N19630G2X10.000Y81.126I-2.710J0.000
N19640G2X7.290Y83.836I0.000J2.710
N19650G2X10.000Y86.546I2.710J0.000
N19660G00Z6.000
N19670G00Y84.146
N19680G1Z-1.414F172.0
N19690G2X10.310Y83.836I0.000J-0.310F516.0
N19700G2X10.000Y83.526I-0.310J0.000
N19710G2X9.690Y83.836I0.000J0.310
N19720G2X10.000Y84.146I0.310J0.000
N19730G1Y85.346
N19740G2X11.510Y83.836I0.000J-1.510
N19750G2X10.000Y82.326I-1.510J0.000
N19760G2X8.490Y83.836I0.000J1.510
N19770G2X10.000Y85.346I1.510J0.000
N19780G1Y86.546
N19790G2X12.710Y83.836I0.000J-2.710
N19800G2X10.000Y81.126I-2.710J0.000
N19810G2X7.290Y83.836I0.000J2.710
N19820G2X10.000Y86.546I2.710J0.000
N19830G00Z6.000
N19840G00Y84.146
N19850G1Z-1.886F172.0
N19860G2X10.310Y83.836I0.000J-0.310F516.0
N19870G2X10.000Y83.526I-0.310J0.000
N19880G2X9.690Y83.836I0.000J0.310
N19890G2X10.000Y84.146I0.310J0.000
N19900G1Y85.346
N19910G2X11.510Y83.836I0.000J-1.510
N19920G2X10.000Y82.326I-1.510J0.000
N19930G2X8.490Y83.836I0.000J1.510
N19940G2X10.000Y85.346I1.510J0.000
N19950G1Y86.546
N19960G2X12.710Y83.836I0.000J-2.710
N19970G2X10.000Y81.126I-2.710J0.000
N19980G2X7.290Y83.836I0.000J2.710
N19990G2X10.000Y86.546I2.710J0.000
N20000G00Z6.000
N20010G00Y84.146
N20020G1Z-2.357F172.0
N20030G2X10.310Y83.836I0.000J-0.310F516.0
N20040G2X10.000Y83.526I-0.310J0.000
N20050G2X9.690Y83.836I0.000J0.310
N20060G2X10.000Y84.146I0.310J0.000
N20070G1Y85.346
N20080G2X11.510Y83.836I0.000J-1.510
N20090G2X10.000Y82.326I-1.510J0.000
N20100G2X8.490Y83.836I0.000J1.510
N20110G2X10.000Y85.346I1.510J0.000
N20120G1Y86.546
N20130G2X12.710Y83.836I0.000J-2.710
N20140G2X10.000Y81.126I-2.710J0.000
N20150G2X7.290Y83.836I0.000J2.710
N20160G2X10.000Y86.546I2.710J0.000
N20170G00Z6.000
N20180G00Y84.146
N20190G1Z-2.829F172.0
N20200G2X10.310Y83.836I0.000J-0.310F516.0
N20210G2X10.000Y83.526I-0.310J0.000
N20220G2X9.690Y83.836I0.000J0.310
N20230G2X10.000Y84.146I0.310J0.000
N20240G1Y85.346
N20250G2X11.510Y83.836I0.000J-1.510
N20260G2X10.000Y82.326I-1.510J0.000
N20270G2X8.490Y83.836I0.000J1.510
N20280G2X10.000Y85.346I1.510J0.000
N20290G1Y86.546
N20300G2X12.710Y83.836I0.000J-2.710
N20310G2X10.000Y81.126I-2.710J0.000
N20320G2X7.290Y83.836I0.000J2.710
N20330G2X10.000Y86.546I2.710J0.000
N20340G00Z6.000
N20350G00Y84.146
N20360G1Z-3.300F172.0
N20370G2X10.310Y83.836I0.000J-0.310F516.0
N20380G2X10.000Y83.526I-0.310J0.000
N20390G2X9.690Y83.836I0.000J0.310
N20400G2X10.000Y84.146I0.310J0.000
N20410G1Y85.346
N20420G2X11.510Y83.836I0.000J-1.510
N20430G2X10.000Y82.326I-1.510J0.000
N20440G2X8.490Y83.836I0.000J1.510
N20450G2X10.000Y85.346I1.510J0.000
N20460G1Y86.546
N20470G2X12.710Y83.836I0.000J-2.710
N20480G2X10.000Y81.126I-2.710J0.000
N20490G2X7.290Y83.836I0.000J2.710
N20500G2X10.000Y86.546I2.710J0.000
N20510G00Z6.000
N20520G00Y84.146
N20530G1Z-3.771F172.0
N20540G2X10.310Y83.836I0.000J-0.310F516.0
N20550G2X10.000Y83.526I-0.310J0.000
N20560G2X9.690Y83.836I0.000J0.310
N20570G2X10.000Y84.146I0.310J0.000
N20580G1Y85.346
N20590G2X11.510Y83.836I0.000J-1.510
N20600G2X10.000Y82.326I-1.510J0.000
N20610G2X8.490Y83.836I0.000J1.510
N20620G2X10.000Y85.346I1.510J0.000
N20630G1Y86.546
N20640G2X12.710Y83.836I0.000J-2.710
N20650G2X10.000Y81.126I-2.710J0.000
N20660G2X7.290Y83.836I0.000J2.710
N20670G2X10.000Y86.546I2.710J0.000
N20680G00Z6.000
N20690G00Y84.146
N20700G1Z-4.243F172.0
N20710G2X10.310Y83.836I0.000J-0.310F516.0
N20720G2X10.000Y83.526I-0.310J0.000
N20730G2X9.690Y83.836I0.000J0.310
N20740G2X10.000Y84.146I0.310J0.000
N20750G1Y85.346
N20760G2X11.510Y83.836I0.000J-1.510
N20770G2X10.000Y82.326I-1.510J0.000
N20780G2X8.490Y83.836I0.000J1.510
N20790G2X10.000Y85.346I1.510J0.000
N20800G1Y86.546
N20810G2X12.710Y83.836I0.000J-2.710
N20820G2X10.000Y81.126I-2.710J0.000
N20830G2X7.290Y83.836I0.000J2.710
N20840G2X10.000Y86.546I2.710J0.000
N20850G00Z6.000
N20860G00Y84.146
N20870G1Z-4.714F172.0
N20880G2X10.310Y83.836I0.000J-0.310F516.0
N20890G2X10.000Y83.526I-0.310J0.000
N20900G2X9.690Y83.836I0.000J0.310
N20910G2X10.000Y84.146I0.310J0.000
N20920G1Y85.346
N20930G2X11.510Y83.836I0.000J-1.510
N20940G2X10.000Y82.326I-1.510J0.000
N20950G2X8.490Y83.836I0.000J1.510
N20960G2X10.000Y85.346I1.510J0.000
N20970G1Y86.546
N20980G2X12.710Y83.836I0.000J-2.710
N20990G2X10.000Y81.126I-2.710J0.000
N21000G2X7.290Y83.836I0.000J2.710
N21010G2X10.000Y86.546I2.710J0.000
N21020G00Z6.000
N21030G00Y84.146
N21040G1Z-5.186F172.0
N21050G2X10.310Y83.836I0.000J-0.310F516.0
N21060G2X10.000Y83.526I-0.310J0.000
N21070G2X9.690Y83.836I0.000J0.310
N21080G2X10.000Y84.146I0.310J0.000
N21090G1Y85.346
N21100G2X11.510Y83.836I0.000J-1.510
N21110G2X10.000Y82.326I-1.510J0.000
N21120G2X8.490Y83.836I0.000J1.510
N21130G2X10.000Y85.346I1.510J0.000
N21140G1Y86.546
N21150G2X12.710Y83.836I0.000J-2.710
N21160G2X10.000Y81.126I-2.710J0.000
N21170G2X7.290Y83.836I0.000J2.710
N21180G2X10.000Y86.546I2.710J0.000
N21190G00Z6.000
N21200G00Y84.146
N21210G1Z-5.657F172.0
N21220G2X10.310Y83.836I0.000J-0.310F516.0
N21230G2X10.000Y83.526I-0.310J0.000
N21240G2X9.690Y83.836I0.000J0.310
N21250G2X10.000Y84.146I0.310J0.000
N21260G1Y85.346
N21270G2X11.510Y83.836I0.000J-1.510
N21280G2X10.000Y82.326I-1.510J0.000
N21290G2X8.490Y83.836I0.000J1.510
N21300G2X10.000Y85.346I1.510J0.000
N21310G1Y86.546
N21320G2X12.710Y83.836I0.000J-2.710
N21330G2X10.000Y81.126I-2.710J0.000
N21340G2X7.290Y83.836I0.000J2.710
N21350G2X10.000Y86.546I2.710J0.000
N21360G00Z6.000
N21370G00Y84.146
N21380G1Z-6.129F172.0
N21390G2X10.310Y83.836I0.000J-0.310F516.0
N21400G2X10.000Y83.526I-0.310J0.000
N21410G2X9.690Y83.836I0.000J0.310
N21420G2X10.000Y84.146I0.310J0.000
N21430G1Y85.346
N21440G2X11.510Y83.836I0.000J-1.510
N21450G2X10.000Y82.326I-1.510J0.000
N21460G2X8.490Y83.836I0.000J1.510
N21470G2X10.000Y85.346I1.510J0.000
N21480G1Y86.546
N21490G2X12.710Y83.836I0.000J-2.710
N21500G2X10.000Y81.126I-2.710J0.000
N21510G2X7.290Y83.836I0.000J2.710
N21520G2X10.000Y86.546I2.710J0.000
N21530G00Z6.000
N21540G00Y84.146
N21550G1Z-6.600F172.0
N21560G2X10.310Y83.836I0.000J-0.310F516.0
N21570G2X10.000Y83.526I-0.310J0.000
N21580G2X9.690Y83.836I0.000J0.310
N21590G2X10.000Y84.146I0.310J0.000
N21600G1Y85.346
N21610G2X11.510Y83.836I0.000J-1.510
N21620G2X10.000Y82.326I-1.510J0.000
N21630G2X8.490Y83.836I0.000J1.510
N21640G2X10.000Y85.346I1.510J0.000
N21650G1Y86.546
N21660G2X12.710Y83.836I0.000J-2.710
N21670G2X10.000Y81.126I-2.710J0.000
N21680G2X7.290Y83.836I0.000J2.710
N21690G2X10.000Y86.546I2.710J0.000
N21700G00Z6.000
N21710G00Y94.986
N21720G1Z-0.471F172.0
N21730G2X11.150Y93.836I0.000J-1.150F516.0
N21740G2X10.000Y92.686I-1.150J0.000
N21750G2X8.850Y93.836I0.000J1.150
N21760G2X10.000Y94.986I1.150J0.000
N21770G00Z6.000
N21780G1Z-0.943F172.0
N21790G2X11.150Y93.836I0.000J-1.150F516.0
N21800G2X10.000Y92.686I-1.150J0.000
N21810G2X8.850Y93.836I0.000J1.150
N21820G2X10.000Y94.986I1.150J0.000
N21830G00Z6.000
N21840G1Z-1.414F172.0
N21850G2X11.150Y93.836I0.000J-1.150F516.0
N21860G2X10.000Y92.686I-1.150J0.000
N21870G2X8.850Y93.836I0.000J1.150
N21880G2X10.000Y94.986I1.150J0.000
N21890G00Z6.000
N21900G1Z-1.886F172.0
N21910G2X11.150Y93.836I0.000J-1.150F516.0
N21920G2X10.000Y92.686I-1.150J0.000
N21930G2X8.850Y93.836I0.000J1.150
N21940G2X10.000Y94.986I1.150J0.000
N21950G00Z6.000
N21960G1Z-2.357F172.0
N21970G2X11.150Y93.836I0.000J-1.150F516.0
N21980G2X10.000Y92.686I-1.150J0.000
N21990G2X8.850Y93.836I0.000J1.150
N22000G2X10.000Y94.986I1.150J0.000
N22010G00Z6.000
N22020G1Z-2.829F172.0
N22030G2X11.150Y93.836I0.000J-1.150F516.0
N22040G2X10.000Y92.686I-1.150J0.000
N22050G2X8.850Y93.836I0.000J1.150
N22060G2X10.000Y94.986I1.150J0.000
N22070G00Z6.000
N22080G1Z-3.300F172.0
N22090G2X11.150Y93.836I0.000J-1.150F516.0
N22100G2X10.000Y92.686I-1.150J0.000
N22110G2X8.850Y93.836I0.000J1.150
N22120G2X10.000Y94.986I1.150J0.000
N22130G00Z6.000
N22140G1Z-3.771F172.0
N22150G2X11.150Y93.836I0.000J-1.150F516.0
N22160G2X10.000Y92.686I-1.150J0.000
N22170G2X8.850Y93.836I0.000J1.150
N22180G2X10.000Y94.986I1.150J0.000
N22190G00Z6.000
N22200G1Z-4.243F172.0
N22210G2X11.150Y93.836I0.000J-1.150F516.0
N22220G2X10.000Y92.686I-1.150J0.000
N22230G2X8.850Y93.836I0.000J1.150
N22240G2X10.000Y94.986I1.150J0.000
N22250G00Z6.000
N22260G1Z-4.714F172.0
N22270G2X11.150Y93.836I0.000J-1.150F516.0
N22280G2X10.000Y92.686I-1.150J0.000
N22290G2X8.850Y93.836I0.000J1.150
N22300G2X10.000Y94.986I1.150J0.000
N22310G00Z6.000
N22320G1Z-5.186F172.0
N22330G2X11.150Y93.836I0.000J-1.150F516.0
N22340G2X10.000Y92.686I-1.150J0.000
N22350G2X8.850Y93.836I0.000J1.150
N22360G2X10.000Y94.986I1.150J0.000
N22370G00Z6.000
N22380G1Z-5.657F172.0
N22390G2X11.150Y93.836I0.000J-1.150F516.0
N22400G2X10.000Y92.686I-1.150J0.000
N22410G2X8.850Y93.836I0.000J1.150
N22420G2X10.000Y94.986I1.150J0.000
N22430G00Z6.000
N22440G1Z-6.129F172.0
N22450G2X11.150Y93.836I0.000J-1.150F516.0
N22460G2X10.000Y92.686I-1.150J0.000
N22470G2X8.850Y93.836I0.000J1.150
N22480G2X10.000Y94.986I1.150J0.000
N22490G00Z6.000
N22500G1Z-6.600F172.0
N22510G2X11.150Y93.836I0.000J-1.150F516.0
N22520G2X10.000Y92.686I-1.150J0.000
N22530G2X8.850Y93.836I0.000J1.150
N22540G2X10.000Y94.986I1.150J0.000
N22550G00Z6.000
N22560G00X67.820Y100.286
N22570G1Z-0.471F172.0
N22580G2X67.920Y100.186I0.000J-0.100F516.0
N22590G2X67.820Y100.086I-0.100J0.000
N22600G2X67.720Y100.186I0.000J0.100
N22610G2X67.820Y100.286I0.100J0.000
N22620G00Z6.000
N22630G1Z-0.943F172.0
N22640G2X67.920Y100.186I0.000J-0.100F516.0
N22650G2X67.820Y100.086I-0.100J0.000
N22660G2X67.720Y100.186I0.000J0.100
N22670G2X67.820Y100.286I0.100J0.000
N22680G00Z6.000
N22690G1Z-1.414F172.0
N22700G2X67.920Y100.186I0.000J-0.100F516.0
N22710G2X67.820Y100.086I-0.100J0.000
N22720G2X67.720Y100.186I0.000J0.100
N22730G2X67.820Y100.286I0.100J0.000
N22740G00Z6.000
N22750G1Z-1.886F172.0
N22760G2X67.920Y100.186I0.000J-0.100F516.0
N22770G2X67.820Y100.086I-0.100J0.000
N22780G2X67.720Y100.186I0.000J0.100
N22790G2X67.820Y100.286I0.100J0.000
N22800G00Z6.000
N22810G1Z-2.357F172.0
N22820G2X67.920Y100.186I0.000J-0.100F516.0
N22830G2X67.820Y100.086I-0.100J0.000
N22840G2X67.720Y100.186I0.000J0.100
N22850G2X67.820Y100.286I0.100J0.000
N22860G00Z6.000
N22870G1Z-2.829F172.0
N22880G2X67.920Y100.186I0.000J-0.100F516.0
N22890G2X67.820Y100.086I-0.100J0.000
N22900G2X67.720Y100.186I0.000J0.100
N22910G2X67.820Y100.286I0.100J0.000
N22920G00Z6.000
N22930G1Z-3.300F172.0
N22940G2X67.920Y100.186I0.000J-0.100F516.0
N22950G2X67.820Y100.086I-0.100J0.000
N22960G2X67.720Y100.186I0.000J0.100
N22970G2X67.820Y100.286I0.100J0.000
N22980G00Z6.000
N22990G1Z-3.771F172.0
N23000G2X67.920Y100.186I0.000J-0.100F516.0
N23010G2X67.820Y100.086I-0.100J0.000
N23020G2X67.720Y100.186I0.000J0.100
N23030G2X67.820Y100.286I0.100J0.000
N23040G00Z6.000
N23050G1Z-4.243F172.0
N23060G2X67.920Y100.186I0.000J-0.100F516.0
N23070G2X67.820Y100.086I-0.100J0.000
N23080G2X67.720Y100.186I0.000J0.100
N23090G2X67.820Y100.286I0.100J0.000
N23100G00Z6.000
N23110G1Z-4.714F172.0
N23120G2X67.920Y100.186I0.000J-0.100F516.0
N23130G2X67.820Y100.086I-0.100J0.000
N23140G2X67.720Y100.186I0.000J0.100
N23150G2X67.820Y100.286I0.100J0.000
N23160G00Z6.000
N23170G1Z-5.186F172.0
N23180G2X67.920Y100.186I0.000J-0.100F516.0
N23190G2X67.820Y100.086I-0.100J0.000
N23200G2X67.720Y100.186I0.000J0.100
N23210G2X67.820Y100.286I0.100J0.000
N23220G00Z6.000
N23230G1Z-5.657F172.0
N23240G2X67.920Y100.186I0.000J-0.100F516.0
N23250G2X67.820Y100.086I-0.100J0.000
N23260G2X67.720Y100.186I0.000J0.100
N23270G2X67.820Y100.286I0.100J0.000
N23280G00Z6.000
N23290G1Z-6.129F172.0
N23300G2X67.920Y100.186I0.000J-0.100F516.0
N23310G2X67.820Y100.086I-0.100J0.000
N23320G2X67.720Y100.186I0.000J0.100
N23330G2X67.820Y100.286I0.100J0.000
N23340G00Z6.000
N23350G1Z-6.600F172.0
N23360G2X67.920Y100.186I0.000J-0.100F516.0
N23370G2X67.820Y100.086I-0.100J0.000
N23380G2X67.720Y100.186I0.000J0.100
N23390G2X67.820Y100.286I0.100J0.000
N23400G00Z6.000
N23410G00X30.000Y94.436
N23420G1Z-0.471F172.0
N23430G2X30.600Y93.836I0.000J-0.600F516.0
N23440G2X30.000Y93.236I-0.600J0.000
N23450G2X29.400Y93.836I0.000J0.600
N23460G2X30.000Y94.436I0.600J0.000
N23470G00Z6.000
N23480G1Z-0.943F172.0
N23490G2X30.600Y93.836I0.000J-0.600F516.0
N23500G2X30.000Y93.236I-0.600J0.000
N23510G2X29.400Y93.836I0.000J0.600
N23520G2X30.000Y94.436I0.600J0.000
N23530G00Z6.000
N23540G1Z-1.414F172.0
N23550G2X30.600Y93.836I0.000J-0.600F516.0
N23560G2X30.000Y93.236I-0.600J0.000
N23570G2X29.400Y93.836I0.000J0.600
N23580G2X30.000Y94.436I0.600J0.000
N23590G00Z6.000
N23600G1Z-1.886F172.0
N23610G2X30.600Y93.836I0.000J-0.600F516.0
N23620G2X30.000Y93.236I-0.600J0.000
N23630G2X29.400Y93.836I0.000J0.600
N23640G2X30.000Y94.436I0.600J0.000
N23650G00Z6.000
N23660G1Z-2.357F172.0
N23670G2X30.600Y93.836I0.000J-0.600F516.0
N23680G2X30.000Y93.236I-0.600J0.000
N23690G2X29.400Y93.836I0.000J0.600
N23700G2X30.000Y94.436I0.600J0.000
N23710G00Z6.000
N23720G1Z-2.829F172.0
N23730G2X30.600Y93.836I0.000J-0.600F516.0
N23740G2X30.000Y93.236I-0.600J0.000
N23750G2X29.400Y93.836I0.000J0.600
N23760G2X30.000Y94.436I0.600J0.000
N23770G00Z6.000
N23780G1Z-3.300F172.0
N23790G2X30.600Y93.836I0.000J-0.600F516.0
N23800G2X30.000Y93.236I-0.600J0.000
N23810G2X29.400Y93.836I0.000J0.600
N23820G2X30.000Y94.436I0.600J0.000
N23830G00Z6.000
N23840G1Z-3.771F172.0
N23850G2X30.600Y93.836I0.000J-0.600F516.0
N23860G2X30.000Y93.236I-0.600J0.000
N23870G2X29.400Y93.836I0.000J0.600
N23880G2X30.000Y94.436I0.600J0.000
N23890G00Z6.000
N23900G1Z-4.243F172.0
N23910G2X30.600Y93.836I0.000J-0.600F516.0
N23920G2X30.000Y93.236I-0.600J0.000
N23930G2X29.400Y93.836I0.000J0.600
N23940G2X30.000Y94.436I0.600J0.000
N23950G00Z6.000
N23960G1Z-4.714F172.0
N23970G2X30.600Y93.836I0.000J-0.600F516.0
N23980G2X30.000Y93.236I-0.600J0.000
N23990G2X29.400Y93.836I0.000J0.600
N24000G2X30.000Y94.436I0.600J0.000
N24010G00Z6.000
N24020G1Z-5.186F172.0
N24030G2X30.600Y93.836I0.000J-0.600F516.0
N24040G2X30.000Y93.236I-0.600J0.000
N24050G2X29.400Y93.836I0.000J0.600
N24060G2X30.000Y94.436I0.600J0.000
N24070G00Z6.000
N24080G1Z-5.657F172.0
N24090G2X30.600Y93.836I0.000J-0.600F516.0
N24100G2X30.000Y93.236I-0.600J0.000
N24110G2X29.400Y93.836I0.000J0.600
N24120G2X30.000Y94.436I0.600J0.000
N24130G00Z6.000
N24140G1Z-6.129F172.0
N24150G2X30.600Y93.836I0.000J-0.600F516.0
N24160G2X30.000Y93.236I-0.600J0.000
N24170G2X29.400Y93.836I0.000J0.600
N24180G2X30.000Y94.436I0.600J0.000
N24190G00Z6.000
N24200G1Z-6.600F172.0
N24210G2X30.600Y93.836I0.000J-0.600F516.0
N24220G2X30.000Y93.236I-0.600J0.000
N24230G2X29.400Y93.836I0.000J0.600
N24240G2X30.000Y94.436I0.600J0.000
N24250G00Z6.000
N24260G00Z20.000
N24270G00X0.000Y0.000
N24280M09
N24290M30
%
