( y-plate-profile )
( File created: Monday July 12 2021 - 12:45 PM)
( USBCNC Postprocessor )
( Material Size)
( X= 123.640, Y= 130.646, Z= 6.200)
()
(Toolpaths used in this file:)
(Profile 1)
(Tools used in this file: )
(1 = End Mill {3 mm})
N100G00G21G17G90G40G49
N110G80
N120 (End Mill {3 mm})
N130G00G43Z20.000H1
N140S16868M03
N150(Toolpath:- Profile 1)
N160()
N170G94
N180X0.000Y0.000F516.0
N190G00X41.500Y3.000Z6.000
N200G1Z-0.471F172.0
N210G3X46.000Y-1.500I4.500J0.000F516.0
N220G1X80.967
N230G1X87.967
N240G1X120.640
N250G3X125.140Y3.000I0.000J4.500
N260G1Y66.890
N270G1Y73.890
N280G1Y130.646
N290G3X123.640Y132.146I-1.500J0.000
N300G1X87.353
N310G1X80.353
N320G1X46.000
N330G3X41.500Y127.646I0.000J-4.500
N340G1Y106.836
N350G2X40.000Y105.336I-1.500J0.000
N360G1X0.000
N370G3X-1.500Y103.836I0.000J-1.500
N380G1Y86.634
N390G1Y79.634
N400G1Y63.836
N410G3X0.000Y62.336I1.500J0.000
N420G1X40.000
N430G2X41.500Y60.836I0.000J-1.500
N440G1Y3.000
N450G1Z-0.943F172.0
N460G3X46.000Y-1.500I4.500J0.000F516.0
N470G1X80.967
N480G1X87.967
N490G1X120.640
N500G3X125.140Y3.000I0.000J4.500
N510G1Y66.890
N520G1Y73.890
N530G1Y130.646
N540G3X123.640Y132.146I-1.500J0.000
N550G1X87.353
N560G1X80.353
N570G1X46.000
N580G3X41.500Y127.646I0.000J-4.500
N590G1Y106.836
N600G2X40.000Y105.336I-1.500J0.000
N610G1X0.000
N620G3X-1.500Y103.836I0.000J-1.500
N630G1Y86.634
N640G1Y79.634
N650G1Y63.836
N660G3X0.000Y62.336I1.500J0.000
N670G1X40.000
N680G2X41.500Y60.836I0.000J-1.500
N690G1Y3.000
N700G1Z-1.414F172.0
N710G3X46.000Y-1.500I4.500J0.000F516.0
N720G1X80.967
N730G1X87.967
N740G1X120.640
N750G3X125.140Y3.000I0.000J4.500
N760G1Y66.890
N770G1Y73.890
N780G1Y130.646
N790G3X123.640Y132.146I-1.500J0.000
N800G1X87.353
N810G1X80.353
N820G1X46.000
N830G3X41.500Y127.646I0.000J-4.500
N840G1Y106.836
N850G2X40.000Y105.336I-1.500J0.000
N860G1X0.000
N870G3X-1.500Y103.836I0.000J-1.500
N880G1Y86.634
N890G1Y79.634
N900G1Y63.836
N910G3X0.000Y62.336I1.500J0.000
N920G1X40.000
N930G2X41.500Y60.836I0.000J-1.500
N940G1Y3.000
N950G1Z-1.886F172.0
N960G3X46.000Y-1.500I4.500J0.000F516.0
N970G1X80.967
N980G1X87.967
N990G1X120.640
N1000G3X125.140Y3.000I0.000J4.500
N1010G1Y66.890
N1020G1Y73.890
N1030G1Y130.646
N1040G3X123.640Y132.146I-1.500J0.000
N1050G1X87.353
N1060G1X80.353
N1070G1X46.000
N1080G3X41.500Y127.646I0.000J-4.500
N1090G1Y106.836
N1100G2X40.000Y105.336I-1.500J0.000
N1110G1X0.000
N1120G3X-1.500Y103.836I0.000J-1.500
N1130G1Y86.634
N1140G1Y79.634
N1150G1Y63.836
N1160G3X0.000Y62.336I1.500J0.000
N1170G1X40.000
N1180G2X41.500Y60.836I0.000J-1.500
N1190G1Y3.000
N1200G1Z-2.357F172.0
N1210G3X46.000Y-1.500I4.500J0.000F516.0
N1220G1X80.967
N1230G1X87.967
N1240G1X120.640
N1250G3X125.140Y3.000I0.000J4.500
N1260G1Y66.890
N1270G1Y73.890
N1280G1Y130.646
N1290G3X123.640Y132.146I-1.500J0.000
N1300G1X87.353
N1310G1X80.353
N1320G1X46.000
N1330G3X41.500Y127.646I0.000J-4.500
N1340G1Y106.836
N1350G2X40.000Y105.336I-1.500J0.000
N1360G1X0.000
N1370G3X-1.500Y103.836I0.000J-1.500
N1380G1Y86.634
N1390G1Y79.634
N1400G1Y63.836
N1410G3X0.000Y62.336I1.500J0.000
N1420G1X40.000
N1430G2X41.500Y60.836I0.000J-1.500
N1440G1Y3.000
N1450G1Z-2.829F172.0
N1460G3X46.000Y-1.500I4.500J0.000F516.0
N1470G1X80.967
N1480G1X87.967
N1490G1X120.640
N1500G3X125.140Y3.000I0.000J4.500
N1510G1Y66.890
N1520G1Y73.890
N1530G1Y130.646
N1540G3X123.640Y132.146I-1.500J0.000
N1550G1X87.353
N1560G1X80.353
N1570G1X46.000
N1580G3X41.500Y127.646I0.000J-4.500
N1590G1Y106.836
N1600G2X40.000Y105.336I-1.500J0.000
N1610G1X0.000
N1620G3X-1.500Y103.836I0.000J-1.500
N1630G1Y86.634
N1640G1Y79.634
N1650G1Y63.836
N1660G3X0.000Y62.336I1.500J0.000
N1670G1X40.000
N1680G2X41.500Y60.836I0.000J-1.500
N1690G1Y3.000
N1700G1Z-3.300F172.0
N1710G3X46.000Y-1.500I4.500J0.000F516.0
N1720G1X80.967
N1730G1X87.967
N1740G1X120.640
N1750G3X125.140Y3.000I0.000J4.500
N1760G1Y66.890
N1770G1Y73.890
N1780G1Y130.646
N1790G3X123.640Y132.146I-1.500J0.000
N1800G1X87.353
N1810G1X80.353
N1820G1X46.000
N1830G3X41.500Y127.646I0.000J-4.500
N1840G1Y106.836
N1850G2X40.000Y105.336I-1.500J0.000
N1860G1X0.000
N1870G3X-1.500Y103.836I0.000J-1.500
N1880G1Y86.634
N1890G1Y79.634
N1900G1Y63.836
N1910G3X0.000Y62.336I1.500J0.000
N1920G1X40.000
N1930G2X41.500Y60.836I0.000J-1.500
N1940G1Y3.000
N1950G1Z-3.771F172.0
N1960G3X46.000Y-1.500I4.500J0.000F516.0
N1970G1X80.967
N1980G1X87.967
N1990G1X120.640
N2000G3X125.140Y3.000I0.000J4.500
N2010G1Y66.890
N2020G1Y73.890
N2030G1Y130.646
N2040G3X123.640Y132.146I-1.500J0.000
N2050G1X87.353
N2060G1X80.353
N2070G1X46.000
N2080G3X41.500Y127.646I0.000J-4.500
N2090G1Y106.836
N2100G2X40.000Y105.336I-1.500J0.000
N2110G1X0.000
N2120G3X-1.500Y103.836I0.000J-1.500
N2130G1Y86.634
N2140G1Y79.634
N2150G1Y63.836
N2160G3X0.000Y62.336I1.500J0.000
N2170G1X40.000
N2180G2X41.500Y60.836I0.000J-1.500
N2190G1Y3.000
N2200G1Z-4.243F172.0
N2210G3X46.000Y-1.500I4.500J0.000F516.0
N2220G1X80.967
N2230G1X87.967
N2240G1X120.640
N2250G3X125.140Y3.000I0.000J4.500
N2260G1Y66.890
N2270G1Y73.890
N2280G1Y130.646
N2290G3X123.640Y132.146I-1.500J0.000
N2300G1X87.353
N2310G1X80.353
N2320G1X46.000
N2330G3X41.500Y127.646I0.000J-4.500
N2340G1Y106.836
N2350G2X40.000Y105.336I-1.500J0.000
N2360G1X0.000
N2370G3X-1.500Y103.836I0.000J-1.500
N2380G1Y86.634
N2390G1Y79.634
N2400G1Y63.836
N2410G3X0.000Y62.336I1.500J0.000
N2420G1X40.000
N2430G2X41.500Y60.836I0.000J-1.500
N2440G1Y3.000
N2450G1Z-4.714F172.0
N2460G3X46.000Y-1.500I4.500J0.000F516.0
N2470G1X80.967
N2480G1X87.967
N2490G1X120.640
N2500G3X125.140Y3.000I0.000J4.500
N2510G1Y66.890
N2520G1Y73.890
N2530G1Y130.646
N2540G3X123.640Y132.146I-1.500J0.000
N2550G1X87.353
N2560G1X80.353
N2570G1X46.000
N2580G3X41.500Y127.646I0.000J-4.500
N2590G1Y106.836
N2600G2X40.000Y105.336I-1.500J0.000
N2610G1X0.000
N2620G3X-1.500Y103.836I0.000J-1.500
N2630G1Y86.634
N2640G1Y79.634
N2650G1Y63.836
N2660G3X0.000Y62.336I1.500J0.000
N2670G1X40.000
N2680G2X41.500Y60.836I0.000J-1.500
N2690G1Y3.000
N2700G1Z-5.186F172.0
N2710G3X46.000Y-1.500I4.500J0.000F516.0
N2720G1X80.967
N2730G1X87.967
N2740G1X120.640
N2750G3X125.140Y3.000I0.000J4.500
N2760G1Y66.890
N2770G1Y73.890
N2780G1Y130.646
N2790G3X123.640Y132.146I-1.500J0.000
N2800G1X87.353
N2810G1X80.353
N2820G1X46.000
N2830G3X41.500Y127.646I0.000J-4.500
N2840G1Y106.836
N2850G2X40.000Y105.336I-1.500J0.000
N2860G1X0.000
N2870G3X-1.500Y103.836I0.000J-1.500
N2880G1Y86.634
N2890G1Y79.634
N2900G1Y63.836
N2910G3X0.000Y62.336I1.500J0.000
N2920G1X40.000
N2930G2X41.500Y60.836I0.000J-1.500
N2940G1Y3.000
N2950G1Z-5.657F172.0
N2960G3X46.000Y-1.500I4.500J0.000F516.0
N2970G1X80.967
N2980G1X87.967
N2990G1X120.640
N3000G3X125.140Y3.000I0.000J4.500
N3010G1Y66.890
N3020G1Y73.890
N3030G1Y130.646
N3040G3X123.640Y132.146I-1.500J0.000
N3050G1X87.353
N3060G1X80.353
N3070G1X46.000
N3080G3X41.500Y127.646I0.000J-4.500
N3090G1Y106.836
N3100G2X40.000Y105.336I-1.500J0.000
N3110G1X0.000
N3120G3X-1.500Y103.836I0.000J-1.500
N3130G1Y86.634
N3140G1Y79.634
N3150G1Y63.836
N3160G3X0.000Y62.336I1.500J0.000
N3170G1X40.000
N3180G2X41.500Y60.836I0.000J-1.500
N3190G1Y3.000
N3200G1Z-6.129F172.0
N3210G3X46.000Y-1.500I4.500J0.000F516.0
N3220G1X80.967
N3230G1Z-6.100
N3240G1X87.967
N3250G1Z-6.129F172.0
N3260G1X120.640F516.0
N3270G3X125.140Y3.000I0.000J4.500
N3280G1Y66.890
N3290G1Z-6.100
N3300G1Y73.890
N3310G1Z-6.129F172.0
N3320G1Y130.646F516.0
N3330G3X123.640Y132.146I-1.500J0.000
N3340G1X87.353
N3350G1Z-6.100
N3360G1X80.353
N3370G1Z-6.129F172.0
N3380G1X46.000F516.0
N3390G3X41.500Y127.646I0.000J-4.500
N3400G1Y106.836
N3410G2X40.000Y105.336I-1.500J0.000
N3420G1X0.000
N3430G3X-1.500Y103.836I0.000J-1.500
N3440G1Y86.634
N3450G1Z-6.100
N3460G1Y79.634
N3470G1Z-6.129F172.0
N3480G1Y63.836F516.0
N3490G3X0.000Y62.336I1.500J0.000
N3500G1X40.000
N3510G2X41.500Y60.836I0.000J-1.500
N3520G1Y3.000
N3530G1Z-6.600F172.0
N3540G3X46.000Y-1.500I4.500J0.000F516.0
N3550G1X80.967
N3560G1Z-6.100
N3570G1X87.967
N3580G1Z-6.600F172.0
N3590G1X120.640F516.0
N3600G3X125.140Y3.000I0.000J4.500
N3610G1Y66.890
N3620G1Z-6.100
N3630G1Y73.890
N3640G1Z-6.600F172.0
N3650G1Y130.646F516.0
N3660G3X123.640Y132.146I-1.500J0.000
N3670G1X87.353
N3680G1Z-6.100
N3690G1X80.353
N3700G1Z-6.600F172.0
N3710G1X46.000F516.0
N3720G3X41.500Y127.646I0.000J-4.500
N3730G1Y106.836
N3740G2X40.000Y105.336I-1.500J0.000
N3750G1X0.000
N3760G3X-1.500Y103.836I0.000J-1.500
N3770G1Y86.634
N3780G1Z-6.100
N3790G1Y79.634
N3800G1Z-6.600F172.0
N3810G1Y63.836F516.0
N3820G3X0.000Y62.336I1.500J0.000
N3830G1X40.000
N3840G2X41.500Y60.836I0.000J-1.500
N3850G1Y3.000
N3860G00Z6.000
N3870G00Z20.000
N3880G00X0.000Y0.000
N3890M09
N3900M30
%
