; G-Code generated by Simplify3D(R) Version 4.1.2
; Apr 19, 2020 at 1:16:29 AM
; Settings Summary
;   processName,Process1
;   applyToModels,Fix_Frame_8mm,Fix_Frame_8mm(2)
;   profileName,Creality Ender 3 Pro (modified)
;   profileVersion,2019-04-06 08:00:00
;   baseProfile,
;   printMaterial,PLA
;   printQuality,Medium
;   printExtruders,
;   extruderName,Primary Extruder
;   extruderToolheadNumber,0
;   extruderDiameter,0.4
;   extruderAutoWidth,0
;   extruderWidth,0.4
;   extrusionMultiplier,0.9
;   extruderUseRetract,1
;   extruderRetractionDistance,7
;   extruderExtraRestartDistance,0
;   extruderRetractionZLift,0
;   extruderRetractionSpeed,1500
;   extruderUseCoasting,1
;   extruderCoastingDistance,0.8
;   extruderUseWipe,1
;   extruderWipeDistance,5
;   primaryExtruder,0
;   layerHeight,0.2
;   topSolidLayers,4
;   bottomSolidLayers,4
;   perimeterOutlines,2
;   printPerimetersInsideOut,1
;   startPointOption,2
;   startPointOriginX,0
;   startPointOriginY,0
;   sequentialIslands,0
;   spiralVaseMode,0
;   firstLayerHeightPercentage,100
;   firstLayerWidthPercentage,100
;   firstLayerUnderspeed,0.5
;   useRaft,0
;   raftExtruder,0
;   raftTopLayers,3
;   raftBaseLayers,2
;   raftOffset,3
;   raftSeparationDistance,0.14
;   raftTopInfill,100
;   aboveRaftSpeedMultiplier,0.3
;   useSkirt,1
;   skirtExtruder,0
;   skirtLayers,1
;   skirtOutlines,2
;   skirtOffset,4
;   usePrimePillar,0
;   primePillarExtruder,999
;   primePillarWidth,12
;   primePillarLocation,7
;   primePillarSpeedMultiplier,1
;   useOozeShield,0
;   oozeShieldExtruder,999
;   oozeShieldOffset,2
;   oozeShieldOutlines,1
;   oozeShieldSidewallShape,1
;   oozeShieldSidewallAngle,30
;   oozeShieldSpeedMultiplier,1
;   infillExtruder,0
;   internalInfillPattern,Rectilinear
;   externalInfillPattern,Rectilinear
;   infillPercentage,35
;   outlineOverlapPercentage,90
;   infillExtrusionWidthPercentage,100
;   minInfillLength,1
;   infillLayerInterval,1
;   internalInfillAngles,45,-45
;   overlapInternalInfillAngles,0
;   externalInfillAngles,45,-45
;   generateSupport,1
;   supportExtruder,0
;   supportInfillPercentage,30
;   supportExtraInflation,0
;   supportBaseLayers,0
;   denseSupportExtruder,0
;   denseSupportLayers,0
;   denseSupportInfillPercentage,70
;   supportLayerInterval,1
;   supportHorizontalPartOffset,0.3
;   supportUpperSeparationLayers,1
;   supportLowerSeparationLayers,1
;   supportType,0
;   supportGridSpacing,1
;   maxOverhangAngle,20
;   supportAngles,0
;   temperatureName,Primary Extruder,Heated Bed
;   temperatureNumber,0,0
;   temperatureSetpointCount,1,1
;   temperatureSetpointLayers,1,1
;   temperatureSetpointTemperatures,210,60
;   temperatureStabilizeAtStartup,1,1
;   temperatureHeatedBed,0,1
;   fanLayers,1,2
;   fanSpeeds,0,100
;   blipFanToFullPower,0
;   adjustSpeedForCooling,1
;   minSpeedLayerTime,15
;   minCoolingSpeedSlowdown,20
;   increaseFanForCooling,0
;   minFanLayerTime,45
;   maxCoolingFanSpeed,100
;   increaseFanForBridging,0
;   bridgingFanSpeed,100
;   use5D,1
;   relativeEdistances,0
;   allowEaxisZeroing,1
;   independentExtruderAxes,0
;   includeM10123,0
;   stickySupport,1
;   applyToolheadOffsets,0
;   gcodeXoffset,0
;   gcodeYoffset,0
;   gcodeZoffset,0
;   overrideMachineDefinition,1
;   machineTypeOverride,0
;   strokeXoverride,220
;   strokeYoverride,220
;   strokeZoverride,250
;   originOffsetXoverride,-5
;   originOffsetYoverride,-5
;   originOffsetZoverride,0
;   homeXdirOverride,-1
;   homeYdirOverride,-1
;   homeZdirOverride,-1
;   flipXoverride,1
;   flipYoverride,-1
;   flipZoverride,1
;   toolheadOffsets,0,0|0,0|0,0|0,0|0,0|0,0
;   overrideFirmwareConfiguration,1
;   firmwareTypeOverride,RepRap (Marlin/Repetier/Sprinter)
;   GPXconfigOverride,r2
;   baudRateOverride,115200
;   overridePrinterModels,1
;   printerModelsOverride
;   startingGcode,M201 X500.00 Y500.00 Z100.00 E5000.00 ;Setup machine max acceleration,M203 X500.00 Y500.00 Z10.00 E50.00 ;Setup machine max feedrate,M204 P500.00 R1000.00 T500.00 ;Setup Print/Retract/Travel acceleration,M205 X8.00 Y8.00 Z0.40 E5.00 ;Setup Jerk,M220 S100 ;Reset Feedrate,M221 S100 ;Reset Flowrate,,G28 ;Home,,G92 E0 ;Reset Extruder,G1 Z2.0 F3000 ;Move Z Axis up,G1 X10.1 Y20 Z0.28 F5000.0 ;Move to start position,G1 X10.1 Y200.0 Z0.28 F1500.0 E15 ;Draw the first line,G1 X10.4 Y200.0 Z0.28 F5000.0 ;Move to side a little,G1 X10.4 Y20 Z0.28 F1500.0 E30 ;Draw the second line,G92 E0 ;Reset Extruder,G1 Z2.0 F3000 ;Move Z Axis up,
;   layerChangeGcode,
;   retractionGcode,
;   toolChangeGcode,
;   endingGcode,G91 ;Relative positioning,G1 E-2 F2700 ;Retract a bit,G1 E-2 Z0.2 F2400 ;Retract and raise Z,G1 X5 Y5 F3000 ;Wipe out,G1 Z10 ;Raise Z more,G90 ;Absolute positionning,,G1 X0 Y{machine_depth} ;Present print,M106 S0 ;Turn-off fan,M104 S0 ;Turn-off hotend,M140 S0 ;Turn-off bed,,M84 X Y E ;Disable all steppers but Z,
;   exportFileFormat,gcode
;   celebration,0
;   celebrationSong,Random Song
;   postProcessing,
;   defaultSpeed,1800
;   outlineUnderspeed,0.5
;   solidInfillUnderspeed,0.8
;   supportUnderspeed,0.8
;   rapidXYspeed,2000
;   rapidZspeed,1000
;   minBridgingArea,50
;   bridgingExtraInflation,0
;   bridgingExtrusionMultiplier,1
;   bridgingSpeedMultiplier,1
;   useFixedBridgingAngle,0
;   fixedBridgingAngle,0
;   applyBridgingToPerimeters,0
;   filamentDiameters,1.75|1.75|1.75|1.75|1.75|1.75
;   filamentPricesPerKg,46|46|46|46|46|46
;   filamentDensities,1.25|1.25|1.25|1.25|1.25|1.25
;   useMinPrintHeight,0
;   minPrintHeight,0
;   useMaxPrintHeight,0
;   maxPrintHeight,0
;   useDiaphragm,0
;   diaphragmLayerInterval,20
;   robustSlicing,1
;   mergeAllIntoSolid,0
;   onlyRetractWhenCrossingOutline,1
;   retractBetweenLayers,1
;   useRetractionMinTravel,0
;   retractionMinTravel,3
;   retractWhileWiping,1
;   onlyWipeOutlines,1
;   avoidCrossingOutline,1
;   maxMovementDetourFactor,3
;   toolChangeRetractionDistance,12
;   toolChangeExtraRestartDistance,-0.5
;   toolChangeRetractionSpeed,600
;   externalThinWallType,0
;   internalThinWallType,2
;   thinWallAllowedOverlapPercentage,10
;   singleExtrusionMinLength,1
;   singleExtrusionMinPrintingWidthPercentage,50
;   singleExtrusionMaxPrintingWidthPercentage,200
;   singleExtrusionEndpointExtension,0.2
;   horizontalSizeCompensation,0
G90
M82
M106 S0
M140 S60
M190 S60
M104 S210 T0
M109 S210 T0
M201 X500.00 Y500.00 Z100.00 E5000.00 ;Setup machine max acceleration
M203 X500.00 Y500.00 Z10.00 E50.00 ;Setup machine max feedrate
M204 P500.00 R1000.00 T500.00 ;Setup Print/Retract/Travel acceleration
M205 X8.00 Y8.00 Z0.40 E5.00 ;Setup Jerk
M220 S100 ;Reset Feedrate
M221 S100 ;Reset Flowrate
G28 ;Home
G92 E0 ;Reset Extruder
G1 Z2.0 F3000 ;Move Z Axis up
G1 X10.1 Y20 Z0.28 F5000.0 ;Move to start position
G1 X10.1 Y200.0 Z0.28 F1500.0 E15 ;Draw the first line
G1 X10.4 Y200.0 Z0.28 F5000.0 ;Move to side a little
G1 X10.4 Y20 Z0.28 F1500.0 E30 ;Draw the second line
G92 E0 ;Reset Extruder
G1 Z2.0 F3000 ;Move Z Axis up
; process Process1
; layer 1, Z = 0.200
T0
G92 E0.0000
G1 E-7.0000 F1500
; feature skirt
; tool H0.200 W0.400
G1 Z0.200 F1000
G1 X70.895 Y87.900 F2000
G1 E0.0000 F1500
G92 E0.0000
G1 X159.105 Y87.900 E2.6405 F900
G1 X161.800 Y90.595 E2.7546
G1 X161.800 Y114.405 E3.4673
G1 X161.205 Y115.000 E3.4925
G1 X161.800 Y115.595 E3.5177
G1 X161.800 Y139.405 E4.2304
G1 X159.105 Y142.100 E4.3445
G1 X70.895 Y142.100 E6.9850
G1 X68.200 Y139.405 E7.0991
G1 X68.200 Y115.595 E7.8118
G1 X68.795 Y115.000 E7.8370
G1 X68.200 Y114.405 E7.8622
G1 X68.200 Y90.595 E8.5749
G1 X70.895 Y87.900 E8.6890
G92 E0.0000
G1 E-7.0000 F1500
G1 X71.060 Y88.300 F2000
G1 E0.0000 F1500
G92 E0.0000
G1 X158.940 Y88.300 E2.6306 F900
G1 X161.400 Y90.760 E2.7347
G1 X161.400 Y114.240 E3.4376
G1 X160.640 Y115.000 E3.4698
G1 X161.400 Y115.760 E3.5020
G1 X161.400 Y139.240 E4.2048
G1 X158.940 Y141.700 E4.3089
G1 X71.060 Y141.700 E6.9395
G1 X68.600 Y139.240 E7.0437
G1 X68.600 Y115.760 E7.7465
G1 X69.360 Y115.000 E7.7787
G1 X68.600 Y114.240 E7.8109
G1 X68.600 Y90.760 E8.5137
G1 X71.060 Y88.300 E8.6179
G92 E0.0000
G1 E-7.0000 F1500
; feature inner perimeter
G1 X73.000 Y92.700 F2000
G1 X73.205 Y92.700
G1 X73.400 Y93.100
G1 E0.0000 F1500
G92 E0.0000
G1 X156.600 Y93.100 E2.4905 F675
G1 X156.600 Y111.900 E3.0533
G1 X73.400 Y111.900 E5.5438
G1 X73.400 Y93.900 E6.0826
G1 X73.400 Y93.100 F675
; feature outer perimeter
G1 X73.000 Y92.700 F2000
G92 E0.0000
G1 X157.000 Y92.700 E2.5145 F450
G1 X157.000 Y112.300 E3.1012
G1 X73.000 Y112.300 E5.6156
G1 X73.000 Y93.500 E6.1784
G1 X73.000 Y92.700 F450
G1 X78.000 Y92.700 F450
; feature inner perimeter
G1 X76.200 Y99.239 F2000
G92 E0.0000
G1 X76.200 Y105.839 E0.1976 F675
G1 X81.800 Y105.839 E0.3652
G1 X81.800 Y99.239 E0.5628
G1 X77.000 Y99.239 E0.7064
G1 X76.200 Y99.239 F675
; feature outer perimeter
G1 X76.600 Y99.639 F2000
G92 E0.0000
G1 X76.600 Y105.439 E0.1736 F450
G1 X81.400 Y105.439 E0.3173
G1 X81.400 Y99.639 E0.4909
G1 X77.400 Y99.639 E0.6107
G1 X76.600 Y99.639 F450
G1 X76.600 Y104.639 F450
; feature inner perimeter
G1 X76.600 Y105.439 F2000
G1 X81.400 Y105.439
G1 X81.400 Y103.754
G1 X84.377 Y103.205
G92 E0.0000
G1 X84.448 Y103.431 E0.0071 F675
G1 X84.927 Y104.406 E0.0396
G1 X85.082 Y104.582 E0.0466
G1 X85.949 Y105.300 E0.0803
G1 X86.165 Y105.399 E0.0874
G1 X87.203 Y105.688 E0.1197
G1 X87.433 Y105.691 E0.1266
G1 X88.500 Y105.541 E0.1588
G1 X88.717 Y105.449 E0.1659
G1 X89.650 Y104.873 E0.1987
G1 X89.810 Y104.700 E0.2057
G1 X90.440 Y103.789 E0.2389
G1 X90.714 Y102.496 E0.2785
G1 X90.403 Y101.128 E0.3205
G1 X89.707 Y100.200 E0.3552
G1 X89.536 Y100.027 E0.3625
G1 X88.598 Y99.504 E0.3946
G1 X88.373 Y99.420 E0.4018
G1 X87.217 Y99.321 E0.4365
G1 X86.975 Y99.344 E0.4438
G1 X85.922 Y99.718 E0.4773
G1 X85.725 Y99.846 E0.4843
G1 X84.919 Y100.606 E0.5174
G1 X84.795 Y100.808 E0.5246
G1 X84.367 Y101.837 E0.5579
G1 X84.339 Y102.074 E0.5650
G1 X84.350 Y102.406 E0.5750
G1 X84.377 Y103.205 F675
; feature outer perimeter
G1 X84.775 Y103.137 F2000
G92 E0.0000
G1 X84.820 Y103.281 E0.0045 F450
G1 X85.263 Y104.182 E0.0346
G1 X85.361 Y104.294 E0.0390
G1 X86.164 Y104.958 E0.0702
G1 X86.303 Y105.022 E0.0748
G1 X87.260 Y105.288 E0.1045
G1 X87.408 Y105.290 E0.1090
G1 X88.392 Y105.153 E0.1387
G1 X88.532 Y105.093 E0.1433
G1 X89.393 Y104.561 E0.1736
G1 X89.497 Y104.449 E0.1781
G1 X90.065 Y103.627 E0.2081
G1 X90.305 Y102.499 E0.2426
G1 X90.032 Y101.300 E0.2794
G1 X89.403 Y100.462 E0.3107
G1 X89.291 Y100.349 E0.3155
G1 X88.430 Y99.868 E0.3450
G1 X88.284 Y99.814 E0.3497
G1 X87.219 Y99.723 E0.3817
G1 X87.061 Y99.738 E0.3864
G1 X86.100 Y100.079 E0.4170
G1 X85.973 Y100.162 E0.4215
G1 X85.232 Y100.860 E0.4520
G1 X85.152 Y100.991 E0.4566
G1 X84.758 Y101.939 E0.4873
G1 X84.740 Y102.091 E0.4919
G1 X84.748 Y102.337 E0.4993
G1 X84.775 Y103.137 F450
G1 X84.820 Y103.281 F450
G1 X85.263 Y104.182
G1 X85.361 Y104.294
G1 X86.164 Y104.958
G1 X86.303 Y105.022
G1 X87.260 Y105.288
G1 X87.408 Y105.290
G1 X88.392 Y105.153
G1 X88.532 Y105.093
G1 X88.714 Y104.981
; feature inner perimeter
G1 X93.200 Y105.839 F2000
G92 E0.0000
G1 X98.800 Y105.839 E0.1676 F675
G1 X98.800 Y99.239 E0.3652
G1 X93.200 Y99.239 E0.5328
G1 X93.200 Y105.039 E0.7064
G1 X93.200 Y105.839 F675
; feature outer perimeter
G1 X93.600 Y105.439 F2000
G92 E0.0000
G1 X98.400 Y105.439 E0.1437 F450
G1 X98.400 Y99.639 E0.3173
G1 X93.600 Y99.639 E0.4610
G1 X93.600 Y104.639 E0.6107
G1 X93.600 Y105.439 F450
G1 X98.400 Y105.439 F450
G1 X98.400 Y105.239
; feature inner perimeter
G1 X110.200 Y105.839 F2000
G92 E0.0000
G1 X115.800 Y105.839 E0.1676 F675
G1 X115.800 Y99.239 E0.3652
G1 X110.200 Y99.239 E0.5328
G1 X110.200 Y105.039 E0.7064
G1 X110.200 Y105.839 F675
; feature outer perimeter
G1 X110.600 Y105.439 F2000
G92 E0.0000
G1 X115.400 Y105.439 E0.1437 F450
G1 X115.400 Y99.639 E0.3173
G1 X110.600 Y99.639 E0.4610
G1 X110.600 Y104.639 E0.6107
G1 X110.600 Y105.439 F450
G1 X115.400 Y105.439 F450
G1 X115.400 Y105.239
; feature inner perimeter
G1 X127.200 Y105.839 F2000
G92 E0.0000
G1 X132.800 Y105.839 E0.1676 F675
G1 X132.800 Y99.239 E0.3652
G1 X127.200 Y99.239 E0.5328
G1 X127.200 Y105.039 E0.7064
G1 X127.200 Y105.839 F675
; feature outer perimeter
G1 X127.600 Y105.439 F2000
G92 E0.0000
G1 X132.400 Y105.439 E0.1437 F450
G1 X132.400 Y99.639 E0.3173
G1 X127.600 Y99.639 E0.4610
G1 X127.600 Y104.639 E0.6107
G1 X127.600 Y105.439 F450
G1 X132.400 Y105.439 F450
G1 X132.400 Y105.239
; feature inner perimeter
G1 X135.420 Y103.330 F2000
G92 E0.0000
G1 X135.902 Y104.370 E0.0343 F675
G1 X136.055 Y104.551 E0.0414
G1 X136.856 Y105.249 E0.0732
G1 X137.066 Y105.348 E0.0802
G1 X138.134 Y105.681 E0.1137
G1 X138.368 Y105.688 E0.1207
G1 X139.443 Y105.560 E0.1531
G1 X139.660 Y105.472 E0.1601
G1 X140.595 Y104.923 E0.1925
G1 X140.758 Y104.751 E0.1996
G1 X141.419 Y103.837 E0.2334
G1 X141.713 Y102.504 E0.2742
G1 X141.464 Y101.289 E0.3114
G1 X141.366 Y101.091 E0.3180
G1 X140.754 Y100.233 E0.3496
G1 X140.584 Y100.076 E0.3565
G1 X139.597 Y99.500 E0.3907
G1 X139.372 Y99.423 E0.3978
G1 X138.254 Y99.310 E0.4314
G1 X138.018 Y99.345 E0.4386
G1 X136.953 Y99.696 E0.4722
G1 X136.757 Y99.828 E0.4792
G1 X135.934 Y100.584 E0.5127
G1 X135.811 Y100.782 E0.5197
G1 X135.383 Y101.766 E0.5518
G1 X135.350 Y101.999 E0.5588
G1 X135.352 Y102.539 E0.5750
G1 X135.354 Y103.100 F675
G1 X135.420 Y103.330
; feature outer perimeter
G1 X135.796 Y103.190 F2000
G92 E0.0000
G1 X136.242 Y104.152 E0.0318 F450
G1 X136.341 Y104.269 E0.0363
G1 X137.077 Y104.911 E0.0656
G1 X137.212 Y104.975 E0.0700
G1 X138.201 Y105.283 E0.1011
G1 X138.350 Y105.288 E0.1055
G1 X139.342 Y105.169 E0.1354
G1 X139.482 Y105.112 E0.1399
G1 X140.344 Y104.607 E0.1699
G1 X140.449 Y104.495 E0.1745
G1 X141.047 Y103.670 E0.2050
G1 X141.304 Y102.501 E0.2408
G1 X141.082 Y101.420 E0.2738
G1 X141.021 Y101.297 E0.2779
G1 X140.452 Y100.499 E0.3073
G1 X140.345 Y100.400 E0.3116
G1 X139.429 Y99.866 E0.3434
G1 X139.286 Y99.817 E0.3479
G1 X138.264 Y99.713 E0.3787
G1 X138.111 Y99.736 E0.3833
G1 X137.131 Y100.059 E0.4142
G1 X137.006 Y100.143 E0.4187
G1 X136.245 Y100.842 E0.4496
G1 X136.166 Y100.969 E0.4541
G1 X135.771 Y101.876 E0.4837
G1 X135.750 Y102.026 E0.4883
G1 X135.752 Y102.396 E0.4993
G1 X135.754 Y103.043 F450
G1 X135.796 Y103.190
G1 X136.242 Y104.152 F450
G1 X136.341 Y104.269
G1 X137.077 Y104.911
G1 X137.212 Y104.975
G1 X138.201 Y105.283
G1 X138.350 Y105.288
G1 X139.342 Y105.169
G1 X139.482 Y105.112
G1 X139.762 Y104.948
; feature inner perimeter
G1 X144.200 Y105.839 F2000
G92 E0.0000
G1 X149.800 Y105.839 E0.1676 F675
G1 X149.800 Y99.239 E0.3652
G1 X144.200 Y99.239 E0.5328
G1 X144.200 Y105.039 E0.7064
G1 X144.200 Y105.839 F675
; feature outer perimeter
G1 X144.600 Y105.439 F2000
G92 E0.0000
G1 X149.400 Y105.439 E0.1437 F450
G1 X149.400 Y99.639 E0.3173
G1 X144.600 Y99.639 E0.4610
G1 X144.600 Y104.639 E0.6107
G1 X144.600 Y105.439 F450
G1 X149.400 Y105.439 F450
G1 X149.400 Y105.239
; feature solid layer
G1 X149.840 Y100.060 F2000
G92 E0.0000
G1 X156.560 Y106.780 E0.2845 F720
G1 X156.560 Y107.345 E0.3014
G1 X149.840 Y100.625 E0.5859
G1 X149.840 Y101.191 E0.6028
G1 X156.560 Y107.911 E0.8873
G1 X156.560 Y108.477 E0.9042
G1 X149.840 Y101.757 E1.1887
G1 X149.840 Y102.322 E1.2057
G1 X156.560 Y109.042 E1.4901
G1 X156.560 Y109.608 E1.5071
G1 X149.840 Y102.888 E1.7916
G1 X149.840 Y103.454 E1.8085
G1 X156.560 Y110.174 E2.0930
G1 X156.560 Y110.739 E2.1099
G1 X149.840 Y104.019 E2.3944
G1 X149.840 Y104.585 E2.4113
G1 X156.560 Y111.305 E2.6958
G1 X156.560 Y111.860 E2.7124
G1 X156.549 Y111.860 E2.7127
G1 X149.840 Y105.151 E2.9967
G1 X149.840 Y105.717 E3.0137
G1 X155.983 Y111.860 E3.2738
G1 X155.418 Y111.860 E3.2907
G1 X149.437 Y105.879 E3.5439
G1 X148.871 Y105.879 E3.5608
G1 X154.852 Y111.860 E3.8140
G1 X154.286 Y111.860 E3.8309
G1 X148.306 Y105.879 E4.0841
G1 X147.740 Y105.879 E4.1010
G1 X153.721 Y111.860 E4.3542
G1 X153.155 Y111.860 E4.3712
G1 X147.174 Y105.879 E4.6243
G1 X146.609 Y105.879 E4.6413
G1 X152.589 Y111.860 E4.8945
G1 X152.024 Y111.860 E4.9114
G1 X146.043 Y105.879 E5.1646
G1 X145.477 Y105.879 E5.1815
G1 X151.458 Y111.860 E5.4347
G1 X150.892 Y111.860 E5.4516
G1 X144.912 Y105.879 E5.7048
